; generated by PrusaSlicer 2.9.3 on 2025-11-05 at 06:41:53 UTC


;
;
; 

; external perimeters extrusion width = 0.60mm
; perimeters extrusion width = 0.50mm
; infill extrusion width = 0.50mm
; solid infill extrusion width = 0.50mm
; top infill extrusion width = 0.45mm
; first layer extrusion width = 0.42mm

; external perimeters extrusion width = 0.60mm
; perimeters extrusion width = 0.50mm
; infill extrusion width = 0.50mm
; solid infill extrusion width = 0.50mm
; top infill extrusion width = 0.45mm
; first layer extrusion width = 0.42mm

M73 P0 R35
M73 Q0 S35
M201 X1000 Y1000 Z200 E5000 ; sets maximum accelerations, mm/sec^2
M203 X200 Y200 Z12 E120 ; sets maximum feedrates, mm / sec
M204 S1250 T1250 ; sets acceleration (S) and retract acceleration (R), mm/sec^2
M205 X8.00 Y8.00 Z0.40 E4.50 ; sets the jerk limits, mm/sec
M205 S0 T0 ; sets the minimum extruding and travel feed rate, mm/sec

; printing object RH_oled_window_with_mounting_holes.stl id:0 copy 0
; stop printing object RH_oled_window_with_mounting_holes.stl id:0 copy 0
; printing object LH_oled_window_with_mounting_holes.stl id:1 copy 0
; stop printing object LH_oled_window_with_mounting_holes.stl id:1 copy 0

;TYPE:Custom
M862.3 P "MK3S" ; printer model check
M862.1 P0.4 ; nozzle diameter check
M115 U3.14.1 ; tell printer latest fw version
G90 ; use absolute coordinates
M83 ; extruder relative mode
M104 S215 ; set extruder temp
M140 S60 ; set bed temp
M190 S60 ; wait for bed temp
M109 S215 ; wait for extruder temp
G28 W ; home all without mesh bed level
G80 X81.0043 Y61.9928 W87.9905 H86.0145 ; mesh bed levelling

G1 Z0.2 F720
G1 Y-3 F1000 ; go outside print area
G92 E0
G1 X60 E9 F1000 ; intro line
G1 X100 E12.5 F1000 ; intro line

G92 E0
M221 S95

; Don't change E values below. Excessive value can damage the printer.

M907 E538 ; set extruder motor current
G21 ; set units to millimeters
G90 ; use absolute coordinates
M83 ; use relative distances for extrusion

M900 K0.05 ; Filament gcode LA 1.5
M900 K30 ; Filament gcode LA 1.0




M107
;LAYER_CHANGE
;Z:0.35
;HEIGHT:0.35
G1 E-.8 F2100
G1 Z.75 F720
G1 X87.463 Y76.111 F10800
G1 Z.35 F720
G1 E.8 F2100
M204 S800
;TYPE:Skirt/Brim
;WIDTH:0.42
G1 F1200
G1 X88.123 Y75.424 E.04781
G1 X89.032 Y74.703 E.05823
G1 X89.847 Y74.211 E.04778
G1 X110.854 Y63.044 E1.19396
G1 X112.122 Y62.528 E.0687
G1 X113.046 Y62.3 E.04776
G1 X114.38 Y62.165 E.06729
G1 X135.62 Y62.165 E1.06595
G1 X137.233 Y62.355 E.08151
G1 X138.147 Y62.62 E.04776
G1 X139.146 Y63.044 E.05446
G1 X160.732 Y74.545 E1.22748
G1 X161.664 Y75.237 E.05826
M73 P0 R34
G1 X162.537 Y76.111 E.062
G1 X163.071 Y76.806 E.04399
G1 X163.563 Y77.622 E.04782
G1 X164.025 Y78.687 E.05826
G1 X164.289 Y79.602 E.04779
G1 X164.451 Y80.713 E.05635
G1 X168.816 Y137.22 E2.8443
G1 X168.803 Y138.222 E.05029
G1 X168.48 Y140.251 E.10311
G1 X167.992 Y141.65 E.07436
G1 X167.522 Y142.604 E.05337
G1 X166.347 Y144.29 E.10313
G1 X165.299 Y145.336 E.07431
G1 X164.46 Y145.99 E.05339
G1 X163.405 Y146.637 E.06211
G1 X162.441 Y147.087 E.05339
G1 X161.033 Y147.546 E.07432
G1 X159.039 Y147.82 E.10101
G1 X91.321 Y147.835 E3.39849
G1 X89.771 Y147.704 E.07807
G1 X88.967 Y147.546 E.04112
G1 X87.559 Y147.087 E.07432
G1 X86.595 Y146.637 E.05339
G1 X85.339 Y145.851 E.07436
G1 X83.817 Y144.471 E.10311
G1 X83.146 Y143.645 E.05341
G1 X82.478 Y142.604 E.06207
G1 X82.008 Y141.65 E.05337
G1 X81.53 Y140.282 E.07272
G1 X81.2 Y138.259 E.10287
G1 X81.177 Y137.417 E.04227
G1 X85.549 Y80.713 E2.85419
G1 X85.656 Y79.88 E.04215
M73 P1 R34
M73 Q1 S35
G1 X85.884 Y78.956 E.04776
G1 X86.311 Y77.877 E.05824
G1 X86.771 Y77.043 E.0478
G1 X87.427 Y76.159 E.05525
M204 S1000
;WIPE_START
G1 F8640
G1 X87.463 Y76.111 E-.01385
G1 X88.123 Y75.424 E-.21997
G1 X89.032 Y74.703 E-.2679
G1 X89.847 Y74.211 E-.21982
G1 X90.147 Y74.052 E-.07846
;WIPE_END
G1 Z.75 F720
G1 X89.324 Y77.815 F10800
G1 Z.35 F720
G1 E.8 F2100
M204 S800
G1 F1200
G1 X90.342 Y76.865 E.06988
G1 X91.53 Y76.211 E.06806
G1 X92.871 Y75.865 E.0695
G1 X103.214 Y75.812 E.51908
G1 X104.708 Y75.648 E.07543
G1 X105.97 Y75.176 E.06762
G1 X107.081 Y74.415 E.06758
G1 X107.985 Y73.395 E.0684
G1 X108.327 Y72.833 E.03302
G1 X108.806 Y71.575 E.06756
G1 X109.023 Y69.616 E.09892
G1 X109.332 Y68.288 E.06843
G1 X109.971 Y67.065 E.06925
G1 X110.608 Y66.308 E.04965
G1 X111.344 Y65.686 E.04836
G1 X112.762 Y64.974 E.07963
G1 X114.265 Y64.69 E.07676
G1 X121.192 Y64.687 E.34764
G1 X122.351 Y64.857 E.05879
G1 X123.418 Y65.246 E.057
G1 X125.033 Y66.412 E.09997
G1 X126.086 Y65.526 E.06906
G1 X127.631 Y64.862 E.08439
G1 X128.831 Y64.686 E.06087
G1 X135.7 Y64.686 E.34473
G1 X137.182 Y64.955 E.07559
G1 X138.455 Y65.556 E.07065
G1 X139.531 Y66.453 E.0703
G1 X140.342 Y67.577 E.06956
G1 X140.882 Y69.001 E.07643
G1 X141.194 Y71.575 E.13012
G1 X141.673 Y72.833 E.06756
G1 X142.023 Y73.41 E.03387
M73 Q1 S34
G1 X142.919 Y74.415 E.06757
G1 X144.03 Y75.176 E.06758
G1 X145.292 Y75.648 E.06762
G1 X145.956 Y75.766 E.03385
G1 X157.063 Y75.857 E.55743
G1 X158.263 Y76.133 E.0618
G1 X159.4 Y76.689 E.06352
G1 X160.36 Y77.467 E.06201
G1 X161.094 Y78.389 E.05914
G1 X161.698 Y79.678 E.07144
G1 X161.963 Y81.188 E.07694
G1 X161.963 Y130.71 E2.48531
G1 X163.376 Y131.578 E.08322
G1 X164.67 Y132.88 E.09212
G1 X165.635 Y134.479 E.09373
G1 X166.125 Y135.97 E.07876
G1 X166.303 Y137.529 E.07875
G1 X166.15 Y139.148 E.08161
G1 X165.658 Y140.709 E.08214
G1 X164.768 Y142.234 E.08861
G1 X163.432 Y143.616 E.09647
G1 X161.774 Y144.634 E.09764
G1 X160.266 Y145.136 E.07976
G1 X158.672 Y145.318 E.08052
G1 X129.304 Y145.316 E1.47386
G1 X127.692 Y145.04 E.08208
G1 X126.241 Y144.365 E.08031
G1 X125.021 Y143.31 E.08094
G1 X123.689 Y144.408 E.08663
G1 X122.27 Y145.051 E.07818
G1 X120.721 Y145.314 E.07885
G1 X91.329 Y145.318 E1.47506
G1 X89.881 Y145.167 E.07306
G1 X88.461 Y144.739 E.07443
G1 X86.787 Y143.786 E.09667
G1 X85.385 Y142.429 E.09792
G1 X84.522 Y141.088 E.08003
G1 X83.921 Y139.463 E.08695
G1 X83.697 Y137.573 E.09552
G1 X83.87 Y135.994 E.07972
G1 X84.376 Y134.454 E.08135
G1 X85.31 Y132.906 E.09073
G1 X86.433 Y131.734 E.08146
G1 X87.725 Y130.852 E.07851
G1 X88.037 Y130.716 E.01708
G1 X88.037 Y81.233 E2.48335
G1 X88.189 Y80.085 E.05812
G1 X88.577 Y78.981 E.05873
G1 X89.291 Y77.866 E.06645
M204 S1000
G1 X89.576 Y78.051 F10800
M204 S800
G1 F1200
G1 X90.527 Y77.156 E.06554
G1 X91.677 Y76.524 E.06586
G1 X92.935 Y76.205 E.06513
G1 X103.224 Y76.157 E.51637
G1 X104.789 Y75.984 E.07902
G1 X106.129 Y75.483 E.0718
G1 X107.309 Y74.675 E.07177
G1 X108.268 Y73.593 E.07256
G1 X108.632 Y72.994 E.03518
G1 X109.141 Y71.658 E.07175
G1 X109.272 Y70.949 E.03618
G1 X109.362 Y69.681 E.0638
G1 X109.663 Y68.388 E.06663
G1 X110.267 Y67.243 E.06497
G1 X110.862 Y66.542 E.04614
G1 X111.55 Y65.963 E.04513
G1 X112.851 Y65.308 E.0731
G1 X114.282 Y65.035 E.07311
G1 X121.155 Y65.03 E.34493
G1 X122.25 Y65.187 E.05552
G1 X123.277 Y65.562 E.05487
G1 X124.7 Y66.597 E.08831
G1 X124.968 Y66.921 E.0211
G1 X126.247 Y65.832 E.0843
G1 X127.705 Y65.2 E.07975
G1 X128.844 Y65.03 E.05779
G1 X135.655 Y65.029 E.34182
G1 X137.056 Y65.277 E.0714
G1 X138.288 Y65.859 E.06838
G1 X139.265 Y66.673 E.06382
G1 X140.027 Y67.721 E.06503
G1 X140.553 Y69.105 E.0743
G1 X140.859 Y71.658 E.12904
G1 X141.368 Y72.994 E.07175
G1 X141.74 Y73.607 E.03599
G1 X142.691 Y74.675 E.07177
G1 X143.871 Y75.483 E.07177
G1 X145.211 Y75.984 E.0718
G1 X145.916 Y76.11 E.03594
G1 X157.042 Y76.202 E.55839
G1 X158.165 Y76.464 E.05787
G1 X159.23 Y76.989 E.05959
G1 X160.103 Y77.697 E.05641
G1 X160.79 Y78.554 E.05512
M73 P2 R34
G1 X161.376 Y79.803 E.06924
M73 Q2 S34
G1 X161.618 Y81.202 E.07125
G1 X161.618 Y130.943 E2.4963
G1 X162.03 Y131.113 E.02237
G1 X163.173 Y131.857 E.06844
G1 X164.41 Y133.107 E.08826
G1 X165.329 Y134.639 E.08966
G1 X165.791 Y136.06 E.07499
G1 X165.958 Y137.515 E.0735
G1 X165.815 Y139.062 E.07797
G1 X165.35 Y140.552 E.07833
G1 X164.481 Y142.042 E.08657
G1 X163.2 Y143.36 E.09224
G1 X161.612 Y144.329 E.09336
G1 X160.175 Y144.803 E.07594
G1 X158.662 Y144.973 E.07641
G1 X129.318 Y144.971 E1.47266
G1 X127.815 Y144.717 E.0765
G1 X126.44 Y144.082 E.07601
G1 X125.476 Y143.311 E.06195
G1 X124.992 Y142.731 E.03791
G1 X124.705 Y143.123 E.02438
G1 X123.525 Y144.103 E.07698
G1 X122.149 Y144.728 E.07585
G1 X120.707 Y144.969 E.07337
G1 X91.338 Y144.973 E1.47391
G1 X89.934 Y144.826 E.07085
G1 X88.58 Y144.415 E.07101
G1 X86.978 Y143.498 E.09264
G1 X85.64 Y142.196 E.09369
G1 X84.839 Y140.95 E.07434
G1 X84.261 Y139.401 E.08297
G1 X84.042 Y137.591 E.0915
G1 X84.211 Y136.05 E.0778
G1 X84.697 Y134.582 E.07761
G1 X85.595 Y133.101 E.08692
G1 X86.642 Y132.009 E.07592
G1 X87.904 Y131.147 E.0767
G1 X88.382 Y130.947 E.026
G1 X88.382 Y81.244 E2.49439
G1 X88.521 Y80.181 E.0538
G1 X88.879 Y79.148 E.05487
G1 X89.544 Y78.102 E.06221
M204 S1000
G1 X89.829 Y78.287 F10800
M204 S800
G1 F1200
G1 X90.747 Y77.423 E.06327
G1 X91.822 Y76.838 E.06142
G1 X92.998 Y76.544 E.06084
G1 X104.123 Y76.453 E.55834
G1 X105.595 Y76.098 E.07599
G1 X106.288 Y75.79 E.03806
G1 X107.537 Y74.934 E.07599
G1 X108.552 Y73.791 E.07672
G1 X108.938 Y73.155 E.03734
G1 X109.477 Y71.741 E.07594
G1 X109.615 Y70.992 E.03822
G1 X109.701 Y69.745 E.06273
G1 X109.979 Y68.528 E.06265
G1 X110.543 Y67.451 E.06101
G1 X111.095 Y66.797 E.04295
G1 X111.756 Y66.24 E.04338
G1 X112.983 Y65.628 E.06881
G1 X114.329 Y65.377 E.06871
G1 X121.12 Y65.373 E.34081
G1 X122.149 Y65.517 E.05214
G1 X123.136 Y65.877 E.05273
G1 X124.475 Y66.86 E.08336
G1 X125.012 Y67.541 E.04352
G1 X125.354 Y67.045 E.03024
G1 X126.409 Y66.138 E.06982
G1 X127.82 Y65.526 E.07719
G1 X128.88 Y65.374 E.05374
G1 X135.64 Y65.374 E.33926
G1 X136.931 Y65.599 E.06577
G1 X138.085 Y66.138 E.06392
G1 X139.027 Y66.924 E.06157
G1 X139.734 Y67.904 E.06065
G1 X140.214 Y69.172 E.06804
G1 X140.523 Y71.741 E.12986
G1 X141.062 Y73.155 E.07594
G1 X141.925 Y74.399 E.07598
G1 X142.463 Y74.934 E.03808
G1 X143.712 Y75.79 E.07599
G1 X144.917 Y76.255 E.06482
G1 X145.877 Y76.453 E.04919
G1 X156.982 Y76.542 E.55733
G1 X158.067 Y76.795 E.05591
G1 X159.059 Y77.289 E.05562
G1 X159.846 Y77.928 E.05088
G1 X160.488 Y78.721 E.0512
G1 X161.04 Y79.886 E.0647
G1 X161.273 Y81.217 E.06781
G1 X161.273 Y131.178 E2.50734
G1 X161.857 Y131.411 E.03156
G1 X162.969 Y132.136 E.06662
G1 X164.126 Y133.303 E.08247
G1 X165.007 Y134.766 E.08571
G1 X165.451 Y136.118 E.07142
G1 X165.613 Y137.501 E.06988
G1 X165.474 Y139.012 E.07615
G1 X165.027 Y140.429 E.07457
G1 X164.194 Y141.849 E.08262
G1 X162.969 Y143.103 E.08798
G1 X161.45 Y144.024 E.08915
G1 X160.085 Y144.469 E.07205
G1 X158.653 Y144.629 E.07231
G1 X129.333 Y144.626 E1.47145
G1 X127.897 Y144.381 E.07311
G1 X126.605 Y143.779 E.07153
G1 X125.707 Y143.054 E.05792
G1 X124.968 Y142.157 E.05833
G1 X124.465 Y142.875 E.044
G1 X123.36 Y143.8 E.07232
G1 X122.068 Y144.392 E.07132
G1 X120.692 Y144.624 E.07003
G1 X91.348 Y144.629 E1.47266
G1 X89.987 Y144.484 E.06869
M73 P3 R34
M73 Q3 S34
G1 X88.7 Y144.091 E.06753
G1 X87.169 Y143.21 E.08865
G1 X85.895 Y141.964 E.08943
G1 X85.139 Y140.78 E.0705
G1 X84.6 Y139.339 E.07721
G1 X84.386 Y137.57 E.08943
G1 X84.551 Y136.107 E.07389
G1 X85.018 Y134.71 E.07392
G1 X85.879 Y133.297 E.08304
G1 X86.878 Y132.262 E.07219
G1 X88.082 Y131.443 E.07308
G1 X88.727 Y131.18 E.03496
G1 X88.727 Y81.255 E2.50553
G1 X88.853 Y80.276 E.04954
G1 X89.182 Y79.314 E.05102
G1 X89.797 Y78.338 E.05789
M204 S1000
G1 X90.082 Y78.521 F10800
M204 S800
G1 F1200
G1 X90.932 Y77.715 E.05879
G1 X91.967 Y77.151 E.05915
G1 X93.06 Y76.884 E.05647
G1 X103.244 Y76.846 E.5111
G1 X104.163 Y76.796 E.04619
G1 X105.716 Y76.421 E.08018
G1 X106.448 Y76.096 E.04019
G1 X107.766 Y75.193 E.08018
G1 X108.835 Y73.989 E.0808
G1 X109.573 Y72.587 E.07951
G1 X109.812 Y71.824 E.04013
G1 X109.957 Y71.035 E.04026
G1 X110.041 Y69.806 E.06182
G1 X110.296 Y68.667 E.05858
G1 X110.819 Y67.658 E.05704
G1 X111.349 Y67.031 E.0412
G1 X111.962 Y66.518 E.04012
G1 X113.113 Y65.948 E.06446
G1 X114.375 Y65.719 E.06437
G1 X121.085 Y65.717 E.33675
G1 X122.048 Y65.848 E.04877
G1 X122.994 Y66.193 E.05053
G1 X124.25 Y67.122 E.0784
G1 X124.994 Y68.198 E.06565
G1 X125.598 Y67.29 E.05473
G1 X126.614 Y66.417 E.06723
G1 X127.893 Y65.864 E.06993
G1 X128.893 Y65.718 E.05072
G1 X135.626 Y65.718 E.3379
G1 X136.808 Y65.922 E.0602
G1 X137.883 Y66.419 E.05944
G1 X138.761 Y67.144 E.05714
G1 X139.441 Y68.087 E.05835
M73 P3 R33
G1 X139.875 Y69.239 E.06178
G1 X140.188 Y71.824 E.13068
G1 X140.756 Y73.317 E.08017
G1 X141.172 Y74.001 E.04018
G1 X142.234 Y75.193 E.08012
G1 X143.552 Y76.096 E.08018
G1 X144.816 Y76.585 E.06802
G1 X145.837 Y76.796 E.05232
G1 X156.924 Y76.882 E.55643
G1 X157.932 Y77.113 E.0519
G1 X158.888 Y77.589 E.0536
G1 X159.614 Y78.184 E.04711
G1 X160.186 Y78.889 E.04556
G1 X160.705 Y79.97 E.06018
G1 X160.928 Y81.233 E.06437
G1 X160.928 Y131.414 E2.51838
G1 X161.684 Y131.71 E.04075
G1 X162.765 Y132.415 E.06477
G1 X163.841 Y133.5 E.07669
G1 X164.686 Y134.893 E.08177
G1 X165.111 Y136.176 E.06783
G1 X165.268 Y137.489 E.06636
G1 X165.139 Y138.926 E.07241
G1 X164.704 Y140.307 E.07266
G1 X163.908 Y141.655 E.07856
G1 X162.739 Y142.846 E.08375
G1 X161.29 Y143.718 E.08487
G1 X159.996 Y144.135 E.06823
G1 X158.643 Y144.284 E.06831
G1 X129.347 Y144.281 E1.47025
G1 X128.021 Y144.058 E.06748
G1 X126.771 Y143.475 E.06922
G1 X125.938 Y142.798 E.05387
G1 X125.317 Y142.038 E.04925
G1 X125.023 Y141.464 E.03237
G1 X124.224 Y142.627 E.07081
G1 X123.193 Y143.497 E.0677
G1 X121.987 Y144.056 E.06671
G1 X120.677 Y144.279 E.06669
G1 X91.356 Y144.284 E1.4715
G1 X90.071 Y144.15 E.06484
G1 X88.82 Y143.767 E.06566
G1 X87.361 Y142.923 E.08459
G1 X86.152 Y141.732 E.08517
G1 X85.44 Y140.611 E.06665
G1 X84.94 Y139.277 E.0715
G1 X84.731 Y137.549 E.08735
G1 X84.892 Y136.165 E.06993
G1 X85.339 Y134.839 E.07023
G1 X86.163 Y133.494 E.07916
G1 X87.112 Y132.515 E.06843
G1 X88.259 Y131.74 E.06947
G1 X89.072 Y131.415 E.04394
G1 X89.072 Y81.266 E2.51677
G1 X89.186 Y80.369 E.04538
G1 X89.486 Y79.479 E.04713
G1 X90.051 Y78.572 E.05363
M204 S1000
G1 X90.342 Y78.756 F10800
M204 S800
G1 F1200
G1 X90.362 Y78.724 E.00189
G1 X91.151 Y77.982 E.05436
G1 X92.11 Y77.466 E.05465
G1 X93.12 Y77.224 E.05212
G1 X103.254 Y77.191 E.50859
G1 X104.203 Y77.139 E.0477
G1 X105.032 Y76.992 E.04225
G1 X105.837 Y76.745 E.04226
G1 X106.607 Y76.403 E.04228
G1 X107.329 Y75.97 E.04225
G1 X107.994 Y75.453 E.04227
G1 X109.118 Y74.187 E.08496
G1 X109.549 Y73.478 E.04164
G1 X109.896 Y72.71 E.04229
G1 X110.148 Y71.907 E.04224
G1 X110.3 Y71.077 E.04235
G1 X110.38 Y69.867 E.06086
G1 X110.613 Y68.804 E.05461
G1 X111.096 Y67.865 E.05299
G1 X111.582 Y67.285 E.03798
G1 X112.167 Y66.796 E.03826
G1 X113.243 Y66.268 E.06015
M73 P4 R33
G1 X114.419 Y66.061 E.05993
G1 X121.074 Y66.062 E.33399
G1 X121.95 Y66.179 E.04435
M73 Q4 S34
G1 X122.81 Y66.485 E.04581
G1 X124.025 Y67.384 E.07585
G1 X124.526 Y68.044 E.04158
G1 X125.021 Y69.062 E.05681
G1 X125.269 Y68.412 E.03491
G1 X125.842 Y67.535 E.05257
G1 X126.819 Y66.695 E.06466
G1 X127.965 Y66.202 E.06261
G1 X128.906 Y66.063 E.04774
G1 X135.612 Y66.063 E.33655
G1 X136.686 Y66.245 E.05467
G1 X137.681 Y66.699 E.05489
G1 X138.523 Y67.395 E.05482
G1 X139.147 Y68.269 E.05389
G1 X139.537 Y69.306 E.0556
G1 X139.7 Y71.078 E.0893
G1 X139.852 Y71.907 E.0423
M73 Q4 S33
G1 X140.104 Y72.71 E.04224
G1 X140.451 Y73.478 E.04229
G1 X140.888 Y74.197 E.04223
G1 X141.409 Y74.859 E.04228
G1 X142.006 Y75.453 E.04226
G1 X142.671 Y75.97 E.04227
G1 X143.393 Y76.403 E.04225
G1 X144.715 Y76.914 E.07113
G1 X145.797 Y77.139 E.05546
G1 X156.866 Y77.223 E.55552
G1 X157.834 Y77.444 E.04983
G1 X158.715 Y77.888 E.04951
G1 X159.358 Y78.416 E.04175
G1 X159.885 Y79.059 E.04172
G1 X160.369 Y80.055 E.05557
G1 X160.583 Y81.248 E.06083
G1 X160.583 Y131.651 E2.52952
G1 X161.511 Y132.009 E.04992
G1 X162.562 Y132.694 E.06296
G1 X163.558 Y133.697 E.07094
G1 X164.365 Y135.021 E.07782
G1 X164.771 Y136.236 E.06429
G1 X164.923 Y137.476 E.0627
G1 X164.797 Y138.877 E.07059
G1 X164.382 Y140.183 E.06877
G1 X163.623 Y141.46 E.07455
G1 X162.509 Y142.587 E.07953
G1 X161.13 Y143.411 E.08062
G1 X159.909 Y143.802 E.06434
G1 X158.634 Y143.939 E.06436
G1 X129.362 Y143.936 E1.46904
G1 X128.103 Y143.722 E.06409
G1 X126.937 Y143.173 E.06468
