; generated by PrusaSlicer 2.9.4 on 2025-11-11 at 15:38:58 UTC


;
;
; 

; external perimeters extrusion width = 0.60mm
; perimeters extrusion width = 0.50mm
; infill extrusion width = 0.50mm
; solid infill extrusion width = 0.50mm
; top infill extrusion width = 0.45mm
; support material extrusion width = 0.38mm
; first layer extrusion width = 0.42mm

M73 P0 R38
M73 Q0 S38
M201 X1000 Y1000 Z200 E5000 ; sets maximum accelerations, mm/sec^2
M203 X200 Y200 Z12 E120 ; sets maximum feedrates, mm / sec
M204 S1250 T1250 ; sets acceleration (S) and retract acceleration (R), mm/sec^2
M205 X8.00 Y8.00 Z0.40 E4.50 ; sets the jerk limits, mm/sec
M205 S0 T0 ; sets the minimum extruding and travel feed rate, mm/sec

; printing object cirque_40mm_mount_5deg.stl id:0 copy 0
; stop printing object cirque_40mm_mount_5deg.stl id:0 copy 0

;TYPE:Custom
M862.3 P "MK3S" ; printer model check
M862.1 P0.4 ; nozzle diameter check
M115 U3.14.1 ; tell printer latest fw version
G90 ; use absolute coordinates
M83 ; extruder relative mode
M104 S215 ; set extruder temp
M140 S60 ; set bed temp
M190 S60 ; wait for bed temp
M109 S215 ; wait for extruder temp
G28 W ; home all without mesh bed level
G80 X89.3348 Y61.9928 W71.3306 H86.0145 ; mesh bed levelling

G1 Z0.2 F720
G1 Y-3 F1000 ; go outside print area
G92 E0
G1 X60 E9 F1000 ; intro line
G1 X100 E12.5 F1000 ; intro line
M73 P0 R37

G92 E0
M221 S95

; Don't change E values below. Excessive value can damage the printer.

M907 E538 ; set extruder motor current
G21 ; set units to millimeters
G90 ; use absolute coordinates
M83 ; use relative distances for extrusion

M900 K0.05 ; Filament gcode LA 1.5
M900 K30 ; Filament gcode LA 1.0




M107
;LAYER_CHANGE
;Z:0.35
;HEIGHT:0.35
G1 E-.8 F2100
G1 Z.75 F720
G1 X105.21 Y77.631 F10800
G1 Z.35 F720
G1 E.8 F2100
M204 S800
;TYPE:Skirt/Brim
;WIDTH:0.42
G1 F1200
G1 X114.008 Y65.707 E.74368
G1 X114.565 Y64.981 E.04592
G1 X115.225 Y64.295 E.04777
G1 X116.134 Y63.574 E.05823
G1 X116.949 Y63.081 E.0478
G1 X118.014 Y62.62 E.05824
G1 X119.208 Y62.3 E.06204
G1 X120.542 Y62.165 E.06729
G1 X127.293 Y62.165 E.33881
G1 X128.903 Y62.355 E.08136
G1 X129.818 Y62.62 E.04781
G1 X130.816 Y63.044 E.05442
G1 X152.402 Y74.545 E1.22748
G1 X153.548 Y75.424 E.07248
G1 X154.208 Y76.111 E.04781
G1 X154.742 Y76.806 E.04399
G1 X155.36 Y77.877 E.06206
G1 X155.786 Y78.956 E.05822
G1 X156.015 Y79.88 E.04777
G1 X156.121 Y80.713 E.04214
G1 X160.487 Y137.22 E2.84431
G1 X160.489 Y137.978 E.03804
G1 X160.326 Y139.45 E.07433
G1 X160.081 Y140.486 E.05343
G1 X159.313 Y142.391 E.10308
G1 X158.381 Y143.843 E.08659
G1 X156.969 Y145.336 E.10313
G1 X156.13 Y145.99 E.05339
G1 X154.86 Y146.752 E.07433
G1 X152.939 Y147.481 E.10312
G1 X151.899 Y147.704 E.05338
G1 X150.35 Y147.835 E.07802
G1 X121.017 Y147.835 E1.4721
G1 X119.275 Y147.627 E.08804
G1 X118.36 Y147.363 E.04779
G1 X117.43 Y146.977 E.05053
G1 X116.596 Y146.518 E.04778
G1 X115.485 Y145.685 E.06969
G1 X100.087 Y132.735 E1.00972
G1 X98.681 Y131.409 E.09699
G1 X97.445 Y130.095 E.09053
G1 X96.073 Y128.44 E.10789
G1 X95.011 Y126.982 E.09052
G1 X93.969 Y125.354 E.097
G1 X93.088 Y123.779 E.09057
G1 X92.272 Y122.098 E.09378
G1 X91.557 Y120.371 E.09381
G1 X90.946 Y118.604 E.09383
G1 X90.441 Y116.804 E.09382
G1 X90.06 Y115.071 E.08905
G1 X89.772 Y113.279 E.09109
G1 X89.59 Y111.482 E.09065
G1 X89.509 Y109.549 E.09709
G1 X89.541 Y107.743 E.09065
G1 X89.714 Y105.599 E.10795
G1 X89.971 Y103.811 E.09065
G1 X90.346 Y101.978 E.0939
G1 X90.828 Y100.171 E.09386
G1 X91.418 Y98.396 E.09387
G1 X92.111 Y96.658 E.0939
G1 X92.907 Y94.966 E.09384
G1 X93.725 Y93.455 E.08623
G1 X94.708 Y91.864 E.09386
G1 X105.175 Y77.679 E.88471
M204 S1000
;WIPE_START
G1 F8640
G1 X105.21 Y77.631 E-.01372
G1 X107.232 Y74.891 E-.78628
;WIPE_END
G1 Z.75 F720
G1 X108.081 Y83.295 F10800
G1 Z.35 F720
G1 E.8 F2100
M204 S800
G1 F1200
G1 X108.379 Y83.14 E.01686
G1 X109.939 Y82.447 E.08567
G1 X113.117 Y81.357 E.16861
G1 X115.137 Y80.873 E.10424
G1 X115.152 Y69.917 E.54984
G1 X115.323 Y68.83 E.05522
G1 X115.686 Y67.83 E.05339
G1 X116.863 Y66.212 E.10041
G1 X117.737 Y65.537 E.05542
G1 X118.756 Y65.032 E.05707
G1 X120.064 Y64.724 E.06744
G1 X127.715 Y64.718 E.38397
G1 X128.916 Y64.976 E.06165
G1 X130.001 Y65.479 E.06002
G1 X130.985 Y66.233 E.06221
G1 X131.774 Y67.175 E.06167
G1 X132.532 Y68.9 E.09456
G1 X132.751 Y70.967 E.10431
G1 X133.13 Y72.375 E.07318
G1 X133.861 Y73.636 E.07315
G1 X134.344 Y74.184 E.03666
G1 X135.504 Y75.067 E.07316
G1 X136.161 Y75.388 E.0367
M73 Q1 S38
G1 X137.571 Y75.758 E.07316
M73 P1 R37
G1 X148.201 Y75.812 E.53348
G1 X149.278 Y75.944 E.05445
G1 X150.639 Y76.44 E.0727
G1 X151.835 Y77.278 E.07329
G1 X152.758 Y78.379 E.0721
G1 X153.367 Y79.675 E.07186
G1 X153.633 Y81.188 E.0771
G1 X153.633 Y130.71 E2.48531
G1 X155.049 Y131.581 E.08343
M73 Q1 S37
G1 X156.342 Y132.882 E.09205
G1 X157.322 Y134.516 E.09562
G1 X157.812 Y136.048 E.08072
G1 X157.974 Y137.606 E.07861
G1 X157.816 Y139.173 E.07904
G1 X157.348 Y140.664 E.07843
G1 X156.439 Y142.233 E.091
G1 X154.989 Y143.705 E.1037
G1 X153.208 Y144.739 E.10335
G1 X151.788 Y145.167 E.07443
G1 X150.341 Y145.318 E.07301
G1 X121.034 Y145.318 E1.4708
G1 X119.804 Y145.16 E.06224
G1 X118.596 Y144.743 E.06414
G1 X117.281 Y143.901 E.07836
G1 X116.194 Y142.714 E.08077
G1 X115.369 Y140.982 E.09628
G1 X115.117 Y139.445 E.07817
G1 X115.117 Y137.507 E.09726
G1 X113.707 Y137.198 E.07244
G1 X112.056 Y136.721 E.08625
G1 X110.399 Y136.135 E.08821
G1 X108.795 Y135.452 E.08749
G1 X107.235 Y134.675 E.08746
G1 X105.721 Y133.801 E.08773
G1 X102.99 Y131.886 E.1674
G1 X101.657 Y130.764 E.08744
G1 X100.381 Y129.55 E.08839
G1 X99.216 Y128.301 E.08572
G1 X98.138 Y126.997 E.08491
G1 X97.141 Y125.638 E.08459
G1 X96.207 Y124.193 E.08635
G1 X95.349 Y122.673 E.0876
G1 X94.594 Y121.127 E.08635
G1 X93.392 Y117.992 E.1685
G1 X92.882 Y116.192 E.09389
G1 X92.515 Y114.508 E.0865
G1 X92.248 Y112.807 E.08641
G1 X92.085 Y111.096 E.08626
G1 X92.024 Y109.376 E.08637
G1 X92.065 Y107.655 E.08639
G1 X92.208 Y105.937 E.08652
G1 X92.448 Y104.258 E.08512
G1 X92.789 Y102.582 E.08583
G1 X93.757 Y99.326 E.17047
G1 X95.1 Y96.206 E.17047
G1 X95.911 Y94.702 E.08575
G1 X96.804 Y93.257 E.08525
G1 X97.793 Y91.85 E.08631
G1 X98.866 Y90.502 E.08647
G1 X100.013 Y89.225 E.08614
G1 X101.236 Y88.016 E.08631
G1 X102.62 Y86.808 E.09219
G1 X105.353 Y84.827 E.1694
G1 X106.872 Y83.92 E.08879
G1 X108.028 Y83.322 E.06532
M204 S1000
G1 X108.194 Y83.667 F10800
M204 S800
G1 F1200
G1 X110.065 Y82.768 E.10417
G1 X113.215 Y81.688 E.16712
G1 X115.481 Y81.167 E.11669
G1 X115.495 Y69.956 E.56263
G1 X115.653 Y68.931 E.05205
G1 X116.002 Y67.971 E.05126
G1 X117.093 Y66.47 E.09313
G1 X117.934 Y65.821 E.05331
G1 X118.89 Y65.35 E.05348
G1 X120.122 Y65.065 E.06346
G1 X127.661 Y65.059 E.37835
G1 X128.789 Y65.297 E.05786
G1 X129.839 Y65.784 E.05809
G1 X130.758 Y66.494 E.05828
G1 X131.493 Y67.377 E.05766
G1 X132.195 Y68.975 E.08759
G1 X132.408 Y71.012 E.10279
G1 X132.56 Y71.773 E.03895
G1 X132.811 Y72.507 E.03893
G1 X133.155 Y73.203 E.03896
G1 X133.588 Y73.847 E.03895
G1 X134.101 Y74.429 E.03894
G1 X134.686 Y74.939 E.03895
G1 X135.333 Y75.367 E.03893
G1 X136.03 Y75.708 E.03894
G1 X136.766 Y75.954 E.03895
G1 X137.528 Y76.101 E.03895
G1 X138.453 Y76.156 E.0465
G1 X148.191 Y76.156 E.48871
G1 X149.18 Y76.276 E.05
G1 X150.462 Y76.737 E.06837
G1 X151.587 Y77.518 E.06873
G1 X152.457 Y78.548 E.06766
G1 X153.032 Y79.759 E.06728
G1 X153.288 Y81.203 E.0736
G1 X153.288 Y130.943 E2.49625
G1 X153.702 Y131.113 E.02246
G1 X154.819 Y131.837 E.0668
G1 X156.058 Y133.079 E.08804
G1 X157 Y134.641 E.09154
G1 X157.471 Y136.103 E.07709
G1 X157.629 Y137.59 E.07505
G1 X157.482 Y139.087 E.07549
G1 X157.025 Y140.542 E.07654
G1 X156.152 Y142.041 E.08706
G1 X154.796 Y143.419 E.09702
G1 X153.089 Y144.415 E.09918
G1 X151.735 Y144.826 E.07101
G1 X150.332 Y144.973 E.0708
G1 X121.045 Y144.973 E1.46979
G1 X119.866 Y144.82 E.05967
G1 X118.728 Y144.424 E.06047
G1 X117.519 Y143.651 E.07202
G1 X116.494 Y142.541 E.07582
G1 X115.705 Y140.901 E.09133
G1 X115.461 Y139.431 E.07478
G1 X115.462 Y137.229 E.11051
G1 X113.797 Y136.865 E.08553
G1 X112.157 Y136.391 E.08567
G1 X110.519 Y135.811 E.08721
G1 X108.934 Y135.137 E.08644
G1 X107.402 Y134.373 E.08591
G1 X105.906 Y133.51 E.08667
G1 X103.2 Y131.613 E.16585
G1 X101.883 Y130.504 E.08641
G1 X100.629 Y129.311 E.08686
G1 X98.413 Y126.789 E.16849
G1 X96.5 Y124.01 E.16932
G1 X95.652 Y122.508 E.08656
G1 X94.907 Y120.98 E.08531
G1 X93.719 Y117.883 E.16647
G1 X93.218 Y116.113 E.09232
G1 X92.855 Y114.45 E.08542
G1 X92.591 Y112.769 E.0854
G1 X92.43 Y111.078 E.08525
G1 X92.369 Y109.378 E.08537
G1 X92.409 Y107.678 E.08534
G1 X92.55 Y105.981 E.08546
G1 X93.123 Y102.666 E.16883
G1 X94.083 Y99.439 E.16896
G1 X95.41 Y96.356 E.16845
G1 X97.095 Y93.443 E.16889
G1 X98.072 Y92.053 E.08527
G1 X99.132 Y90.721 E.08543
G1 X100.266 Y89.459 E.08515
G1 X101.475 Y88.265 E.08528
G1 X102.835 Y87.078 E.09059
G1 X105.542 Y85.115 E.16781
G1 X107.036 Y84.224 E.0873
G1 X108.14 Y83.693 E.06148
M204 S1000
G1 X108.289 Y84.004 F10800
M204 S800
G1 F1200
G1 X110.191 Y83.089 E.10592
G1 X113.313 Y82.019 E.16563
M73 P2 R37
G1 X115.826 Y81.454 E.12927
G1 X115.838 Y69.995 E.57508
M73 Q2 S37
G1 X115.983 Y69.032 E.04887
G1 X116.317 Y68.111 E.04917
G1 X117.323 Y66.728 E.08583
G1 X118.131 Y66.105 E.0512
G1 X119.023 Y65.669 E.04983
G1 X120.18 Y65.405 E.05956
G1 X127.609 Y65.4 E.37283
G1 X128.663 Y65.619 E.05403
G1 X129.675 Y66.088 E.05598
G1 X130.531 Y66.754 E.05443
G1 X131.212 Y67.578 E.05365
G1 X131.857 Y69.05 E.08065
G1 X132.066 Y71.057 E.10127
G1 X132.226 Y71.863 E.04124
G1 X132.491 Y72.64 E.0412
G1 X132.856 Y73.376 E.04123
G1 X133.314 Y74.058 E.04123
G1 X133.857 Y74.674 E.04121
G1 X134.476 Y75.214 E.04122
G1 X135.161 Y75.667 E.04121
G1 X135.899 Y76.028 E.04123
G1 X136.678 Y76.288 E.04121
G1 X137.484 Y76.444 E.0412
G1 X138.443 Y76.501 E.04821
G1 X148.181 Y76.501 E.48871
G1 X149.083 Y76.607 E.04558
G1 X150.286 Y77.034 E.06406
G1 X151.34 Y77.76 E.06423
G1 X152.155 Y78.716 E.06305
G1 X152.71 Y79.885 E.06494
G1 X152.943 Y81.218 E.06791
G1 X152.943 Y131.178 E2.50729
G1 X153.529 Y131.412 E.03167
G1 X154.616 Y132.117 E.06502
G1 X155.774 Y133.275 E.08219
G1 X156.679 Y134.767 E.08758
G1 X157.13 Y136.158 E.07339
G1 X157.284 Y137.574 E.07148
G1 X157.14 Y139.035 E.07368
G1 X156.702 Y140.419 E.07285
G1 X155.866 Y141.848 E.08309
G1 X154.567 Y143.16 E.09266
G1 X152.969 Y144.091 E.09281
G1 X151.683 Y144.485 E.0675
G1 X150.323 Y144.629 E.06863
G1 X121.057 Y144.629 E1.46874
G1 X119.929 Y144.481 E.05709
G1 X118.862 Y144.106 E.05676
G1 X117.724 Y143.373 E.06793
G1 X116.766 Y142.327 E.07118
G1 X116.027 Y140.775 E.08627
G1 X115.806 Y139.417 E.06905
G1 X115.806 Y136.951 E.12376
G1 X113.887 Y136.532 E.09858
G1 X112.257 Y136.062 E.08514
G1 X110.64 Y135.488 E.08611
G1 X109.074 Y134.822 E.0854
G1 X107.561 Y134.067 E.08486
G1 X106.092 Y133.22 E.0851
G1 X103.411 Y131.339 E.16436
G1 X102.117 Y130.25 E.08488
G1 X100.878 Y129.072 E.0858
G1 X98.682 Y126.573 E.16696
G1 X96.797 Y123.836 E.16678
G1 X95.955 Y122.343 E.08602
G1 X95.219 Y120.834 E.08426
G1 X94.046 Y117.774 E.16447
G1 X93.554 Y116.034 E.09075
G1 X92.934 Y112.731 E.16866
G1 X92.714 Y109.381 E.16848
G1 X92.892 Y106.024 E.16871
G1 X93.458 Y102.749 E.1668
G1 X94.406 Y99.561 E.16692
G1 X95.721 Y96.507 E.16687
G1 X97.385 Y93.629 E.16684
G1 X98.351 Y92.256 E.08425
G1 X99.399 Y90.94 E.08443
G1 X101.714 Y88.514 E.16829
G1 X103.05 Y87.348 E.08899
G1 X105.732 Y85.403 E.16627
G1 X107.199 Y84.528 E.08572
G1 X108.235 Y84.03 E.05769
M204 S1000
G1 X108.385 Y84.34 F10800
M204 S800
G1 F1200
G1 X110.317 Y83.41 E.10761
G1 X113.41 Y82.349 E.1641
G1 X116.17 Y81.742 E.14182
G1 X116.181 Y70.033 E.58763
G1 X116.321 Y69.101 E.0473
G1 X116.633 Y68.253 E.04535
G1 X117.554 Y66.985 E.07865
G1 X118.298 Y66.407 E.04728
G1 X119.156 Y65.988 E.04792
G1 X120.236 Y65.746 E.05554
G1 X127.558 Y65.742 E.36746
G1 X128.537 Y65.941 E.05014
G1 X129.481 Y66.374 E.05212
G1 X130.278 Y66.989 E.05052
G1 X130.931 Y67.779 E.05144
G1 X131.52 Y69.125 E.07373
G1 X131.723 Y71.102 E.09974
G1 X131.893 Y71.952 E.0435
G1 X132.172 Y72.773 E.04352
G1 X132.557 Y73.55 E.04352
G1 X133.04 Y74.269 E.04347
G1 X133.613 Y74.919 E.04349
G1 X134.267 Y75.489 E.04354
G1 X134.989 Y75.967 E.04346
G1 X135.768 Y76.347 E.0435
G1 X136.59 Y76.622 E.0435
G1 X137.441 Y76.787 E.0435
G1 X138.433 Y76.846 E.04987
G1 X148.171 Y76.846 E.48871
G1 X148.988 Y76.939 E.04127
M73 P2 R36
G1 X150.111 Y77.332 E.05971
G1 X151.094 Y78.002 E.0597
G1 X151.855 Y78.887 E.05858
G1 X152.375 Y79.969 E.06025
G1 X152.599 Y81.233 E.06442
G1 X152.599 Y131.414 E2.51838
G1 X153.357 Y131.711 E.04086
G1 X154.413 Y132.396 E.06317
G1 X155.491 Y133.473 E.07647
G1 X156.357 Y134.894 E.08351
G1 X156.79 Y136.214 E.06972
G1 X156.939 Y137.56 E.06796
G1 X156.806 Y138.949 E.07003
G1 X156.379 Y140.296 E.07092
G1 X155.58 Y141.653 E.07903
G1 X154.338 Y142.9 E.08833
G1 X152.849 Y143.767 E.08647
G1 X151.598 Y144.15 E.06566
G1 X150.314 Y144.284 E.06479
G1 X121.068 Y144.284 E1.46774
G1 X119.993 Y144.141 E.05443
G1 X118.997 Y143.788 E.05303
G1 X117.931 Y143.096 E.06378
G1 X117.038 Y142.115 E.06658
G1 X116.35 Y140.651 E.08118
G1 X116.151 Y139.404 E.06337
G1 X116.151 Y136.651 E.13816
G1 X113.968 Y136.197 E.1119
G1 X112.368 Y135.735 E.08358
G1 X110.77 Y135.169 E.08508
G1 X109.214 Y134.507 E.08486
G1 X107.72 Y133.761 E.08381
G1 X106.277 Y132.929 E.08359
G1 X103.621 Y131.066 E.16282
G1 X102.343 Y129.99 E.08384
G1 X101.127 Y128.833 E.08424
G1 X99.984 Y127.606 E.08416
G1 X98.002 Y125.063 E.16181
G1 X97.09 Y123.653 E.08427
G1 X96.258 Y122.178 E.08499
G1 X95.531 Y120.687 E.08325
G1 X94.374 Y117.665 E.1624
G1 X93.89 Y115.955 E.08919
G1 X93.277 Y112.693 E.16657
G1 X93.059 Y109.384 E.16643
M73 P3 R36
G1 X93.234 Y106.068 E.16665
G1 X93.795 Y102.823 E.16527
G1 X94.732 Y99.674 E.16488
M73 Q3 S37
G1 X96.031 Y96.657 E.16485
G1 X97.676 Y93.814 E.16484
G1 X99.665 Y91.159 E.16649
G1 X101.952 Y88.764 E.16619
G1 X103.265 Y87.618 E.08746
G1 X105.922 Y85.691 E.16472
G1 X107.362 Y84.832 E.08415
G1 X108.33 Y84.366 E.05392
M204 S1000
G1 X108.48 Y84.676 F10800
M204 S800
G1 F1200
G1 X110.444 Y83.731 E.10938
G1 X113.507 Y82.68 E.16252
G1 X116.515 Y82.029 E.15445
G1 X116.524 Y70.071 E.60012
G1 X116.651 Y69.203 E.04403
G1 X116.948 Y68.394 E.04325
G1 X117.785 Y67.242 E.07146
G1 X118.495 Y66.69 E.04513
G1 X119.287 Y66.307 E.04415
G1 X120.291 Y66.087 E.05158
G1 X127.507 Y66.083 E.36214
G1 X128.414 Y66.263 E.04641
G1 X129.286 Y66.659 E.04806
G1 X130.051 Y67.249 E.04848
G1 X130.649 Y67.979 E.04736
G1 X131.183 Y69.201 E.06693
G1 X131.38 Y71.148 E.09821
G1 X131.559 Y72.042 E.04576
G1 X131.853 Y72.906 E.0458
G1 X132.258 Y73.723 E.04576
G1 X132.766 Y74.48 E.04575
G1 X133.37 Y75.164 E.0458
G1 X134.057 Y75.764 E.04578
G1 X134.818 Y76.267 E.04578
G1 X135.637 Y76.667 E.04574
G1 X136.502 Y76.957 E.04579
G1 X137.398 Y77.13 E.0458
G1 X138.422 Y77.191 E.05148
G1 X148.162 Y77.191 E.48881
G1 X148.895 Y77.272 E.03701
G1 X149.937 Y77.631 E.05531
G1 X150.849 Y78.246 E.0552
G1 X151.555 Y79.059 E.05404
G1 X152.04 Y80.054 E.05555
G1 X152.254 Y81.248 E.06088
G1 X152.254 Y131.651 E2.52952
G1 X153.184 Y132.01 E.05003
G1 X154.21 Y132.676 E.06139
G1 X155.208 Y133.671 E.07073
G1 X156.036 Y135.021 E.07948
G1 X156.449 Y136.271 E.06607
G1 X156.594 Y137.545 E.06435
G1 X156.464 Y138.897 E.06816
G1 X156.057 Y140.172 E.06717
G1 X155.294 Y141.459 E.07509
G1 X154.145 Y142.614 E.08176
G1 X152.728 Y143.444 E.08241
G1 X151.545 Y143.809 E.06213
G1 X150.305 Y143.939 E.06257
G1 X121.079 Y143.939 E1.46673
G1 X120.091 Y143.81 E.05
G1 X119.132 Y143.47 E.05106
G1 X118.139 Y142.82 E.05956
G1 X117.312 Y141.904 E.06193
G1 X116.673 Y140.528 E.07614
G1 X116.496 Y139.391 E.05775
G1 X116.496 Y136.358 E.15221
G1 X114.049 Y135.862 E.1253
G1 X112.478 Y135.408 E.08207
G1 X110.9 Y134.849 E.08402
G1 X109.354 Y134.191 E.08432
G1 X106.462 Y132.638 E.16474
G1 X103.831 Y130.793 E.16127
G1 X102.569 Y129.729 E.08284
G1 X100.24 Y127.375 E.16619
G1 X98.289 Y124.872 E.15927
G1 X97.388 Y123.479 E.08326
G1 X96.561 Y122.013 E.08447
G1 X95.843 Y120.541 E.08219
G1 X94.701 Y117.556 E.16039
G1 X94.226 Y115.876 E.08762
G1 X93.62 Y112.654 E.16453
