; generated by PrusaSlicer 2.9.4 on 2025-11-11 at 15:36:59 UTC


;
;
; 

; external perimeters extrusion width = 0.60mm
; perimeters extrusion width = 0.50mm
; infill extrusion width = 0.50mm
; solid infill extrusion width = 0.50mm
; top infill extrusion width = 0.45mm
; support material extrusion width = 0.38mm
; first layer extrusion width = 0.42mm

M73 P0 R59
M73 Q0 S59
M201 X1000 Y1000 Z200 E5000 ; sets maximum accelerations, mm/sec^2
M203 X200 Y200 Z12 E120 ; sets maximum feedrates, mm / sec
M204 S1250 T1250 ; sets acceleration (S) and retract acceleration (R), mm/sec^2
M205 X8.00 Y8.00 Z0.40 E4.50 ; sets the jerk limits, mm/sec
M205 S0 T0 ; sets the minimum extruding and travel feed rate, mm/sec

; printing object cirque_40mm_mount_10deg.stl id:0 copy 0
; stop printing object cirque_40mm_mount_10deg.stl id:0 copy 0

;TYPE:Custom
M862.3 P "MK3S" ; printer model check
M862.1 P0.4 ; nozzle diameter check
M115 U3.14.1 ; tell printer latest fw version
G90 ; use absolute coordinates
M83 ; extruder relative mode
M104 S215 ; set extruder temp
M140 S60 ; set bed temp
M190 S60 ; wait for bed temp
M109 S215 ; wait for extruder temp
G28 W ; home all without mesh bed level
G80 X89.3348 Y61.9928 W71.3306 H86.0145 ; mesh bed levelling

G1 Z0.2 F720
G1 Y-3 F1000 ; go outside print area
G92 E0
G1 X60 E9 F1000 ; intro line
G1 X100 E12.5 F1000 ; intro line

G92 E0
M221 S95

; Don't change E values below. Excessive value can damage the printer.

M907 E538 ; set extruder motor current
G21 ; set units to millimeters
G90 ; use absolute coordinates
M83 ; use relative distances for extrusion

M900 K0.05 ; Filament gcode LA 1.5
M900 K30 ; Filament gcode LA 1.0




M107
;LAYER_CHANGE
;Z:0.35
;HEIGHT:0.35
G1 E-.8 F2100
G1 Z.75 F720
G1 X104.448 Y78.438 F10800
G1 Z.35 F720
G1 E.8 F2100
M204 S800
;TYPE:Skirt/Brim
;WIDTH:0.42
G1 F1200
G1 X114.018 Y65.695 E.79978
G1 X114.565 Y64.981 E.04514
G1 X115.225 Y64.295 E.04777
G1 X116.134 Y63.574 E.05823
G1 X116.949 Y63.081 E.0478
G1 X118.014 Y62.62 E.05824
G1 X119.208 Y62.3 E.06204
G1 X120.542 Y62.165 E.06729
G1 X127.293 Y62.165 E.33881
G1 X128.903 Y62.355 E.08136
G1 X129.818 Y62.62 E.04781
G1 X130.816 Y63.044 E.05442
G1 X152.402 Y74.545 E1.22748
G1 X153.548 Y75.424 E.07248
G1 X154.208 Y76.111 E.04781
G1 X154.742 Y76.806 E.04399
G1 X155.36 Y77.877 E.06206
G1 X155.786 Y78.956 E.05822
G1 X156.015 Y79.88 E.04777
G1 X156.121 Y80.713 E.04214
G1 X160.487 Y137.22 E2.84431
G1 X160.489 Y137.978 E.03804
G1 X160.326 Y139.45 E.07433
G1 X160.081 Y140.486 E.05343
G1 X159.313 Y142.391 E.10308
G1 X158.381 Y143.843 E.08659
G1 X156.969 Y145.336 E.10313
G1 X156.13 Y145.99 E.05339
G1 X154.86 Y146.752 E.07433
G1 X152.939 Y147.481 E.10312
G1 X151.899 Y147.704 E.05338
G1 X150.35 Y147.835 E.07802
G1 X121.017 Y147.835 E1.4721
G1 X119.275 Y147.627 E.08804
M73 P0 R58
G1 X118.36 Y147.363 E.04779
G1 X117.43 Y146.977 E.05053
G1 X116.596 Y146.518 E.04778
G1 X115.487 Y145.687 E.06955
G1 X101.27 Y133.763 E.93122
G1 X99.895 Y132.584 E.0909
G1 X98.501 Y131.234 E.09739
G1 X97.292 Y129.918 E.08968
G1 X96.089 Y128.444 E.09548
G1 X94.99 Y126.921 E.09426
G1 X93.984 Y125.335 E.09426
G1 X93.073 Y123.691 E.09433
G1 X92.275 Y122.029 E.09253
G1 X91.548 Y120.257 E.09612
G1 X90.94 Y118.477 E.0944
G1 X90.437 Y116.665 E.09438
G1 X90.057 Y114.918 E.08972
G1 X89.77 Y113.114 E.09167
G1 X89.584 Y111.241 E.09446
G1 X89.509 Y109.36 E.09447
G1 X89.543 Y107.477 E.09452
G1 X89.688 Y105.6 E.09448
G1 X89.934 Y103.798 E.09127
G1 X90.308 Y101.888 E.09768
G1 X90.762 Y100.128 E.09122
G1 X91.431 Y98.074 E.10841
G1 X92.099 Y96.384 E.0912
G1 X92.892 Y94.678 E.09441
G1 X93.783 Y93.022 E.09437
G1 X94.688 Y91.549 E.08676
G1 X95.857 Y89.877 E.10239
G1 X104.412 Y78.486 E.71494
M204 S1000
;WIPE_START
G1 F8640
G1 X104.448 Y78.438 E-.01385
G1 X106.492 Y75.715 E-.78615
;WIPE_END
G1 Z.75 F720
G1 X107.008 Y83.416 F10800
G1 Z.35 F720
G1 E.8 F2100
M204 S800
G1 F1200
G1 X108.304 Y82.733 E.07352
G1 X109.922 Y82.003 E.08908
G1 X113.104 Y80.9 E.16901
G1 X115.137 Y80.407 E.10499
G1 X115.154 Y69.899 E.52735
G1 X115.314 Y68.864 E.05256
G1 X115.646 Y67.911 E.05065
G1 X116.909 Y66.169 E.10798
G1 X118.097 Y65.326 E.07311
G1 X119.073 Y64.926 E.05294
G1 X120.122 Y64.716 E.05369
G1 X127.705 Y64.717 E.38056
G1 X128.892 Y64.968 E.06089
G1 X129.968 Y65.459 E.05936
G1 X130.949 Y66.199 E.06167
G1 X131.726 Y67.101 E.05975
G1 X132.531 Y68.893 E.09859
G1 X132.751 Y70.967 E.10467
G1 X133.13 Y72.375 E.07318
G1 X133.861 Y73.636 E.07315
G1 X134.344 Y74.184 E.03666
G1 X135.504 Y75.067 E.07316
G1 X136.161 Y75.388 E.0367
G1 X137.571 Y75.758 E.07316
G1 X148.201 Y75.812 E.53348
G1 X149.278 Y75.944 E.05445
G1 X150.639 Y76.44 E.0727
G1 X151.835 Y77.278 E.07329
G1 X152.758 Y78.379 E.0721
G1 X153.367 Y79.675 E.07186
G1 X153.633 Y81.188 E.0771
G1 X153.633 Y130.71 E2.48531
G1 X155.049 Y131.581 E.08343
G1 X156.342 Y132.882 E.09205
G1 X157.322 Y134.516 E.09562
G1 X157.812 Y136.048 E.08072
G1 X157.974 Y137.606 E.07861
G1 X157.816 Y139.173 E.07904
G1 X157.348 Y140.664 E.07843
G1 X156.439 Y142.233 E.091
G1 X154.989 Y143.705 E.1037
G1 X153.208 Y144.739 E.10335
G1 X151.788 Y145.167 E.07443
G1 X150.341 Y145.318 E.07301
G1 X121.034 Y145.318 E1.4708
G1 X119.804 Y145.16 E.06224
G1 X118.596 Y144.743 E.06414
G1 X117.281 Y143.901 E.07836
G1 X116.194 Y142.714 E.08077
G1 X115.369 Y140.982 E.09628
G1 X115.117 Y139.445 E.07817
G1 X115.117 Y137.592 E.09299
G1 X113.681 Y137.274 E.07381
G1 X112.021 Y136.789 E.08679
G1 X110.37 Y136.195 E.08806
G1 X108.776 Y135.51 E.08707
G1 X107.215 Y134.722 E.08776
G1 X105.701 Y133.839 E.08796
G1 X102.97 Y131.902 E.16803
G1 X101.632 Y130.762 E.08822
G1 X100.363 Y129.54 E.08841
G1 X99.2 Y128.278 E.08613
G1 X98.114 Y126.95 E.08609
G1 X97.109 Y125.561 E.08604
G1 X96.183 Y124.11 E.08639
G1 X95.324 Y122.566 E.08867
G1 X94.574 Y121.006 E.08687
G1 X93.387 Y117.871 E.16823
G1 X92.88 Y116.059 E.09443
G1 X92.513 Y114.361 E.08718
G1 X92.248 Y112.647 E.08704
G1 X92.085 Y110.922 E.08696
G1 X92.024 Y109.189 E.08703
G1 X92.064 Y107.454 E.0871
G1 X92.207 Y105.722 E.08722
G1 X92.786 Y102.34 E.1722
G1 X93.751 Y99.055 E.17183
G1 X94.379 Y97.452 E.0864
G1 X95.095 Y95.899 E.08582
G1 X96.791 Y92.931 E.17156
G1 X97.778 Y91.511 E.08679
G1 X98.847 Y90.152 E.08677
G1 X99.995 Y88.859 E.08678
G1 X101.218 Y87.637 E.08677
G1 X102.603 Y86.414 E.09273
G1 X105.332 Y84.413 E.16983
G1 X106.789 Y83.531 E.08547
G1 X106.955 Y83.444 E.00941
M204 S1000
G1 X107.116 Y83.749 F10800
M204 S800
G1 F1200
G1 X108.46 Y83.041 E.07624
G1 X110.049 Y82.324 E.08749
G1 X113.203 Y81.23 E.16754
G1 X115.481 Y80.701 E.11737
G1 X115.497 Y69.938 E.54015
G1 X115.645 Y68.962 E.04954
G1 X115.963 Y68.048 E.04857
G1 X117.133 Y66.433 E.10008
G1 X118.247 Y65.638 E.06868
G1 X119.188 Y65.251 E.05106
G1 X120.171 Y65.058 E.05027
G1 X127.652 Y65.058 E.37544
G1 X128.768 Y65.29 E.0572
G1 X129.777 Y65.747 E.05559
G1 X130.7 Y66.438 E.05786
G1 X131.448 Y67.307 E.05754
G1 X132.194 Y68.969 E.09143
G1 X132.408 Y71.012 E.10309
G1 X132.56 Y71.773 E.03895
G1 X132.811 Y72.507 E.03893
G1 X133.155 Y73.203 E.03896
G1 X133.588 Y73.847 E.03895
G1 X134.101 Y74.429 E.03894
G1 X134.686 Y74.939 E.03895
G1 X135.333 Y75.367 E.03893
G1 X136.03 Y75.708 E.03894
G1 X136.766 Y75.954 E.03895
G1 X137.528 Y76.101 E.03895
G1 X138.453 Y76.156 E.0465
G1 X148.191 Y76.156 E.48871
M73 P1 R58
G1 X149.18 Y76.276 E.05
M73 Q1 S59
G1 X150.462 Y76.737 E.06837
G1 X151.587 Y77.518 E.06873
G1 X152.457 Y78.548 E.06766
G1 X153.032 Y79.759 E.06728
G1 X153.288 Y81.203 E.0736
G1 X153.288 Y130.943 E2.49625
G1 X153.702 Y131.113 E.02246
G1 X154.819 Y131.837 E.0668
G1 X156.058 Y133.079 E.08804
G1 X157 Y134.641 E.09154
G1 X157.471 Y136.103 E.07709
G1 X157.629 Y137.59 E.07505
G1 X157.482 Y139.087 E.07549
G1 X157.025 Y140.542 E.07654
G1 X156.152 Y142.041 E.08706
G1 X154.796 Y143.419 E.09702
G1 X153.089 Y144.415 E.09918
G1 X151.735 Y144.826 E.07101
G1 X150.332 Y144.973 E.0708
G1 X121.045 Y144.973 E1.46979
G1 X119.866 Y144.82 E.05967
G1 X118.728 Y144.424 E.06047
G1 X117.519 Y143.651 E.07202
G1 X116.494 Y142.541 E.07582
G1 X115.705 Y140.901 E.09133
G1 X115.461 Y139.431 E.07478
G1 X115.461 Y137.315 E.10619
G1 X113.772 Y136.942 E.08681
G1 X112.123 Y136.46 E.08622
G1 X110.491 Y135.873 E.08704
G1 X108.917 Y135.195 E.08601
G1 X107.385 Y134.422 E.08612
G1 X105.888 Y133.549 E.08697
G1 X103.182 Y131.629 E.16651
G1 X101.868 Y130.51 E.08662
G1 X100.613 Y129.302 E.08742
G1 X99.464 Y128.055 E.0851
G1 X98.391 Y126.743 E.08506
G1 X97.397 Y125.371 E.08503
G1 X96.477 Y123.929 E.08584
G1 X95.628 Y122.403 E.08764
G1 X94.887 Y120.861 E.08586
G1 X93.715 Y117.764 E.16618
G1 X93.216 Y115.982 E.09287
G1 X92.853 Y114.303 E.08621
G1 X92.591 Y112.61 E.08598
G1 X92.43 Y110.905 E.08595
G1 X92.369 Y109.191 E.08607
G1 X92.408 Y107.477 E.08604
G1 X92.549 Y105.766 E.08616
G1 X93.121 Y102.422 E.17026
G1 X94.078 Y99.167 E.17027
G1 X95.402 Y96.057 E.16963
G1 X97.083 Y93.116 E.17001
G1 X98.058 Y91.712 E.08578
G1 X99.115 Y90.369 E.08577
G1 X100.25 Y89.092 E.08574
G1 X101.458 Y87.885 E.0857
G1 X102.819 Y86.683 E.09113
G1 X105.524 Y84.7 E.16832
G1 X106.963 Y83.829 E.08442
G1 X107.062 Y83.777 E.00561
M204 S1000
G1 X107.255 Y84.117 F10800
M204 S800
G1 F1200
G1 X108.616 Y83.349 E.07843
G1 X110.177 Y82.644 E.08596
G1 X113.301 Y81.561 E.16593
G1 X115.826 Y80.988 E.12994
G1 X115.84 Y69.976 E.55265
G1 X115.976 Y69.06 E.04647
G1 X116.281 Y68.185 E.0465
G1 X117.357 Y66.697 E.09216
G1 X118.398 Y65.948 E.06436
G1 X119.272 Y65.586 E.04748
G1 X120.221 Y65.4 E.04853
G1 X127.601 Y65.399 E.37037
G1 X128.643 Y65.612 E.05338
G1 X129.617 Y66.053 E.05366
G1 X130.477 Y66.702 E.05407
G1 X131.17 Y67.512 E.0535
G1 X131.856 Y69.045 E.08429
G1 X132.066 Y71.057 E.10152
G1 X132.226 Y71.863 E.04124
G1 X132.491 Y72.64 E.0412
G1 X132.856 Y73.376 E.04123
G1 X133.314 Y74.058 E.04123
G1 X133.857 Y74.674 E.04121
G1 X134.476 Y75.214 E.04122
G1 X135.161 Y75.667 E.04121
G1 X135.899 Y76.028 E.04123
G1 X136.678 Y76.288 E.04121
G1 X137.484 Y76.444 E.0412
G1 X138.443 Y76.501 E.04821
G1 X148.181 Y76.501 E.48871
G1 X149.083 Y76.607 E.04558
M73 Q1 S58
G1 X150.286 Y77.034 E.06406
G1 X151.34 Y77.76 E.06423
G1 X152.155 Y78.716 E.06305
G1 X152.71 Y79.885 E.06494
G1 X152.943 Y81.218 E.06791
G1 X152.943 Y131.178 E2.50729
G1 X153.529 Y131.412 E.03167
G1 X154.616 Y132.117 E.06502
G1 X155.774 Y133.275 E.08219
G1 X156.679 Y134.767 E.08758
G1 X157.13 Y136.158 E.07339
G1 X157.284 Y137.574 E.07148
G1 X157.14 Y139.035 E.07368
G1 X156.702 Y140.419 E.07285
G1 X155.866 Y141.848 E.08309
G1 X154.567 Y143.16 E.09266
G1 X152.969 Y144.091 E.09281
G1 X151.683 Y144.485 E.0675
G1 X150.323 Y144.629 E.06863
G1 X121.057 Y144.629 E1.46874
G1 X119.929 Y144.481 E.05709
G1 X118.862 Y144.106 E.05676
G1 X117.724 Y143.373 E.06793
G1 X116.766 Y142.327 E.07118
G1 X116.027 Y140.775 E.08627
G1 X115.806 Y139.417 E.06905
G1 X115.806 Y137.038 E.11939
G1 X113.863 Y136.609 E.09986
G1 X112.224 Y136.13 E.0857
G1 X110.613 Y135.55 E.08593
G1 X109.059 Y134.88 E.08493
G1 X107.545 Y134.116 E.08511
G1 X106.075 Y133.259 E.08539
G1 X103.394 Y131.357 E.16497
G1 X102.095 Y130.251 E.08562
G1 X100.863 Y129.065 E.08582
G1 X98.661 Y126.529 E.16855
G1 X96.77 Y123.747 E.16882
G1 X95.931 Y122.239 E.08661
G1 X95.2 Y120.717 E.08474
G1 X94.042 Y117.656 E.16424
G1 X93.552 Y115.904 E.0913
G1 X92.934 Y112.572 E.17007
G1 X92.714 Y109.194 E.16989
G1 X92.891 Y105.809 E.17011
G1 X93.456 Y102.505 E.16822
G1 X94.401 Y99.288 E.16827
G1 X95.713 Y96.206 E.1681
G1 X97.374 Y93.3 E.16798
G1 X98.339 Y91.913 E.0848
G1 X99.383 Y90.587 E.0847
G1 X100.504 Y89.325 E.08471
G1 X101.698 Y88.133 E.08467
G1 X103.036 Y86.951 E.0896
G1 X105.715 Y84.987 E.16671
G1 X107.203 Y84.147 E.08575
M204 S1000
G1 X107.372 Y84.447 F10800
M204 S800
G1 F1200
G1 X108.772 Y83.656 E.0807
G1 X110.304 Y82.965 E.08434
G1 X113.399 Y81.891 E.16441
G1 X116.171 Y81.274 E.14252
G1 X116.183 Y70.014 E.56509
G1 X116.315 Y69.128 E.04496
G1 X116.598 Y68.323 E.04282
G1 X117.582 Y66.96 E.08437
G1 X118.549 Y66.259 E.05994
G1 X119.387 Y65.912 E.04552
G1 X120.27 Y65.741 E.04514
G1 X127.55 Y65.741 E.36535
G1 X128.52 Y65.935 E.04964
G1 X129.427 Y66.341 E.04987
G1 X130.228 Y66.941 E.05023
G1 X130.891 Y67.717 E.05122
G1 X131.519 Y69.121 E.07719
G1 X131.723 Y71.102 E.09994
G1 X131.893 Y71.952 E.0435
G1 X132.172 Y72.773 E.04352
G1 X132.557 Y73.55 E.04352
G1 X133.04 Y74.269 E.04347
G1 X133.613 Y74.919 E.04349
G1 X134.267 Y75.489 E.04354
G1 X134.989 Y75.967 E.04346
G1 X135.768 Y76.347 E.0435
G1 X136.59 Y76.622 E.0435
G1 X137.441 Y76.787 E.0435
G1 X138.433 Y76.846 E.04987
G1 X148.171 Y76.846 E.48871
G1 X148.988 Y76.939 E.04127
G1 X150.111 Y77.332 E.05971
G1 X151.094 Y78.002 E.0597
G1 X151.855 Y78.887 E.05858
G1 X152.375 Y79.969 E.06025
G1 X152.599 Y81.233 E.06442
G1 X152.599 Y131.414 E2.51838
G1 X153.357 Y131.711 E.04086
G1 X154.413 Y132.396 E.06317
G1 X155.491 Y133.473 E.07647
G1 X156.357 Y134.894 E.08351
G1 X156.79 Y136.214 E.06972
G1 X156.939 Y137.56 E.06796
G1 X156.806 Y138.949 E.07003
G1 X156.379 Y140.296 E.07092
G1 X155.58 Y141.653 E.07903
G1 X154.338 Y142.9 E.08833
G1 X152.849 Y143.767 E.08647
G1 X151.598 Y144.15 E.06566
G1 X150.314 Y144.284 E.06479
G1 X121.068 Y144.284 E1.46774
G1 X119.993 Y144.141 E.05443
G1 X118.997 Y143.788 E.05303
G1 X117.931 Y143.096 E.06378
G1 X117.038 Y142.115 E.06658
G1 X116.35 Y140.651 E.08118
G1 X116.151 Y139.404 E.06337
G1 X116.151 Y136.738 E.1338
G1 X113.945 Y136.274 E.11313
G1 X112.336 Y135.804 E.08412
G1 X110.745 Y135.231 E.08487
G1 X109.2 Y134.566 E.08441
G1 X107.705 Y133.811 E.08405
G1 X106.262 Y132.969 E.08385
G1 X103.605 Y131.085 E.16346
G1 X102.323 Y129.992 E.08455
G1 X101.113 Y128.827 E.0843
G1 X98.937 Y126.323 E.16649
G1 X97.064 Y123.566 E.16727
G1 X96.235 Y122.076 E.08557
G1 X95.513 Y120.572 E.08373
G1 X94.37 Y117.548 E.16224
G1 X93.888 Y115.826 E.08974
G1 X93.276 Y112.534 E.16804
G1 X93.059 Y109.197 E.16782
G1 X93.233 Y105.852 E.1681
G1 X93.793 Y102.578 E.16669
G1 X94.727 Y99.4 E.16624
G1 X96.02 Y96.363 E.16565
G1 X97.666 Y93.484 E.16643
G1 X99.651 Y90.804 E.16737
G1 X101.938 Y88.381 E.16721
G1 X103.252 Y87.22 E.088
G1 X105.907 Y85.274 E.1652
G1 X107.319 Y84.476 E.0814
M204 S1000
G1 X107.489 Y84.776 F10800
M204 S800
G1 F1200
G1 X108.928 Y83.964 E.08292
G1 X110.432 Y83.285 E.08282
G1 X113.498 Y82.222 E.16286
G1 X116.515 Y81.561 E.155
G1 X116.526 Y70.051 E.57764
G1 X116.646 Y69.226 E.04184
M73 P2 R58
G1 X116.915 Y68.461 E.0407
G1 X117.807 Y67.222 E.07662
G1 X118.701 Y66.569 E.05556
G1 X119.47 Y66.247 E.04184
M73 Q2 S58
G1 X120.32 Y66.083 E.04344
G1 X127.501 Y66.082 E.36039
G1 X128.399 Y66.258 E.04592
G1 X129.236 Y66.629 E.04595
G1 X130.005 Y67.205 E.04822
G1 X130.612 Y67.921 E.04711
G1 X131.182 Y69.197 E.07014
G1 X131.38 Y71.148 E.09842
G1 X131.559 Y72.042 E.04576
G1 X131.853 Y72.906 E.0458
G1 X132.258 Y73.723 E.04576
G1 X132.766 Y74.48 E.04575
G1 X133.37 Y75.164 E.0458
G1 X134.057 Y75.764 E.04578
G1 X134.818 Y76.267 E.04578
G1 X135.637 Y76.667 E.04574
G1 X136.502 Y76.957 E.04579
G1 X137.398 Y77.13 E.0458
G1 X138.422 Y77.191 E.05148
G1 X148.162 Y77.191 E.48881
G1 X148.895 Y77.272 E.03701
G1 X149.937 Y77.631 E.05531
G1 X150.849 Y78.246 E.0552
G1 X151.555 Y79.059 E.05404
G1 X152.04 Y80.054 E.05555
G1 X152.254 Y81.248 E.06088
G1 X152.254 Y131.651 E2.52952
G1 X153.184 Y132.01 E.05003
M73 P2 R57
G1 X154.21 Y132.676 E.06139
G1 X155.208 Y133.671 E.07073
G1 X156.036 Y135.021 E.07948
G1 X156.449 Y136.271 E.06607
G1 X156.594 Y137.545 E.06435
G1 X156.464 Y138.897 E.06816
G1 X156.057 Y140.172 E.06717
G1 X155.294 Y141.459 E.07509
G1 X154.145 Y142.614 E.08176
G1 X152.728 Y143.444 E.08241
G1 X151.545 Y143.809 E.06213
G1 X150.305 Y143.939 E.06257
G1 X121.079 Y143.939 E1.46673
G1 X120.091 Y143.81 E.05
G1 X119.132 Y143.47 E.05106
G1 X118.139 Y142.82 E.05956
G1 X117.312 Y141.904 E.06193
G1 X116.673 Y140.528 E.07614
G1 X116.496 Y139.391 E.05775
G1 X116.496 Y136.445 E.14785
G1 X114.027 Y135.939 E.12648
G1 X112.448 Y135.478 E.08255
G1 X110.876 Y134.912 E.08385
G1 X109.341 Y134.251 E.08387
G1 X106.448 Y132.679 E.16524
G1 X103.817 Y130.813 E.16188
G1 X102.558 Y129.739 E.08305
G1 X100.248 Y127.381 E.16566
G1 X98.261 Y124.802 E.16339
G1 X97.358 Y123.385 E.08433
G1 X96.539 Y121.913 E.08454
