; generated by PrusaSlicer 2.9.4 on 2025-11-11 at 15:37:51 UTC


;
;
; 

; external perimeters extrusion width = 0.60mm
; perimeters extrusion width = 0.50mm
; infill extrusion width = 0.50mm
; solid infill extrusion width = 0.50mm
; top infill extrusion width = 0.45mm
; support material extrusion width = 0.38mm
; first layer extrusion width = 0.42mm

M73 P0 R66
M73 Q0 S66
M201 X1000 Y1000 Z200 E5000 ; sets maximum accelerations, mm/sec^2
M203 X200 Y200 Z12 E120 ; sets maximum feedrates, mm / sec
M204 S1250 T1250 ; sets acceleration (S) and retract acceleration (R), mm/sec^2
M205 X8.00 Y8.00 Z0.40 E4.50 ; sets the jerk limits, mm/sec
M205 S0 T0 ; sets the minimum extruding and travel feed rate, mm/sec

; printing object cirque_40mm_mount_15deg.stl id:0 copy 0
; stop printing object cirque_40mm_mount_15deg.stl id:0 copy 0

;TYPE:Custom
M862.3 P "MK3S" ; printer model check
M862.1 P0.4 ; nozzle diameter check
M115 U3.14.1 ; tell printer latest fw version
G90 ; use absolute coordinates
M83 ; extruder relative mode
M104 S215 ; set extruder temp
M140 S60 ; set bed temp
M190 S60 ; wait for bed temp
M109 S215 ; wait for extruder temp
G28 W ; home all without mesh bed level
G80 X89.3349 Y61.9928 W71.3306 H86.0145 ; mesh bed levelling

G1 Z0.2 F720
G1 Y-3 F1000 ; go outside print area
G92 E0
G1 X60 E9 F1000 ; intro line
G1 X100 E12.5 F1000 ; intro line

G92 E0
M221 S95

; Don't change E values below. Excessive value can damage the printer.

M907 E538 ; set extruder motor current
G21 ; set units to millimeters
G90 ; use absolute coordinates
M83 ; use relative distances for extrusion

M900 K0.05 ; Filament gcode LA 1.5
M900 K30 ; Filament gcode LA 1.0




M107
;LAYER_CHANGE
;Z:0.35
;HEIGHT:0.35
G1 E-.8 F2100
G1 Z.75 F720
G1 X103.248 Y79.651 F10800
G1 Z.35 F720
G1 E.8 F2100
M204 S800
;TYPE:Skirt/Brim
;WIDTH:0.42
G1 F1200
G1 X114.568 Y64.977 E.93009
G1 X115.225 Y64.295 E.04753
G1 X116.134 Y63.574 E.05823
G1 X116.949 Y63.081 E.0478
G1 X118.014 Y62.62 E.05824
G1 X119.208 Y62.3 E.06204
G1 X120.542 Y62.165 E.06729
G1 X127.293 Y62.165 E.33881
G1 X128.903 Y62.355 E.08136
G1 X129.818 Y62.62 E.04781
G1 X130.816 Y63.044 E.05442
G1 X152.402 Y74.545 E1.22748
G1 X153.548 Y75.424 E.07248
G1 X154.208 Y76.111 E.04781
G1 X154.742 Y76.806 E.04399
G1 X155.36 Y77.877 E.06206
G1 X155.786 Y78.956 E.05822
G1 X156.015 Y79.88 E.04777
G1 X156.121 Y80.713 E.04214
G1 X160.487 Y137.22 E2.84431
G1 X160.489 Y137.978 E.03804
G1 X160.326 Y139.45 E.07433
G1 X160.081 Y140.486 E.05343
G1 X159.313 Y142.391 E.10308
G1 X158.381 Y143.843 E.08659
G1 X156.969 Y145.336 E.10313
G1 X156.13 Y145.99 E.05339
G1 X154.86 Y146.752 E.07433
G1 X152.939 Y147.481 E.10312
G1 X151.899 Y147.704 E.05338
G1 X150.35 Y147.835 E.07802
G1 X121.017 Y147.835 E1.4721
G1 X119.275 Y147.627 E.08804
G1 X118.36 Y147.363 E.04779
G1 X117.43 Y146.977 E.05053
G1 X116.596 Y146.518 E.04778
G1 X115.488 Y145.689 E.06945
G1 X101.249 Y133.767 E.932
G1 X99.845 Y132.541 E.09354
G1 X98.472 Y131.186 E.09681
G1 X97.232 Y129.811 E.09292
G1 X96.049 Y128.332 E.09505
G1 X94.956 Y126.786 E.09502
G1 X93.954 Y125.177 E.09513
G1 X93.061 Y123.535 E.0938
G1 X92.24 Y121.794 E.0966
G1 X91.533 Y120.032 E.09528
G1 X90.929 Y118.231 E.09533
G1 X90.43 Y116.397 E.09539
G1 X90.052 Y114.625 E.09093
G1 X89.768 Y112.802 E.09259
G1 X89.583 Y110.907 E.09555
G1 X89.509 Y109.005 E.09553
G1 X89.543 Y107.102 E.09552
G1 X89.687 Y105.204 E.09553
G1 X89.931 Y103.38 E.09235
G1 X90.302 Y101.45 E.09863
G1 X90.754 Y99.668 E.09226
G1 X91.415 Y97.596 E.10915
G1 X92.079 Y95.883 E.0922
G1 X92.867 Y94.154 E.09536
G1 X93.753 Y92.475 E.09527
G1 X94.736 Y90.852 E.09523
G1 X95.847 Y89.245 E.09805
G1 X103.211 Y79.698 E.6051
M204 S1000
;WIPE_START
G1 F8640
G1 X103.248 Y79.651 E-.01381
G1 X105.328 Y76.955 E-.78619
;WIPE_END
G1 Z.75 F720
G1 X105.554 Y83.515 F10800
G1 Z.35 F720
G1 E.8 F2100
M204 S800
G1 F1200
G1 X106.843 Y82.724 E.0759
G1 X108.353 Y81.919 E.08588
G1 X109.917 Y81.204 E.0863
G1 X111.503 Y80.591 E.08533
G1 X113.116 Y80.076 E.08498
G1 X115.138 Y79.58 E.10448
G1 X115.156 Y69.866 E.48751
G1 X115.317 Y68.853 E.05148
G1 X115.653 Y67.893 E.05104
G1 X117.013 Y66.073 E.11402
G1 X118.218 Y65.263 E.07287
G1 X119.17 Y64.897 E.05119
G1 X120.147 Y64.713 E.04989
G1 X127.668 Y64.713 E.37745
G1 X128.854 Y64.955 E.06075
G1 X129.969 Y65.46 E.06143
G1 X130.949 Y66.198 E.06157
G1 X131.725 Y67.101 E.05975
G1 X132.531 Y68.893 E.09861
G1 X132.751 Y70.967 E.10467
G1 X133.13 Y72.375 E.07318
G1 X133.861 Y73.636 E.07315
G1 X134.344 Y74.184 E.03666
G1 X135.504 Y75.067 E.07316
G1 X136.161 Y75.388 E.0367
G1 X137.571 Y75.758 E.07316
G1 X148.201 Y75.812 E.53348
G1 X149.278 Y75.944 E.05445
G1 X150.639 Y76.44 E.0727
G1 X151.835 Y77.278 E.07329
G1 X152.758 Y78.379 E.0721
G1 X153.367 Y79.675 E.07186
G1 X153.633 Y81.188 E.0771
G1 X153.633 Y130.71 E2.48531
G1 X155.049 Y131.581 E.08343
G1 X156.342 Y132.882 E.09205
G1 X157.322 Y134.516 E.09562
G1 X157.812 Y136.048 E.08072
G1 X157.974 Y137.606 E.07861
G1 X157.816 Y139.173 E.07904
G1 X157.348 Y140.664 E.07843
G1 X156.439 Y142.233 E.091
G1 X154.989 Y143.705 E.1037
G1 X153.208 Y144.739 E.10335
G1 X151.788 Y145.167 E.07443
G1 X150.341 Y145.318 E.07301
G1 X121.034 Y145.318 E1.4708
G1 X119.804 Y145.16 E.06224
M73 P0 R65
G1 X118.596 Y144.743 E.06414
G1 X117.246 Y143.871 E.08066
G1 X116.165 Y142.67 E.08109
G1 X115.354 Y140.934 E.09616
G1 X115.117 Y139.445 E.07567
G1 X115.117 Y137.708 E.08717
G1 X113.664 Y137.38 E.07475
G1 X111.951 Y136.868 E.08973
G1 X110.298 Y136.259 E.08841
G1 X107.28 Y134.826 E.16767
G1 X105.757 Y133.929 E.0887
G1 X104.288 Y132.935 E.08901
G1 X102.889 Y131.858 E.08861
G1 X101.594 Y130.731 E.08616
G1 X100.36 Y129.52 E.08677
G1 X99.197 Y128.237 E.08691
G1 X98.114 Y126.89 E.08674
G1 X97.101 Y125.468 E.08762
G1 X96.181 Y124 E.08695
G1 X95.341 Y122.467 E.08773
G1 X94.594 Y120.895 E.08735
G1 X93.933 Y119.265 E.08827
G1 X93.373 Y117.616 E.0874
G1 X92.901 Y115.906 E.08903
G1 X92.527 Y114.169 E.08917
G1 X92.094 Y110.74 E.17345
G1 X92.025 Y108.984 E.08819
G1 X92.057 Y107.226 E.08824
G1 X92.189 Y105.475 E.08812
G1 X92.422 Y103.733 E.0882
G1 X92.756 Y102.008 E.08818
G1 X93.188 Y100.306 E.08812
G1 X93.717 Y98.632 E.08811
G1 X94.343 Y96.993 E.08805
G1 X95.112 Y95.291 E.09373
G1 X95.915 Y93.765 E.08654
G1 X96.813 Y92.276 E.08726
G1 X97.793 Y90.845 E.08704
G1 X98.856 Y89.473 E.0871
G1 X99.997 Y88.168 E.087
G1 X101.214 Y86.932 E.08705
G1 X102.504 Y85.769 E.08717
G1 X103.862 Y84.684 E.08723
G1 X105.33 Y83.652 E.09006
G1 X105.503 Y83.546 E.01018
M204 S1000
G1 X105.683 Y83.84 F10800
M204 S800
G1 F1200
G1 X107.01 Y83.026 E.07813
G1 X108.501 Y82.231 E.0848
G1 X110.046 Y81.524 E.08527
G1 X111.613 Y80.918 E.08432
G1 X113.216 Y80.406 E.08445
G1 X115.482 Y79.876 E.11679
G1 X115.499 Y69.906 E.50035
G1 X115.648 Y68.952 E.04846
G1 X115.97 Y68.031 E.04896
G1 X117.231 Y66.342 E.10578
G1 X118.362 Y65.578 E.0685
G1 X119.249 Y65.233 E.04776
G1 X120.195 Y65.055 E.04831
G1 X127.617 Y65.054 E.37248
G1 X128.731 Y65.278 E.05703
G1 X129.778 Y65.747 E.05758
G1 X130.7 Y66.438 E.05782
G1 X131.447 Y67.307 E.05751
G1 X132.194 Y68.969 E.09145
G1 X132.408 Y71.012 E.10309
G1 X132.56 Y71.773 E.03895
G1 X132.811 Y72.507 E.03893
G1 X133.155 Y73.203 E.03896
G1 X133.588 Y73.847 E.03895
G1 X134.101 Y74.429 E.03894
G1 X134.686 Y74.939 E.03895
G1 X135.333 Y75.367 E.03893
G1 X136.03 Y75.708 E.03894
G1 X136.766 Y75.954 E.03895
G1 X137.528 Y76.101 E.03895
G1 X138.453 Y76.156 E.0465
G1 X148.191 Y76.156 E.48871
G1 X149.18 Y76.276 E.05
G1 X150.462 Y76.737 E.06837
G1 X151.587 Y77.518 E.06873
G1 X152.457 Y78.548 E.06766
G1 X153.032 Y79.759 E.06728
G1 X153.288 Y81.203 E.0736
G1 X153.288 Y130.943 E2.49625
G1 X153.702 Y131.113 E.02246
G1 X154.819 Y131.837 E.0668
G1 X156.058 Y133.079 E.08804
G1 X157 Y134.641 E.09154
G1 X157.471 Y136.103 E.07709
G1 X157.629 Y137.59 E.07505
G1 X157.482 Y139.087 E.07549
G1 X157.025 Y140.542 E.07654
G1 X156.152 Y142.041 E.08706
G1 X154.796 Y143.419 E.09702
G1 X153.089 Y144.415 E.09918
G1 X151.735 Y144.826 E.07101
G1 X150.332 Y144.973 E.0708
M73 P1 R65
M73 Q1 S66
G1 X121.045 Y144.973 E1.46979
G1 X119.866 Y144.82 E.05967
G1 X118.729 Y144.424 E.06042
G1 X117.486 Y143.623 E.07421
G1 X116.466 Y142.5 E.07614
G1 X115.691 Y140.855 E.09126
G1 X115.461 Y139.431 E.07239
G1 X115.461 Y137.432 E.10032
G1 X113.757 Y137.048 E.08766
G1 X112.054 Y136.54 E.08919
G1 X110.422 Y135.937 E.08732
G1 X107.451 Y134.526 E.16506
G1 X105.946 Y133.64 E.08765
G1 X104.494 Y132.658 E.08797
G1 X103.111 Y131.594 E.08757
G1 X101.832 Y130.481 E.08509
G1 X100.612 Y129.285 E.08574
G1 X99.462 Y128.016 E.08595
G1 X98.392 Y126.686 E.08567
G1 X97.391 Y125.28 E.08662
G1 X96.481 Y123.829 E.08596
G1 X94.907 Y120.751 E.1735
G1 X94.254 Y119.14 E.08724
G1 X93.701 Y117.51 E.08638
G1 X93.234 Y115.819 E.08804
G1 X92.865 Y114.101 E.08819
G1 X92.438 Y110.711 E.17147
G1 X92.37 Y108.975 E.08719
G1 X92.401 Y107.237 E.08724
G1 X92.764 Y103.784 E.17425
G1 X93.093 Y102.078 E.08719
G1 X93.521 Y100.395 E.08715
G1 X94.045 Y98.741 E.08707
G1 X94.663 Y97.121 E.08702
G1 X95.42 Y95.447 E.0922
G1 X97.1 Y92.466 E.17173
G1 X98.069 Y91.052 E.08603
G1 X99.126 Y89.689 E.08656
G1 X100.253 Y88.399 E.08597
G1 X101.456 Y87.178 E.08602
G1 X102.731 Y86.028 E.08617
G1 X104.073 Y84.957 E.08617
G1 X105.524 Y83.937 E.08901
G1 X105.632 Y83.871 E.00635
M204 S1000
G1 X105.812 Y84.165 F10800
M204 S800
G1 F1200
G1 X107.176 Y83.328 E.08031
G1 X108.65 Y82.542 E.08383
G1 X110.175 Y81.843 E.08419
G1 X111.722 Y81.245 E.08324
G1 X113.316 Y80.737 E.08396
G1 X115.827 Y80.165 E.12925
G1 X115.842 Y69.946 E.51285
G1 X115.986 Y69.021 E.04698
G1 X116.286 Y68.171 E.04524
G1 X117.449 Y66.611 E.09765
G1 X118.505 Y65.892 E.06411
G1 X119.359 Y65.561 E.04597
G1 X120.242 Y65.397 E.04507
G1 X127.568 Y65.396 E.36766
G1 X128.609 Y65.601 E.05325
G1 X129.588 Y66.036 E.05376
G1 X130.451 Y66.677 E.05395
G1 X131.17 Y67.513 E.05534
G1 X131.856 Y69.045 E.08424
G1 X132.066 Y71.057 E.10152
G1 X132.226 Y71.863 E.04124
G1 X132.491 Y72.64 E.0412
G1 X132.856 Y73.376 E.04123
G1 X133.314 Y74.058 E.04123
G1 X133.857 Y74.674 E.04121
G1 X134.476 Y75.214 E.04122
G1 X135.161 Y75.667 E.04121
G1 X135.899 Y76.028 E.04123
G1 X136.678 Y76.288 E.04121
G1 X137.484 Y76.444 E.0412
G1 X138.443 Y76.501 E.04821
G1 X148.181 Y76.501 E.48871
G1 X149.083 Y76.607 E.04558
G1 X150.286 Y77.034 E.06406
G1 X151.34 Y77.76 E.06423
G1 X152.155 Y78.716 E.06305
G1 X152.71 Y79.885 E.06494
G1 X152.943 Y81.218 E.06791
G1 X152.943 Y131.178 E2.50729
G1 X153.529 Y131.412 E.03167
G1 X154.616 Y132.117 E.06502
G1 X155.774 Y133.275 E.08219
G1 X156.679 Y134.767 E.08758
G1 X157.13 Y136.158 E.07339
G1 X157.284 Y137.574 E.07148
G1 X157.14 Y139.035 E.07368
G1 X156.702 Y140.419 E.07285
G1 X155.866 Y141.848 E.08309
G1 X154.567 Y143.16 E.09266
G1 X152.969 Y144.091 E.09281
G1 X151.683 Y144.485 E.0675
G1 X150.323 Y144.629 E.06863
G1 X121.057 Y144.629 E1.46874
G1 X119.929 Y144.481 E.05709
G1 X118.862 Y144.106 E.05676
G1 X117.724 Y143.373 E.06793
G1 X116.766 Y142.327 E.07118
G1 X116.027 Y140.775 E.08627
G1 X115.806 Y139.417 E.06905
G1 X115.806 Y137.156 E.11347
G1 X113.85 Y136.716 E.10062
G1 X112.169 Y136.214 E.08804
G1 X110.556 Y135.62 E.08626
G1 X107.621 Y134.227 E.16304
G1 X106.135 Y133.351 E.08657
G1 X104.7 Y132.382 E.0869
G1 X103.334 Y131.33 E.08653
G1 X100.864 Y129.049 E.16873
G1 X98.664 Y126.474 E.16997
G1 X96.781 Y123.659 E.16997
G1 X95.221 Y120.608 E.17197
G1 X94.029 Y117.404 E.17156
G1 X93.204 Y114.034 E.17412
G1 X92.782 Y110.683 E.1695
G1 X92.746 Y107.248 E.1724
G1 X93.105 Y103.835 E.17223
G1 X93.854 Y100.485 E.17227
G1 X94.983 Y97.249 E.172
G1 X95.727 Y95.603 E.09065
G1 X97.388 Y92.657 E.16973
M73 Q1 S65
G1 X98.351 Y91.251 E.08553
G1 X99.395 Y89.904 E.08553
G1 X100.51 Y88.63 E.08497
G1 X101.698 Y87.423 E.08499
G1 X102.958 Y86.288 E.08511
G1 X104.284 Y85.23 E.08513
G1 X105.718 Y84.223 E.08794
G1 X105.761 Y84.197 E.00252
M204 S1000
G1 X105.941 Y84.49 F10800
M204 S800
G1 F1200
G1 X107.343 Y83.629 E.08257
G1 X110.305 Y82.163 E.16586
G1 X111.842 Y81.568 E.08271
G1 X113.416 Y81.067 E.0829
G1 X116.171 Y80.453 E.14165
G1 X116.185 Y69.985 E.52535
G1 X116.317 Y69.12 E.04391
G1 X116.603 Y68.31 E.04311
G1 X117.667 Y66.879 E.08949
G1 X118.65 Y66.206 E.05979
G1 X119.438 Y65.897 E.04248
G1 X120.289 Y65.739 E.04344
G1 X127.517 Y65.738 E.36274
G1 X128.523 Y65.936 E.05146
G1 X129.429 Y66.342 E.04983
G1 X130.228 Y66.941 E.05012
G1 X130.891 Y67.718 E.05126
G1 X131.519 Y69.121 E.07714
G1 X131.723 Y71.102 E.09994
G1 X131.893 Y71.952 E.0435
G1 X132.172 Y72.773 E.04352
G1 X132.557 Y73.55 E.04352
G1 X133.04 Y74.269 E.04347
G1 X133.613 Y74.919 E.04349
G1 X134.267 Y75.489 E.04354
G1 X134.989 Y75.967 E.04346
G1 X135.768 Y76.347 E.0435
G1 X136.59 Y76.622 E.0435
G1 X137.441 Y76.787 E.0435
G1 X138.433 Y76.846 E.04987
G1 X148.171 Y76.846 E.48871
G1 X148.988 Y76.939 E.04127
G1 X150.111 Y77.332 E.05971
G1 X151.094 Y78.002 E.0597
G1 X151.855 Y78.887 E.05858
G1 X152.375 Y79.969 E.06025
G1 X152.599 Y81.233 E.06442
G1 X152.599 Y131.414 E2.51838
G1 X153.357 Y131.711 E.04086
G1 X154.413 Y132.396 E.06317
G1 X155.491 Y133.473 E.07647
G1 X156.357 Y134.894 E.08351
G1 X156.79 Y136.214 E.06972
G1 X156.939 Y137.56 E.06796
G1 X156.806 Y138.949 E.07003
G1 X156.379 Y140.296 E.07092
G1 X155.58 Y141.653 E.07903
G1 X154.338 Y142.9 E.08833
G1 X152.849 Y143.767 E.08647
G1 X151.598 Y144.15 E.06566
G1 X150.314 Y144.284 E.06479
G1 X121.068 Y144.284 E1.46774
G1 X119.993 Y144.141 E.05443
G1 X118.997 Y143.788 E.05303
G1 X117.931 Y143.096 E.06378
G1 X117.038 Y142.115 E.06658
G1 X116.35 Y140.651 E.08118
G1 X116.151 Y139.404 E.06337
G1 X116.151 Y136.857 E.12782
G1 X113.934 Y136.381 E.1138
G1 X112.283 Y135.889 E.08646
G1 X110.69 Y135.302 E.0852
G1 X107.783 Y133.922 E.16149
G1 X106.315 Y133.057 E.08551
G1 X104.906 Y132.105 E.08534
G1 X103.556 Y131.067 E.08546
G1 X101.116 Y128.814 E.16667
G1 X98.936 Y126.262 E.16844
G1 X97.076 Y123.48 E.16795
G1 X95.535 Y120.465 E.16993
G1 X94.357 Y117.298 E.16958
G1 X93.542 Y113.966 E.17215
G1 X93.126 Y110.655 E.16747
G1 X93.091 Y107.26 E.17039
G1 X93.446 Y103.886 E.17026
G1 X94.187 Y100.575 E.17028
G1 X95.304 Y97.377 E.17
G1 X96.035 Y95.759 E.0891
G1 X97.675 Y92.848 E.16768
G1 X99.658 Y90.127 E.16897
G1 X101.94 Y87.669 E.16832
G1 X103.185 Y86.548 E.08408
G1 X104.495 Y85.503 E.0841
G1 X105.891 Y84.523 E.0856
M204 S1000
G1 X106.089 Y84.805 F10800
M204 S800
G1 F1200
G1 X106.106 Y84.793 E.00104
G1 X107.51 Y83.931 E.08268
G1 X110.434 Y82.483 E.16375
G1 X113.515 Y81.397 E.16395
G1 X115.113 Y80.994 E.08271
G1 X116.516 Y80.741 E.07155
G1 X116.528 Y70.023 E.53789
G1 X116.647 Y69.219 E.04079
G1 X116.919 Y68.449 E.04098
G1 X117.887 Y67.146 E.08146
G1 X118.794 Y66.519 E.05534
G1 X119.548 Y66.224 E.04063
G1 X120.335 Y66.081 E.04014
G1 X127.469 Y66.079 E.35803
G1 X128.402 Y66.259 E.04769
G1 X129.238 Y66.63 E.0459
G1 X130.006 Y67.205 E.04815
G1 X130.612 Y67.921 E.04708
G1 X131.182 Y69.197 E.07014
G1 X131.38 Y71.148 E.09842
G1 X131.559 Y72.042 E.04576
G1 X131.853 Y72.906 E.0458
G1 X132.258 Y73.723 E.04576
G1 X132.766 Y74.48 E.04575
G1 X133.37 Y75.164 E.0458
G1 X134.057 Y75.764 E.04578
G1 X134.818 Y76.267 E.04578
G1 X135.637 Y76.667 E.04574
G1 X136.502 Y76.957 E.04579
G1 X137.398 Y77.13 E.0458
G1 X138.422 Y77.191 E.05148
G1 X148.162 Y77.191 E.48881
G1 X148.895 Y77.272 E.03701
G1 X149.937 Y77.631 E.05531
G1 X150.849 Y78.246 E.0552
G1 X151.555 Y79.059 E.05404
G1 X152.04 Y80.054 E.05555
G1 X152.254 Y81.248 E.06088
G1 X152.254 Y131.651 E2.52952
G1 X153.184 Y132.01 E.05003
G1 X154.21 Y132.676 E.06139
G1 X155.208 Y133.671 E.07073
G1 X156.036 Y135.021 E.07948
G1 X156.449 Y136.271 E.06607
G1 X156.594 Y137.545 E.06435
G1 X156.464 Y138.897 E.06816
G1 X156.057 Y140.172 E.06717
G1 X155.294 Y141.459 E.07509
G1 X154.145 Y142.614 E.08176
G1 X152.728 Y143.444 E.08241
G1 X151.545 Y143.809 E.06213
G1 X150.305 Y143.939 E.06257
G1 X121.079 Y143.939 E1.46673
G1 X120.091 Y143.81 E.05
G1 X119.132 Y143.47 E.05106
G1 X118.139 Y142.82 E.05956
G1 X117.312 Y141.904 E.06193
G1 X116.673 Y140.528 E.07614
G1 X116.496 Y139.391 E.05775
G1 X116.496 Y136.565 E.14183
G1 X114.017 Y136.047 E.1271
G1 X112.397 Y135.563 E.08485
G1 X110.824 Y134.984 E.08412
G1 X107.945 Y133.617 E.15995
