; generated by PrusaSlicer 2.9.4 on 2025-11-11 at 07:17:29 UTC


;
;
; 

; external perimeters extrusion width = 0.60mm
; perimeters extrusion width = 0.50mm
; infill extrusion width = 0.50mm
; solid infill extrusion width = 0.50mm
; top infill extrusion width = 0.45mm
; support material extrusion width = 0.38mm
; first layer extrusion width = 0.42mm

M73 P0 R20
M73 Q0 S20
M201 X1000 Y1000 Z200 E5000 ; sets maximum accelerations, mm/sec^2
M203 X200 Y200 Z12 E120 ; sets maximum feedrates, mm / sec
M204 S1250 T1250 ; sets acceleration (S) and retract acceleration (R), mm/sec^2
M205 X8.00 Y8.00 Z0.40 E4.50 ; sets the jerk limits, mm/sec
M205 S0 T0 ; sets the minimum extruding and travel feed rate, mm/sec

; printing object cirque_40mm_mount.stl id:0 copy 0
; stop printing object cirque_40mm_mount.stl id:0 copy 0

;TYPE:Custom
M862.3 P "MK3S" ; printer model check
M862.1 P0.4 ; nozzle diameter check
M115 U3.14.1 ; tell printer latest fw version
G90 ; use absolute coordinates
M83 ; extruder relative mode
M104 S215 ; set extruder temp
M140 S60 ; set bed temp
M190 S60 ; wait for bed temp
M109 S215 ; wait for extruder temp
G28 W ; home all without mesh bed level
G80 X89.3026 Y61.9606 W71.395 H86.0788 ; mesh bed levelling

G1 Z0.2 F720
G1 Y-3 F1000 ; go outside print area
G92 E0
G1 X60 E9 F1000 ; intro line
G1 X100 E12.5 F1000 ; intro line

G92 E0
M221 S95

; Don't change E values below. Excessive value can damage the printer.

M907 E538 ; set extruder motor current
G21 ; set units to millimeters
G90 ; use absolute coordinates
M83 ; use relative distances for extrusion

M900 K0.05 ; Filament gcode LA 1.5
M900 K30 ; Filament gcode LA 1.0




M107
;LAYER_CHANGE
;Z:0.2
;HEIGHT:0.2
G1 E-.8 F2100
M73 P0 R19
G1 Z.6 F720
G1 X105.151 Y77.671 F10800
G1 Z.2 F720
G1 E.8 F2100
M204 S800
;TYPE:Skirt/Brim
;WIDTH:0.42
G1 F1200
G1 X113.996 Y65.697 E.46676
G1 X114.552 Y64.971 E.02867
G1 X115.213 Y64.283 E.02991
G1 X116.124 Y63.561 E.03645
G1 X116.941 Y63.067 E.02994
G1 X118.008 Y62.605 E.03646
G1 X119.206 Y62.284 E.03889
G1 X120.542 Y62.149 E.0421
G1 X127.434 Y62.154 E.21609
G1 X128.907 Y62.34 E.04655
G1 X129.824 Y62.605 E.02993
G1 X130.824 Y63.03 E.03407
G1 X152.41 Y74.531 E.76689
G1 X153.559 Y75.413 E.04542
G1 X154.221 Y76.101 E.02994
G1 X154.754 Y76.797 E.02749
G1 X155.374 Y77.871 E.03888
G1 X155.802 Y78.952 E.03645
G1 X156.031 Y79.878 E.02991
G1 X156.137 Y80.712 E.02636
G1 X160.503 Y137.219 E1.77702
G1 X160.505 Y137.978 E.0238
M73 P1 R19
M73 Q1 S19
G1 X160.299 Y139.695 E.05422
G1 X159.678 Y141.655 E.06447
G1 X159.206 Y142.613 E.03349
G1 X158.394 Y143.854 E.0465
G1 X156.981 Y145.348 E.06448
G1 X156.139 Y146.004 E.03347
G1 X154.346 Y147.01 E.06446
G1 X152.944 Y147.496 E.04652
G1 X151.901 Y147.72 E.03345
G1 X150.35 Y147.851 E.0488
G1 X121.017 Y147.851 E.91972
G1 X119.271 Y147.643 E.05513
G1 X118.354 Y147.378 E.02993
G1 X117.423 Y146.992 E.0316
G1 X116.588 Y146.531 E.02991
G1 X115.465 Y145.69 E.04399
G1 X100.076 Y132.599 E.63348
G1 X98.679 Y131.286 E.06011
G1 X97.442 Y129.976 E.05649
G1 X96.201 Y128.496 E.06056
G1 X95.091 Y126.996 E.05851
G1 X94.073 Y125.431 E.05854
G1 X93.18 Y123.867 E.05647
G1 X92.235 Y121.937 E.06738
G1 X91.545 Y120.273 E.05648
G1 X90.914 Y118.447 E.06057
G1 X90.427 Y116.713 E.05647
G1 X90.017 Y114.834 E.0603
G1 X89.737 Y113.044 E.05681
G1 X89.569 Y111.336 E.05381
G1 X89.492 Y109.47 E.05856
G1 X89.527 Y107.603 E.05855
G1 X89.674 Y105.741 E.05856
G1 X89.92 Y103.955 E.05653
G1 X90.347 Y101.848 E.06741
G1 X90.815 Y100.107 E.05653
G1 X91.429 Y98.274 E.06061
G1 X92.1 Y96.601 E.05652
G1 X92.897 Y94.912 E.05856
G1 X93.717 Y93.405 E.05379
G1 X94.701 Y91.817 E.05857
G1 X105.115 Y77.719 E.54956
M204 S1000
;WIPE_START
G1 F8640
G1 X105.151 Y77.671 E-.01385
G1 X107.174 Y74.932 E-.78615
;WIPE_END
G1 Z.6 F720
G1 X107.998 Y83.277 F10800
G1 Z.2 F720
G1 E.8 F2100
M204 S800
G1 F1200
G1 X108.305 Y83.118 E.01084
G1 X109.917 Y82.401 E.05532
G1 X113.106 Y81.311 E.10567
G1 X115.079 Y80.836 E.06363
G1 X115.096 Y69.898 E.34295
G1 X115.264 Y68.826 E.03402
G1 X115.635 Y67.803 E.03412
G1 X116.812 Y66.182 E.06281
G1 X117.71 Y65.486 E.03562
G1 X118.732 Y64.979 E.03577
G1 X120.059 Y64.667 E.04274
G1 X127.711 Y64.66 E.23992
G1 X128.921 Y64.917 E.03879
G1 X130.052 Y65.443 E.03911
G1 X131.055 Y66.221 E.0398
G1 X131.849 Y67.184 E.03913
G1 X132.611 Y68.979 E.06114
G1 X132.808 Y70.959 E.06239
G1 X133.183 Y72.353 E.04526
G1 X133.907 Y73.601 E.04524
G1 X134.385 Y74.143 E.02266
G1 X135.523 Y75.011 E.04488
G1 X136.22 Y75.347 E.02426
G1 X137.578 Y75.701 E.044
G1 X148.202 Y75.754 E.33311
G1 X149.3 Y75.891 E.03469
G1 X150.636 Y76.374 E.04454
G1 X151.852 Y77.215 E.04636
G1 X152.791 Y78.323 E.04554
G1 X153.429 Y79.679 E.04699
G1 X153.691 Y81.186 E.04796
G1 X153.691 Y130.676 E1.55172
G1 X155.105 Y131.551 E.05214
M73 P2 R19
M73 Q2 S19
G1 X156.369 Y132.823 E.05623
G1 X157.362 Y134.464 E.06014
G1 X157.848 Y135.944 E.04884
G1 X158.031 Y137.514 E.04956
G1 X157.749 Y139.709 E.06939
G1 X157.243 Y141.028 E.0443
G1 X156.493 Y142.261 E.04525
G1 X155.012 Y143.76 E.06607
G1 X153.23 Y144.793 E.06458
G1 X151.813 Y145.221 E.04641
G1 X150.342 Y145.376 E.04638
G1 X121.033 Y145.376 E.91896
G1 X119.781 Y145.214 E.03958
G1 X118.573 Y144.796 E.04008
G1 X117.242 Y143.944 E.04955
G1 X116.145 Y142.744 E.05098
G1 X115.306 Y140.974 E.06142
G1 X115.059 Y139.448 E.04847
G1 X115.059 Y137.384 E.06472
G1 X113.706 Y137.089 E.04342
G1 X112.039 Y136.611 E.05437
G1 X110.386 Y136.027 E.05497
G1 X108.77 Y135.342 E.05503
G1 X107.206 Y134.564 E.05477
G1 X105.697 Y133.697 E.05457
G1 X102.967 Y131.791 E.10439
G1 X101.624 Y130.664 E.05497
G1 X100.347 Y129.454 E.05516
G1 X99.173 Y128.199 E.05388
G1 X98.094 Y126.899 E.05297
G1 X97.103 Y125.553 E.05241
G1 X96.16 Y124.1 E.05431
G1 X95.304 Y122.589 E.05445
G1 X94.547 Y121.045 E.05392
G1 X93.339 Y117.909 E.10537
G1 X92.827 Y116.107 E.05874
G1 X92.458 Y114.419 E.05418
G1 X92.191 Y112.725 E.05377
G1 X92.028 Y111.015 E.05386
G1 X91.966 Y109.295 E.05396
G1 X92.007 Y107.576 E.05391
G1 X92.15 Y105.862 E.05393
G1 X92.731 Y102.521 E.10633
G1 X93.17 Y100.87 E.05356
G1 X93.704 Y99.257 E.05327
G1 X94.33 Y97.68 E.0532
G1 X95.052 Y96.136 E.05344
G1 X95.861 Y94.641 E.0533
G1 X96.76 Y93.193 E.05344
G1 X97.751 Y91.788 E.05391
G1 X98.825 Y90.443 E.05397
G1 X99.976 Y89.166 E.0539
G1 X101.202 Y87.959 E.05394
G1 X102.498 Y86.827 E.05395
G1 X103.859 Y85.775 E.05394
G1 X105.323 Y84.778 E.05554
G1 X106.789 Y83.904 E.05351
G1 X107.944 Y83.305 E.04079
M204 S1000
G1 X108.133 Y83.644 F10800
M204 S800
G1 F1200
G1 X108.473 Y83.455 E.0122
G1 X110.055 Y82.752 E.05428
G1 X113.212 Y81.673 E.10461
G1 X115.456 Y81.159 E.07218
G1 X115.471 Y69.942 E.3517
G1 X115.634 Y68.903 E.03298
G1 X115.98 Y67.957 E.03158
G1 X117.064 Y66.463 E.05787
G1 X117.926 Y65.796 E.03417
G1 X118.878 Y65.327 E.03327
G1 X120.122 Y65.039 E.04004
G1 X127.652 Y65.033 E.2361
G1 X128.821 Y65.281 E.03747
G1 X129.872 Y65.775 E.03641
G1 X130.806 Y66.504 E.03715
G1 X131.54 Y67.401 E.03634
G1 X132.241 Y69.057 E.05638
G1 X132.433 Y71.009 E.0615
G1 X132.585 Y71.766 E.02421
G1 X132.834 Y72.498 E.02424
G1 X133.177 Y73.19 E.02422
G1 X133.608 Y73.831 E.02422
G1 X134.119 Y74.411 E.02424
G1 X134.701 Y74.919 E.02422
G1 X135.336 Y75.34 E.02389
G1 X136.078 Y75.697 E.02582
G1 X137.531 Y76.076 E.04708
G1 X138.454 Y76.131 E.02899
G1 X148.191 Y76.131 E.3053
G1 X149.194 Y76.253 E.03168
G1 X150.444 Y76.699 E.04161
M73 Q3 S19
G1 X151.582 Y77.479 E.04326
G1 X152.462 Y78.509 E.04248
M73 P3 R19
G1 X153.062 Y79.77 E.04379
G1 X153.314 Y81.203 E.04562
G1 X153.314 Y130.929 E1.55912
G1 X153.769 Y131.12 E.01547
G1 X154.852 Y131.831 E.04062
G1 X156.059 Y133.039 E.05354
G1 X157.011 Y134.603 E.05741
G1 X157.476 Y136.008 E.0464
G1 X157.654 Y137.491 E.04683
G1 X157.389 Y139.595 E.06649
G1 X156.897 Y140.876 E.04303
G1 X156.182 Y142.046 E.04299
G1 X154.801 Y143.447 E.06168
G1 X153.099 Y144.439 E.06177
G1 X151.755 Y144.848 E.04405
G1 X150.332 Y144.999 E.04487
G1 X121.045 Y144.999 E.91827
G1 X119.849 Y144.842 E.03782
G1 X118.718 Y144.447 E.03756
G1 X117.502 Y143.67 E.04525
G1 X116.473 Y142.555 E.04757
G1 X115.674 Y140.886 E.05802
G1 X115.436 Y139.432 E.0462
G1 X115.436 Y137.08 E.07375
G1 X113.804 Y136.725 E.05237
G1 X112.148 Y136.25 E.05402
G1 X110.518 Y135.673 E.05422
G1 X108.922 Y134.997 E.05435
G1 X107.389 Y134.235 E.05368
G1 X105.899 Y133.378 E.05389
G1 X103.197 Y131.491 E.10333
G1 X101.87 Y130.379 E.05428
G1 X100.619 Y129.193 E.05405
G1 X98.394 Y126.671 E.10545
G1 X96.479 Y123.9 E.10561
G1 X95.635 Y122.408 E.05375
G1 X94.888 Y120.884 E.05322
G1 X93.697 Y117.789 E.10398
G1 X93.194 Y116.021 E.05763
G1 X92.829 Y114.355 E.05348
G1 X92.566 Y112.683 E.05307
G1 X92.405 Y110.995 E.05317
G1 X92.343 Y109.299 E.05321
G1 X92.383 Y107.601 E.05325
G1 X92.525 Y105.91 E.05321
G1 X93.097 Y102.612 E.10495
G1 X94.057 Y99.391 E.10538
G1 X95.391 Y96.301 E.10553
G1 X97.077 Y93.396 E.10531
G1 X98.056 Y92.01 E.0532
G1 X99.116 Y90.683 E.05325
G1 X100.253 Y89.423 E.05321
G1 X101.463 Y88.232 E.05323
G1 X102.742 Y87.115 E.05324
G1 X104.085 Y86.076 E.05324
G1 X105.53 Y85.093 E.0548
G1 X108.081 Y83.673 E.09154
M204 S1000
G1 X108.264 Y84.003 F10800
M204 S800
G1 F1200
G1 X108.642 Y83.792 E.01357
G1 X110.193 Y83.103 E.05321
G1 X113.318 Y82.035 E.10355
G1 X115.833 Y81.473 E.0808
G1 X115.846 Y69.985 E.3602
G1 X115.995 Y69.015 E.03077
G1 X116.325 Y68.111 E.03017
G1 X117.317 Y66.744 E.05296
G1 X118.11 Y66.126 E.03152
G1 X119.025 Y65.676 E.03197
G1 X120.185 Y65.412 E.0373
G1 X127.594 Y65.406 E.2323
G1 X128.682 Y65.633 E.03485
G1 X129.659 Y66.086 E.03377
G1 X130.528 Y66.76 E.03448
G1 X131.231 Y67.619 E.0348
G1 X131.871 Y69.134 E.05157
G1 X132.059 Y71.058 E.06061
G1 X132.22 Y71.864 E.02577
G1 X132.485 Y72.643 E.0258
G1 X132.85 Y73.38 E.02579
G1 X133.308 Y74.062 E.02576
G1 X133.852 Y74.679 E.02579
G1 X134.472 Y75.219 E.02578
G1 X135.15 Y75.668 E.0255
G1 X135.936 Y76.047 E.02736
G1 X136.676 Y76.295 E.02447
G1 X137.484 Y76.451 E.0258
G1 X138.443 Y76.508 E.03012
G1 X148.18 Y76.508 E.3053
G1 X149.089 Y76.616 E.0287
M73 P4 R19
M73 Q4 S19
G1 X150.253 Y77.025 E.03868
G1 X151.313 Y77.745 E.04018
G1 X152.133 Y78.695 E.03935
G1 X152.695 Y79.862 E.04061
G1 X152.937 Y81.22 E.04325
G1 X152.937 Y131.183 E1.56655
G1 X153.578 Y131.445 E.02171
G1 X154.629 Y132.136 E.03944
G1 X155.749 Y133.255 E.04964
G1 X156.661 Y134.743 E.05472
G1 X157.105 Y136.073 E.04396
G1 X157.276 Y137.468 E.04407
G1 X157.028 Y139.482 E.06362
G1 X156.566 Y140.695 E.0407
G1 X155.872 Y141.83 E.04171
G1 X154.551 Y143.163 E.05884
G1 X152.968 Y144.084 E.05742
G1 X151.662 Y144.482 E.04281
G1 X150.323 Y144.622 E.04221
G1 X121.058 Y144.622 E.91758
G1 X119.919 Y144.471 E.03603
G1 X118.865 Y144.099 E.03505
G1 X117.728 Y143.367 E.0424
G1 X116.77 Y142.322 E.04445
G1 X116.027 Y140.75 E.05452
G1 X115.813 Y139.418 E.0423
G1 X115.813 Y136.776 E.08284
G1 X113.902 Y136.361 E.06131
G1 X112.258 Y135.889 E.05363
G1 X110.649 Y135.319 E.05352
G1 X109.075 Y134.652 E.0536
G1 X107.572 Y133.905 E.05262
G1 X106.101 Y133.06 E.05319
G1 X103.426 Y131.192 E.1023
G1 X102.125 Y130.101 E.05324
G1 X100.89 Y128.931 E.05334
G1 X99.732 Y127.692 E.05317
G1 X97.729 Y125.133 E.10189
G1 X96.805 Y123.709 E.05322
G1 X95.966 Y122.227 E.0534
G1 X95.229 Y120.724 E.05249
G1 X94.054 Y117.669 E.10263
G1 X93.561 Y115.934 E.05655
G1 X93.201 Y114.29 E.05277
G1 X92.941 Y112.641 E.05234
G1 X92.721 Y109.302 E.10492
G1 X92.899 Y105.958 E.105
G1 X93.465 Y102.693 E.1039
G1 X94.413 Y99.515 E.10398
G1 X95.731 Y96.466 E.10415
G1 X97.394 Y93.6 E.10389
G1 X99.407 Y90.923 E.10502
G1 X101.723 Y88.504 E.105
G1 X104.311 Y86.378 E.10501
G1 X105.738 Y85.408 E.0541
G1 X108.212 Y84.032 E.08876
M204 S1000
G1 X108.395 Y84.361 F10800
M204 S800
G1 F1200
G1 X108.81 Y84.13 E.01489
G1 X110.33 Y83.454 E.05216
G1 X113.424 Y82.397 E.10252
G1 X116.209 Y81.788 E.08939
G1 X116.221 Y70.026 E.36879
G1 X116.355 Y69.126 E.02853
G1 X116.67 Y68.266 E.02872
G1 X117.57 Y67.025 E.04807
G1 X118.326 Y66.436 E.03005
G1 X119.169 Y66.025 E.02941
G1 X120.247 Y65.784 E.03463
G1 X127.538 Y65.779 E.2286
G1 X128.544 Y65.984 E.03219
G1 X129.48 Y66.419 E.03236
G1 X130.278 Y67.043 E.03176
G1 X130.921 Y67.836 E.03201
G1 X131.502 Y69.212 E.04683
G1 X131.684 Y71.108 E.05972
G1 X131.855 Y71.963 E.02734
G1 X132.136 Y72.788 E.02733
G1 X132.523 Y73.569 E.02733
G1 X133.009 Y74.293 E.02734
G1 X133.586 Y74.947 E.02735
G1 X134.243 Y75.52 E.02733
G1 X134.963 Y75.997 E.02708
M73 P5 R19
G1 X135.793 Y76.397 E.02889
G1 X136.58 Y76.66 E.02602
M73 Q5 S19
G1 X137.436 Y76.826 E.02734
G1 X138.431 Y76.885 E.03125
G1 X148.17 Y76.885 E.30536
G1 X148.986 Y76.979 E.02575
G1 X150.064 Y77.352 E.03577
G1 X151.046 Y78.012 E.0371
G1 X151.806 Y78.884 E.03627
G1 X152.329 Y79.955 E.03737
G1 X152.559 Y81.237 E.04084
G1 X152.559 Y131.439 E1.57405
G1 X153.387 Y131.771 E.02797
G1 X154.406 Y132.441 E.03824
G1 X155.44 Y133.472 E.04578
G1 X156.31 Y134.885 E.05203
G1 X156.733 Y136.14 E.04152
G1 X156.899 Y137.447 E.04131
G1 X156.667 Y139.37 E.06073
G1 X156.22 Y140.544 E.03939
G1 X155.562 Y141.614 E.03939
G1 X154.339 Y142.851 E.05454
G1 X152.836 Y143.73 E.05459
G1 X151.604 Y144.109 E.04042
G1 X150.313 Y144.245 E.0407
G1 X121.07 Y144.245 E.91689
G1 X120.025 Y144.109 E.03304
M73 P5 R18
G1 X119.012 Y143.751 E.03369
G1 X117.954 Y143.064 E.03955
G1 X117.069 Y142.09 E.04126
G1 X116.38 Y140.615 E.05104
G1 X116.19 Y139.404 E.03843
G1 X116.19 Y136.445 E.09278
G1 X113.991 Y135.994 E.07038
G1 X112.378 Y135.532 E.05261
G1 X110.791 Y134.97 E.05279
G1 X109.227 Y134.307 E.05326
G1 X106.303 Y132.742 E.10399
G1 X103.655 Y130.892 E.10128
G1 X102.381 Y129.823 E.05214
G1 X101.162 Y128.669 E.05263
G1 X100.011 Y127.438 E.05284
G1 X98.042 Y124.922 E.10017
G1 X97.13 Y123.518 E.05249
G1 X96.297 Y122.047 E.053
G1 X95.571 Y120.563 E.0518
G1 X94.412 Y117.55 E.10122
G1 X93.928 Y115.848 E.05548
G1 X93.316 Y112.599 E.10366
G1 X93.098 Y109.305 E.10351
G1 X93.273 Y106.006 E.10358
G1 X93.833 Y102.774 E.10285
G1 X94.769 Y99.638 E.10261
G1 X96.065 Y96.64 E.10241
G1 X97.712 Y93.804 E.10283
G1 X99.698 Y91.163 E.10361
G1 X101.983 Y88.777 E.10358
G1 X104.537 Y86.68 E.10361
G1 X105.945 Y85.723 E.05338
G1 X108.342 Y84.39 E.086
M204 S1000
G1 X108.525 Y84.719 F10800
M204 S800
G1 F1200
G1 X108.979 Y84.467 E.01628
G1 X110.468 Y83.805 E.05109
G1 X113.53 Y82.759 E.10145
G1 X116.586 Y82.103 E.098
G1 X116.596 Y70.068 E.37735
G1 X116.725 Y69.202 E.02745
G1 X117.015 Y68.421 E.02612
G1 X117.824 Y67.305 E.04322
G1 X118.509 Y66.766 E.02733
G1 X119.314 Y66.374 E.02807
G1 X120.307 Y66.157 E.03187
G1 X127.483 Y66.152 E.225
G1 X128.407 Y66.337 E.02955
G1 X129.266 Y66.73 E.02962
G1 X130.029 Y67.327 E.03038
G1 X130.61 Y68.051 E.02911
G1 X131.132 Y69.29 E.04215
G1 X131.31 Y71.157 E.0588
G1 X131.49 Y72.061 E.0289
G1 X131.787 Y72.933 E.02888
M73 P6 R18
G1 X132.196 Y73.759 E.0289
G1 X132.71 Y74.524 E.0289
G1 X133.319 Y75.215 E.02888
M73 Q6 S19
G1 X134.014 Y75.82 E.02889
M73 Q6 S18
G1 X134.776 Y76.325 E.02866
G1 X135.651 Y76.747 E.03046
G1 X136.484 Y77.026 E.02754
G1 X137.389 Y77.201 E.0289
G1 X138.42 Y77.262 E.03238
G1 X148.16 Y77.262 E.30539
G1 X148.883 Y77.342 E.02281
G1 X149.917 Y77.7 E.03431
G1 X150.813 Y78.309 E.03397
G1 X151.504 Y79.111 E.03319
G1 X151.978 Y80.095 E.03425
G1 X152.182 Y81.253 E.03687
G1 X152.182 Y131.696 E1.5816
G1 X153.196 Y132.097 E.03419
G1 X154.183 Y132.745 E.03702
G1 X155.131 Y133.689 E.04195
G1 X155.96 Y135.027 E.04935
G1 X156.362 Y136.208 E.03912
G1 X156.522 Y137.427 E.03855
G1 X156.306 Y139.259 E.05784
G1 X155.889 Y140.362 E.03697
G1 X155.253 Y141.398 E.03812
G1 X154.089 Y142.567 E.05172
G1 X152.704 Y143.377 E.05031
G1 X151.546 Y143.736 E.03801
G1 X150.303 Y143.868 E.03919
G1 X121.082 Y143.868 E.9162
G1 X120.095 Y143.738 E.03121
G1 X119.16 Y143.404 E.03113
G1 X118.182 Y142.763 E.03666
G1 X117.369 Y141.86 E.0381
G1 X116.734 Y140.482 E.04757
G1 X116.568 Y139.39 E.03463
G1 X116.568 Y136.123 E.10243
G1 X114.079 Y135.628 E.07957
G1 X112.488 Y135.171 E.0519
G1 X110.922 Y134.617 E.05208
G1 X109.39 Y133.967 E.05218
G1 X106.505 Y132.423 E.1026
G1 X103.885 Y130.593 E.1002
G1 X102.627 Y129.538 E.05148
G1 X100.297 Y127.193 E.10365
G1 X98.349 Y124.703 E.09913
G1 X97.449 Y123.317 E.05182
G1 X95.912 Y120.402 E.10332
