; generated by PrusaSlicer 2.9.4 on 2025-11-18 at 16:25:13 UTC


;
;
; 

; external perimeters extrusion width = 0.60mm
; perimeters extrusion width = 0.50mm
; infill extrusion width = 0.50mm
; solid infill extrusion width = 0.50mm
; top infill extrusion width = 0.45mm
; support material extrusion width = 0.38mm
; first layer extrusion width = 0.42mm

M73 P0 R94
M73 Q0 S95
M201 X1000 Y1000 Z200 E5000 ; sets maximum accelerations, mm/sec^2
M203 X200 Y200 Z12 E120 ; sets maximum feedrates, mm / sec
M204 S1250 T1250 ; sets acceleration (S) and retract acceleration (R), mm/sec^2
M205 X8.00 Y8.00 Z0.40 E4.50 ; sets the jerk limits, mm/sec
M205 S0 T0 ; sets the minimum extruding and travel feed rate, mm/sec

; printing object sofle_pico_keyplate_notched.stl id:0 copy 0
; stop printing object sofle_pico_keyplate_notched.stl id:0 copy 0

;TYPE:Custom
M862.3 P "MK3S" ; printer model check
M862.1 P0.4 ; nozzle diameter check
M115 U3.14.1 ; tell printer latest fw version
G90 ; use absolute coordinates
M83 ; extruder relative mode
M104 S215 ; set extruder temp
M140 S60 ; set bed temp
M190 S60 ; wait for bed temp
M109 S215 ; wait for extruder temp
G28 W ; home all without mesh bed level
G80 X45.0448 Y39.6021 W159.91 H130.827 ; mesh bed levelling

G1 Z0.2 F720
G1 Y-3 F1000 ; go outside print area
G92 E0
G1 X60 E9 F1000 ; intro line
G1 X100 E12.5 F1000 ; intro line
M73 Q0 S94

G92 E0
M221 S95

; Don't change E values below. Excessive value can damage the printer.

M907 E538 ; set extruder motor current
G21 ; set units to millimeters
G90 ; use absolute coordinates
M83 ; use relative distances for extrusion

M900 K0.05 ; Filament gcode LA 1.5
M900 K30 ; Filament gcode LA 1.0




M107
;LAYER_CHANGE
;Z:0.35
;HEIGHT:0.35
G1 E-.8 F2100
G1 Z.75 F720
G1 X57.704 Y43.256 F10800
G1 Z.35 F720
G1 E.8 F2100
M204 S800
;TYPE:Skirt/Brim
;WIDTH:0.42
G1 F1200
G1 X58.396 Y42.433 E.05396
G1 X59.221 Y41.671 E.05636
G1 X59.893 Y41.185 E.04162
G1 X60.869 Y40.629 E.05637
G1 X61.633 Y40.306 E.04163
G1 X62.71 Y39.985 E.0564
G1 X64.4 Y39.779 E.08544
G1 X65.228 Y39.797 E.04156
G1 X159.798 Y55.519 E4.81122
G1 X199.44 Y70.105 E2.11987
G1 X200.879 Y70.857 E.08148
G1 X201.761 Y71.514 E.05519
G1 X202.968 Y72.768 E.08735
G1 X203.611 Y73.719 E.05761
G1 X204.003 Y74.468 E.04243
G1 X204.41 Y75.542 E.05764
G1 X204.619 Y76.363 E.04252
G1 X204.783 Y77.913 E.07822
G1 X204.783 Y154.391 E3.83812
G1 X204.653 Y155.748 E.06841
G1 X204.378 Y156.86 E.05749
G1 X203.647 Y158.523 E.09117
G1 X202.815 Y159.724 E.07332
G1 X201.515 Y160.99 E.09107
G1 X200.57 Y161.638 E.0575
G1 X198.92 Y162.394 E.09108
G1 X197.523 Y162.729 E.0721
G1 X139.678 Y170.195 E2.92708
G1 X80.703 Y170.22 E2.95971
G1 X79.411 Y170.086 E.06519
G1 X78.218 Y169.766 E.06199
G1 X77.408 Y169.43 E.04401
G1 X76.574 Y168.971 E.04778
G1 X75.642 Y168.279 E.05826
G1 X74.768 Y167.405 E.06203
G1 X74.077 Y166.473 E.05823
G1 X73.637 Y165.687 E.04521
G1 X46.028 Y103.215 E3.42774
G1 X45.581 Y102.089 E.0608
M73 P0 R93
G1 X45.352 Y101.165 E.04777
G1 X45.244 Y100.306 E.04345
G1 X45.217 Y69.518 E1.54512
G1 X45.339 Y68.118 E.07053
G1 X45.685 Y66.767 E.06999
G1 X46.108 Y65.761 E.05477
G1 X57.023 Y44.339 E1.20659
G1 X57.672 Y43.307 E.06118
M204 S1000
;WIPE_START
G1 F8640
G1 X57.704 Y43.256 E-.0139
G1 X58.396 Y42.433 E-.24828
G1 X59.221 Y41.671 E-.25932
G1 X59.893 Y41.185 E-.19149
G1 X60.221 Y40.998 E-.08701
;WIPE_END
G1 Z.75 F720
G1 X59.712 Y44.844 F10800
G1 Z.35 F720
G1 E.8 F2100
M204 S800
G1 F1200
G1 X60.23 Y44.157 E.04318
G1 X60.967 Y43.508 E.04928
G1 X61.811 Y42.973 E.05015
G1 X63.468 Y42.404 E.08792
G1 X65.188 Y42.32 E.08642
G1 X66.125 Y42.488 E.04777
G1 X120.644 Y57.844 E2.84255
G1 X159.342 Y57.997 E1.94211
G1 X198.566 Y72.465 E2.09813
G1 X200.149 Y73.447 E.09349
G1 X201.015 Y74.365 E.06334
G1 X201.683 Y75.459 E.06433
G1 X202.103 Y76.657 E.06371
G1 X202.266 Y77.919 E.06386
G1 X202.266 Y154.409 E3.83872
G1 X201.974 Y156.115 E.08686
G1 X201.552 Y157.102 E.05387
G1 X200.956 Y158.02 E.05493
G1 X199.314 Y159.459 E.10957
G1 X198.224 Y159.966 E.06033
G1 X197.078 Y160.252 E.05928
G1 X139.511 Y167.684 E2.91303
G1 X80.76 Y167.704 E2.94847
G1 X79.663 Y167.564 E.0555
G1 X78.511 Y167.163 E.06122
G1 X77.358 Y166.433 E.06849
G1 X76.161 Y165.039 E.09221
G1 X75.583 Y163.753 E.07076
G1 X75.352 Y162.431 E.06735
G1 X75.241 Y160.224 E.1109
G1 X75.341 Y158.072 E.10812
G1 X75.365 Y149.773 E.41649
G1 X75.582 Y148.599 E.05992
G1 X76.059 Y147.478 E.06114
G1 X77.13 Y146.145 E.08582
G1 X77.13 Y114.254 E1.60048
G1 X65.792 Y114.249 E.56901
G1 X63.991 Y113.881 E.09225
G1 X62.866 Y113.288 E.06382
G1 X61.904 Y112.459 E.06373
G1 X61.087 Y111.311 E.07071
G1 X60.635 Y110.179 E.06117
G1 X60.438 Y108.953 E.06232
G1 X60.433 Y105.231 E.18679
G1 X53.051 Y105.227 E.37047
G1 X51.782 Y105.02 E.06453
G1 X50.344 Y104.383 E.07893
G1 X49.11 Y103.335 E.08125
G1 X48.261 Y102.046 E.07746
G1 X47.939 Y101.167 E.04698
G1 X47.767 Y100.253 E.04668
G1 X47.734 Y69.521 E1.54231
G1 X47.795 Y68.711 E.04077
G1 X47.966 Y67.909 E.04115
G1 X48.346 Y66.911 E.05359
G1 X59.404 Y45.253 E1.2204
G1 X59.676 Y44.892 E.02268
M73 P1 R93
M73 Q1 S94
M204 S1000
G1 X59.951 Y45.098 F10800
M204 S800
G1 F1200
G1 X60.471 Y44.404 E.04352
G1 X61.184 Y43.776 E.04768
G1 X61.978 Y43.275 E.04712
G1 X63.51 Y42.747 E.08132
G1 X65.147 Y42.663 E.08226
G1 X66.039 Y42.822 E.04547
G1 X120.596 Y58.189 E2.84453
G1 X159.251 Y58.331 E1.93995
M73 Q1 S93
G1 X198.43 Y72.783 E2.09574
G1 X199.915 Y73.701 E.08762
G1 X200.731 Y74.561 E.0595
G1 X201.364 Y75.591 E.06067
G1 X201.763 Y76.72 E.06009
G1 X201.921 Y77.93 E.06124
G1 X201.921 Y154.394 E3.83742
G1 X201.649 Y155.998 E.08165
G1 X201.241 Y156.952 E.05207
G1 X200.68 Y157.812 E.05153
G1 X199.146 Y159.157 E.10239
G1 X198.124 Y159.635 E.05662
G1 X197.023 Y159.912 E.05698
G1 X139.478 Y167.341 E2.91191
G1 X80.772 Y167.359 E2.94621
G1 X79.759 Y167.232 E.05124
G1 X78.643 Y166.844 E.0593
G1 X77.565 Y166.156 E.06418
G1 X76.44 Y164.835 E.08708
G1 X75.908 Y163.634 E.06592
G1 X75.694 Y162.385 E.0636
G1 X75.585 Y160.223 E.10864
G1 X75.686 Y158.083 E.10752
G1 X75.707 Y149.821 E.41464
G1 X75.918 Y148.681 E.05818
G1 X76.368 Y147.634 E.05719
G1 X77.183 Y146.554 E.0679
G1 X77.475 Y146.308 E.01916
G1 X77.475 Y113.904 E1.62622
G1 X65.809 Y113.904 E.58547
G1 X64.129 Y113.564 E.08602
G1 X63.076 Y113.014 E.05962
G1 X62.145 Y112.212 E.06167
G1 X61.4 Y111.164 E.06453
G1 X60.963 Y110.069 E.05917
G1 X60.781 Y108.913 E.05873
G1 X60.777 Y104.886 E.2021
G1 X53.065 Y104.882 E.38703
G1 X51.9 Y104.695 E.05921
G1 X50.546 Y104.103 E.07416
G1 X49.384 Y103.123 E.07629
G1 X48.577 Y101.907 E.07324
G1 X48.276 Y101.089 E.04374
G1 X48.109 Y100.205 E.04515
G1 X48.079 Y69.528 E1.53955
G1 X48.135 Y68.77 E.03814
G1 X48.293 Y68.018 E.03856
G1 X48.658 Y67.06 E.05145
G1 X59.689 Y45.448 E1.21773
G1 X59.915 Y45.146 E.01893
M204 S1000
G1 X60.191 Y45.351 F10800
M204 S800
G1 F1200
G1 X60.714 Y44.65 E.04389
G1 X61.38 Y44.06 E.04465
G1 X62.145 Y43.577 E.0454
G1 X63.598 Y43.081 E.07705
G1 X65.106 Y43.006 E.07577
G1 X65.954 Y43.157 E.04323
G1 X120.548 Y58.534 E2.84646
G1 X159.16 Y58.665 E1.93779
G1 X198.295 Y73.101 E2.09339
M73 P1 R92
G1 X199.68 Y73.954 E.08163
G1 X200.468 Y74.785 E.05747
G1 X201.06 Y75.755 E.05703
G1 X201.431 Y76.817 E.05646
G1 X201.577 Y77.941 E.05688
G1 X201.577 Y154.38 E3.83616
G1 X201.323 Y155.882 E.07645
G1 X200.943 Y156.777 E.0488
G1 X200.404 Y157.604 E.04954
G1 X198.977 Y158.856 E.09527
G1 X198.023 Y159.305 E.05292
G1 X196.969 Y159.571 E.05455
G1 X139.445 Y166.997 E2.91085
G1 X80.783 Y167.014 E2.94401
G1 X79.855 Y166.9 E.04692
G1 X78.776 Y166.525 E.05733
G1 X77.774 Y165.88 E.0598
G1 X76.72 Y164.632 E.08198
G1 X76.232 Y163.516 E.06113
G1 X76.036 Y162.341 E.05978
G1 X75.93 Y160.222 E.10648
G1 X76.03 Y158.094 E.10691
G1 X76.049 Y149.867 E.41288
G1 X76.242 Y148.799 E.05447
G1 X76.676 Y147.79 E.05512
G1 X77.444 Y146.78 E.06368
G1 X77.82 Y146.472 E.02439
G1 X77.82 Y113.553 E1.65207
G1 X65.826 Y113.559 E.60193
G1 X64.267 Y113.247 E.07979
G1 X63.254 Y112.718 E.05735
G1 X62.387 Y111.965 E.05763
G1 X61.712 Y111.017 E.0584
G1 X61.291 Y109.96 E.0571
G1 X61.124 Y108.874 E.05514
G1 X61.122 Y104.541 E.21746
G1 X53.078 Y104.537 E.4037
G1 X52.016 Y104.37 E.05395
G1 X50.748 Y103.822 E.06932
G1 X49.656 Y102.91 E.0714
G1 X48.893 Y101.769 E.06889
G1 X48.604 Y100.984 E.04198
G1 X48.451 Y100.157 E.04221
G1 X48.424 Y69.534 E1.53684
G1 X48.62 Y68.127 E.07129
G1 X48.969 Y67.208 E.04933
G1 X59.975 Y45.642 E1.2151
G1 X60.155 Y45.399 E.01518
M204 S1000
G1 X60.432 Y45.604 F10800
M204 S800
G1 F1200
G1 X60.956 Y44.896 E.0442
G1 X61.598 Y44.328 E.04302
G1 X62.311 Y43.88 E.04226
G1 X63.641 Y43.424 E.07056
G1 X65.065 Y43.349 E.07156
G1 X65.869 Y43.491 E.04097
G1 X120.5 Y58.878 E2.84838
G1 X159.069 Y58.999 E1.93563
G1 X198.16 Y73.418 E2.09102
M73 P2 R92
G1 X199.446 Y74.209 E.07577
M73 Q2 S93
G1 X200.184 Y74.982 E.05363
G1 X200.741 Y75.888 E.05337
G1 X201.092 Y76.88 E.05281
G1 X201.232 Y77.952 E.05426
G1 X201.232 Y154.366 E3.83491
G1 X200.998 Y155.766 E.07123
G1 X200.632 Y156.627 E.04695
G1 X200.129 Y157.396 E.04612
G1 X198.808 Y158.554 E.08816
G1 X197.892 Y158.986 E.05083
G1 X196.915 Y159.23 E.05054
G1 X139.411 Y166.654 E2.90984
G1 X82.827 Y166.706 E2.83972
M73 Q2 S92
G1 X80.794 Y166.669 E.10204
G1 X79.95 Y166.568 E.04266
G1 X78.909 Y166.206 E.05531
G1 X77.984 Y165.606 E.05533
G1 X77.001 Y164.43 E.07692
G1 X76.558 Y163.4 E.05627
G1 X76.381 Y162.321 E.05487
G1 X76.275 Y160.222 E.10547
G1 X76.375 Y158.104 E.10641
G1 X76.391 Y149.913 E.41107
G1 X76.578 Y148.88 E.05268
G1 X76.984 Y147.947 E.05106
G1 X77.704 Y147.008 E.05938
G1 X78.165 Y146.639 E.02963
G1 X78.165 Y113.202 E1.67807
G1 X65.843 Y113.215 E.61839
G1 X64.404 Y112.929 E.07363
G1 X63.432 Y112.421 E.05504
G1 X62.63 Y111.719 E.05349
G1 X62.007 Y110.835 E.05427
G1 X61.619 Y109.852 E.05304
G1 X61.469 Y108.861 E.0503
G1 X61.467 Y104.196 E.23412
G1 X53.091 Y104.192 E.42036
G1 X52.131 Y104.044 E.04875
G1 X50.947 Y103.54 E.06458
G1 X49.928 Y102.697 E.06637
G1 X49.21 Y101.63 E.06454
G1 X48.933 Y100.879 E.04017
G1 X48.793 Y100.111 E.03918
G1 X48.768 Y69.539 E1.53428
G1 X48.948 Y68.236 E.06601
G1 X49.281 Y67.356 E.04722
G1 X60.26 Y45.835 E1.21248
G1 X60.396 Y45.652 E.01144
M204 S1000
G1 X60.673 Y45.856 F10800
M204 S800
G1 F1200
G1 X61.199 Y45.141 E.04455
G1 X61.794 Y44.612 E.03996
G1 X62.477 Y44.183 E.04048
G1 X63.729 Y43.759 E.06634
G1 X65.025 Y43.692 E.06513
G1 X65.784 Y43.825 E.03867
G1 X120.452 Y59.223 E2.85032
G1 X158.978 Y59.333 E1.93347
G1 X198.025 Y73.736 E2.08867
G1 X199.213 Y74.464 E.06992
G1 X199.901 Y75.179 E.0498
G1 X200.422 Y76.02 E.04965
G1 X200.76 Y76.977 E.05094
G1 X200.887 Y77.963 E.04989
G1 X200.887 Y154.352 E3.83365
G1 X200.672 Y155.651 E.06608
G1 X200.335 Y156.452 E.04361
G1 X199.853 Y157.187 E.04411
G1 X198.638 Y158.253 E.08112
G1 X197.791 Y158.656 E.04707
G1 X196.861 Y158.889 E.04812
G1 X139.378 Y166.31 E2.90878
G1 X82.833 Y166.361 E2.83776
M73 P2 R91
G1 X80.805 Y166.325 E.10179
G1 X80.045 Y166.236 E.0384
G1 X79.043 Y165.888 E.05323
G1 X78.196 Y165.332 E.05085
G1 X77.283 Y164.231 E.07178
G1 X76.884 Y163.285 E.05153
G1 X76.725 Y162.302 E.04997
G1 X76.62 Y160.221 E.10457
G1 X76.72 Y158.115 E.10581
G1 X76.734 Y149.958 E.40937
G1 X76.903 Y148.998 E.04892
G1 X77.291 Y148.104 E.04891
G1 X77.963 Y147.237 E.05505
G1 X78.51 Y146.808 E.03489
G1 X78.51 Y112.722 E1.71064
G1 X77.951 Y112.861 E.02891
G1 X76.217 Y112.889 E.08703
G1 X65.859 Y112.87 E.51983
G1 X64.54 Y112.611 E.06746
G1 X63.642 Y112.147 E.05073
G1 X62.898 Y111.502 E.04942
G1 X62.32 Y110.689 E.05006
G1 X61.947 Y109.744 E.05099
G1 X61.814 Y108.848 E.04546
G1 X61.811 Y103.852 E.25073
G1 X53.104 Y103.847 E.43697
G1 X52.244 Y103.717 E.04365
G1 X51.146 Y103.257 E.05974
G1 X50.199 Y102.482 E.06141
G1 X49.526 Y101.489 E.0602
G1 X49.27 Y100.802 E.03679
G1 X49.136 Y100.065 E.03759
G1 X49.113 Y69.546 E1.53162
G1 X49.283 Y68.32 E.06212
G1 X49.592 Y67.505 E.04374
G1 X60.547 Y46.028 E1.20996
G1 X60.638 Y45.904 E.00772
M204 S1000
G1 X60.916 Y46.108 F10800
M204 S800
G1 F1200
G1 X61.442 Y45.387 E.04479
G1 X62.012 Y44.88 E.03828
G1 X62.643 Y44.486 E.03733
G1 X63.771 Y44.102 E.0598
G1 X64.985 Y44.035 E.06102
G1 X65.699 Y44.16 E.03638
G1 X120.404 Y59.568 E2.85224
G1 X158.887 Y59.667 E1.93131
G1 X197.89 Y74.054 E2.08632
G1 X198.981 Y74.72 E.06415
G1 X199.618 Y75.378 E.04596
G1 X200.104 Y76.155 E.04599
G1 X200.421 Y77.041 E.04723
G1 X200.542 Y77.974 E.04722
G1 X200.542 Y154.338 E3.8324
G1 X200.346 Y155.536 E.06092
G1 X200.023 Y156.303 E.04177
G1 X199.578 Y156.978 E.04057
G1 X198.469 Y157.952 E.07407
G1 X197.658 Y158.337 E.04505
G1 X196.807 Y158.549 E.04401
M73 P3 R91
G1 X139.345 Y165.967 E2.90771
G1 X82.839 Y166.016 E2.83581
M73 Q3 S92
G1 X80.138 Y165.903 E.13567
G1 X79.214 Y165.587 E.04901
G1 X78.407 Y165.058 E.04843
G1 X77.567 Y164.033 E.06651
G1 X77.21 Y163.173 E.04673
G1 X77.07 Y162.282 E.04526
G1 X76.965 Y160.22 E.10362
G1 X77.065 Y158.126 E.10521
G1 X77.076 Y150.001 E.40776
G1 X77.228 Y149.116 E.04506
G1 X77.599 Y148.262 E.04673
G1 X78.22 Y147.467 E.05063
G1 X78.855 Y146.979 E.04019
G1 X78.855 Y112.271 E1.74185
G1 X77.923 Y112.516 E.04836
G1 X76.214 Y112.544 E.08578
G1 X65.876 Y112.525 E.51882
G1 X64.675 Y112.293 E.06139
G1 X63.852 Y111.873 E.04637
G1 X63.141 Y111.256 E.04724
G1 X62.614 Y110.508 E.04592
G1 X62.276 Y109.638 E.04684
G1 X62.159 Y108.836 E.04068
G1 X62.156 Y103.507 E.26744
G1 X53.117 Y103.502 E.45363
G1 X52.355 Y103.39 E.03865
G1 X51.342 Y102.973 E.05498
G1 X50.469 Y102.266 E.05638
G1 X49.841 Y101.349 E.05578
G1 X49.598 Y100.696 E.03497
G1 X49.478 Y100.019 E.03451
G1 X49.458 Y69.551 E1.52906
G1 X49.618 Y68.403 E.05817
M73 Q3 S91
G1 X49.904 Y67.653 E.04028
G1 X60.833 Y46.22 E1.2074
G1 X60.88 Y46.156 E.00398
M204 S1000
G1 X61.159 Y46.358 F10800
M204 S800
G1 F1200
G1 X61.686 Y45.631 E.04506
G1 X62.207 Y45.164 E.03511
G1 X62.808 Y44.79 E.03552
G1 X63.859 Y44.436 E.05566
G1 X64.946 Y44.379 E.05463
G1 X65.614 Y44.494 E.03402
G1 X120.356 Y59.913 E2.85418
G1 X158.796 Y60.002 E1.92915
G1 X197.755 Y74.372 E2.08395
G1 X198.749 Y74.976 E.05837
G1 X199.357 Y75.604 E.04387
G1 X199.801 Y76.32 E.04228
G1 X200.089 Y77.138 E.04352
G1 X200.197 Y77.985 E.04285
G1 X200.197 Y154.325 E3.83119
G1 X200.02 Y155.423 E.05582
G1 X199.726 Y156.127 E.03829
G1 X199.303 Y156.769 E.03858
G1 X198.298 Y157.651 E.06711
G1 X197.557 Y158.006 E.04124
G1 X196.753 Y158.208 E.0416
G1 X139.312 Y165.623 E2.90665
G1 X82.844 Y165.671 E2.8339
G1 X80.196 Y165.563 E.133
G1 X79.384 Y165.287 E.04304
G1 X78.619 Y164.785 E.04592
G1 X77.851 Y163.836 E.06127
G1 X77.538 Y163.063 E.04185
G1 X77.415 Y162.263 E.04062
G1 X77.31 Y160.219 E.10272
G1 X77.41 Y158.128 E.10506
G1 X77.418 Y150.045 E.40565
G1 X77.564 Y149.196 E.04323
G1 X77.905 Y148.422 E.04245
G1 X78.477 Y147.699 E.04627
G1 X79.2 Y147.151 E.04553
G1 X79.2 Y111.684 E1.77994
G1 X78.733 Y111.945 E.02685
G1 X77.896 Y112.172 E.04352
G1 X65.892 Y112.18 E.60243
G1 X64.808 Y111.974 E.05538
G1 X64.06 Y111.597 E.04204
G1 X63.41 Y111.039 E.04299
G1 X62.909 Y110.327 E.04369
G1 X62.605 Y109.533 E.04267
G1 X62.504 Y108.824 E.03594
G1 X62.501 Y103.162 E.28415
G1 X53.129 Y103.158 E.47034
G1 X52.464 Y103.062 E.03372
G1 X51.537 Y102.687 E.05018
G1 X50.738 Y102.048 E.05134
G1 X50.156 Y101.207 E.05133
G1 X49.935 Y100.62 E.03148
G1 X49.82 Y99.974 E.03293
G1 X49.803 Y69.558 E1.52645
G1 X49.953 Y68.487 E.05427
G1 X50.215 Y67.802 E.03681
G1 X61.121 Y46.411 E1.205
G1 X61.124 Y46.407 E.00025
M73 P3 R90
M204 S1000
G1 X61.409 Y46.602 F10800
M204 S800
G1 F1200
G1 X61.931 Y45.875 E.04492
G1 X62.426 Y45.432 E.03334
G1 X62.972 Y45.093 E.03225
G1 X63.902 Y44.779 E.04926
G1 X64.907 Y44.722 E.05052
G1 X65.529 Y44.829 E.03167
G1 X120.308 Y60.258 E2.8561
G1 X158.706 Y60.336 E1.92704
G1 X197.62 Y74.69 E2.08156
G1 X198.518 Y75.233 E.05267
G1 X199.075 Y75.804 E.04003
G1 X199.483 Y76.455 E.03856
G1 X199.75 Y77.201 E.03976
G1 X199.852 Y77.996 E.04022
G1 X199.852 Y154.311 E3.82994
G1 X199.694 Y155.309 E.05071
G1 X199.414 Y155.978 E.0364
G1 X199.028 Y156.559 E.03501
G1 X198.127 Y157.35 E.06017
G1 X197.424 Y157.688 E.03915
G1 X196.699 Y157.867 E.03748
G1 X139.279 Y165.28 E2.90559
G1 X82.85 Y165.326 E2.83194
G1 X80.255 Y165.223 E.13033
