; generated by PrusaSlicer 2.9.4 on 2025-11-18 at 16:24:11 UTC


;
;
; 

; external perimeters extrusion width = 0.60mm
; perimeters extrusion width = 0.50mm
; infill extrusion width = 0.50mm
; solid infill extrusion width = 0.50mm
; top infill extrusion width = 0.45mm
; support material extrusion width = 0.38mm
; first layer extrusion width = 0.42mm

M73 P0 R119
M73 Q0 S119
M201 X1000 Y1000 Z200 E5000 ; sets maximum accelerations, mm/sec^2
M203 X200 Y200 Z12 E120 ; sets maximum feedrates, mm / sec
M204 S1250 T1250 ; sets acceleration (S) and retract acceleration (R), mm/sec^2
M205 X8.00 Y8.00 Z0.40 E4.50 ; sets the jerk limits, mm/sec
M205 S0 T0 ; sets the minimum extruding and travel feed rate, mm/sec

; printing object lh_sofle_pico_backplate_v3.4.stl id:0 copy 0
; stop printing object lh_sofle_pico_backplate_v3.4.stl id:0 copy 0

;TYPE:Custom
M862.3 P "MK3S" ; printer model check
M862.1 P0.4 ; nozzle diameter check
M115 U3.14.1 ; tell printer latest fw version
G90 ; use absolute coordinates
M83 ; extruder relative mode
M104 S215 ; set extruder temp
M140 S60 ; set bed temp
M190 S60 ; wait for bed temp
M109 S215 ; wait for extruder temp
G28 W ; home all without mesh bed level
G80 X45.0448 Y39.6022 W159.91 H130.791 ; mesh bed levelling

G1 Z0.2 F720
G1 Y-3 F1000 ; go outside print area
G92 E0
G1 X60 E9 F1000 ; intro line
G1 X100 E12.5 F1000 ; intro line

G92 E0
M221 S95

; Don't change E values below. Excessive value can damage the printer.

M907 E538 ; set extruder motor current
G21 ; set units to millimeters
G90 ; use absolute coordinates
M83 ; use relative distances for extrusion

M900 K0.05 ; Filament gcode LA 1.5
M900 K30 ; Filament gcode LA 1.0




M107
;LAYER_CHANGE
;Z:0.35
;HEIGHT:0.35
G1 E-.8 F2100
G1 Z.75 F720
G1 X49.12 Y70.858 F10800
G1 Z.35 F720
G1 E.8 F2100
M204 S800
;TYPE:Skirt/Brim
;WIDTH:0.42
G1 F1200
G1 X50.56 Y70.106 E.08153
G1 X90.202 Y55.519 E2.11988
G1 X183.758 Y39.94 E4.75984
G1 X184.772 Y39.797 E.05139
G1 X185.6 Y39.779 E.04156
G1 X186.719 Y39.877 E.05637
G1 X187.53 Y40.046 E.04158
G1 X188.599 Y40.394 E.05642
G1 X189.351 Y40.741 E.04156
G1 X190.313 Y41.322 E.0564
G1 X190.967 Y41.83 E.04156
G1 X191.773 Y42.613 E.05639
G1 X192.296 Y43.256 E.0416
G1 X192.977 Y44.339 E.0642
G1 X203.892 Y65.76 E1.20655
G1 X204.441 Y67.163 E.07561
G1 X204.722 Y68.529 E.06999
G1 X204.783 Y69.518 E.04973
G1 X204.783 Y161.802 E4.63136
G1 X204.575 Y163.544 E.08804
G1 X204.311 Y164.459 E.04779
G1 X203.925 Y165.389 E.05053
G1 X203.465 Y166.223 E.0478
G1 X202.694 Y167.259 E.06481
G1 X201.821 Y168.132 E.06196
G1 X200.785 Y168.904 E.06484
G1 X199.951 Y169.364 E.0478
G1 X199.02 Y169.749 E.05056
G1 X197.827 Y170.069 E.06199
G1 X196.364 Y170.221 E.07382
G1 X110.649 Y170.216 E4.30169
G1 X52.477 Y162.729 E2.9435
G1 X51.08 Y162.394 E.0721
G1 X49.429 Y161.637 E.09115
G1 X48.485 Y160.99 E.05743
G1 X47.185 Y159.724 E.09107
G1 X46.352 Y158.523 E.07335
G1 X45.623 Y156.86 E.09113
G1 X45.348 Y155.749 E.05744
G1 X45.217 Y154.391 E.06847
G1 X45.217 Y77.912 E3.83817
G1 X45.381 Y76.362 E.07822
M73 P0 R118
G1 X45.591 Y75.542 E.04248
G1 X45.997 Y74.468 E.05762
G1 X46.39 Y73.718 E.04249
G1 X47.033 Y72.768 E.05757
G1 X48.239 Y71.514 E.08731
G1 X49.072 Y70.894 E.05211
M204 S1000
;WIPE_START
G1 F8640
G1 X49.12 Y70.858 E-.01385
G1 X50.56 Y70.106 E-.37511
G1 X52.231 Y69.491 E-.41104
;WIPE_END
G1 Z.75 F720
G1 X50.439 Y73.085 F10800
G1 Z.35 F720
G1 E.8 F2100
M204 S800
G1 F1200
G1 X51.431 Y72.467 E.05866
G1 X90.658 Y57.997 E2.09831
G1 X129.356 Y57.844 E1.94211
G1 X183.887 Y42.485 E2.84317
G1 X184.97 Y42.311 E.05505
G1 X186.096 Y42.334 E.05652
G1 X187.494 Y42.67 E.07216
G1 X188.793 Y43.337 E.07328
G1 X189.885 Y44.285 E.07257
G1 X190.718 Y45.453 E.072
G1 X201.653 Y66.91 E1.20861
G1 X202.033 Y67.905 E.05345
G1 X202.234 Y68.934 E.05262
G1 X202.266 Y161.786 E4.65986
G1 X202.098 Y163.056 E.06429
M73 Q0 S118
G1 X201.67 Y164.281 E.06512
G1 X200.197 Y166.214 E.12197
G1 X199.243 Y166.888 E.05862
G1 X198.208 Y167.367 E.05724
G1 X196.383 Y167.704 E.09314
G1 X110.805 Y167.704 E4.29481
G1 X52.926 Y160.253 E2.92868
G1 X51.771 Y159.964 E.05975
G1 X50.714 Y159.477 E.05841
G1 X49.024 Y157.997 E.11274
G1 X48.45 Y157.104 E.05328
G1 X48.024 Y156.109 E.05432
G1 X47.734 Y154.409 E.08655
G1 X47.734 Y77.92 E3.83867
G1 X47.895 Y76.668 E.06335
G1 X48.311 Y75.471 E.0636
G1 X48.969 Y74.386 E.06368
G1 X49.825 Y73.468 E.06299
G1 X50.389 Y73.117 E.03334
M204 S1000
G1 X50.568 Y73.405 F10800
M204 S800
G1 F1200
G1 X51.566 Y72.784 E.05899
G1 X90.749 Y58.331 E2.09594
G1 X129.404 Y58.189 E1.93995
G1 X183.971 Y42.819 E2.84506
G1 X185.009 Y42.654 E.05275
G1 X186.069 Y42.679 E.05321
G1 X187.392 Y43 E.06832
G1 X188.615 Y43.633 E.06911
G1 X189.642 Y44.53 E.06843
G1 X190.429 Y45.642 E.06837
G1 X201.342 Y67.059 E1.20632
G1 X201.697 Y67.986 E.04982
G1 X201.89 Y68.965 E.05008
G1 X201.921 Y161.774 E4.6577
G1 X201.759 Y162.992 E.06166
M73 P1 R118
M73 Q1 S118
G1 X201.354 Y164.14 E.06109
G1 X199.976 Y165.948 E.11409
G1 X199.084 Y166.581 E.05489
G1 X198.083 Y167.045 E.05537
G1 X196.367 Y167.36 E.08756
G1 X110.816 Y167.359 E4.29346
G1 X52.979 Y159.912 E2.92656
G1 X51.901 Y159.644 E.05575
G1 X50.881 Y159.174 E.05636
G1 X49.301 Y157.79 E.10541
G1 X48.748 Y156.93 E.05131
G1 X48.35 Y155.993 E.05109
G1 X48.079 Y154.394 E.08139
G1 X48.079 Y77.931 E3.83737
G1 X48.235 Y76.73 E.06078
G1 X48.631 Y75.603 E.05995
G1 X49.254 Y74.581 E.06007
G1 X50.061 Y73.721 E.05919
G1 X50.517 Y73.437 E.02696
M204 S1000
G1 X50.696 Y73.726 F10800
M204 S800
G1 F1200
G1 X51.702 Y73.102 E.05941
G1 X90.84 Y58.665 E2.09355
G1 X129.452 Y58.534 E1.93779
G1 X184.055 Y43.154 E2.84693
G1 X185.047 Y42.997 E.0504
M73 P1 R117
G1 X186.041 Y43.023 E.0499
G1 X187.289 Y43.33 E.0645
G1 X188.405 Y43.907 E.06305
G1 X189.373 Y44.747 E.06432
G1 X190.127 Y45.81 E.06541
G1 X201.03 Y67.207 E1.2052
G1 X201.37 Y68.095 E.04772
G1 X201.547 Y68.996 E.04608
G1 X201.576 Y161.763 E4.6556
G1 X201.427 Y162.894 E.05725
G1 X201.037 Y164 E.05886
G1 X199.755 Y165.682 E.10614
G1 X198.897 Y166.291 E.0528
G1 X197.959 Y166.723 E.05183
G1 X196.352 Y167.015 E.08197
G1 X110.827 Y167.015 E4.29215
G1 X53.033 Y159.571 E2.9244
G1 X52.001 Y159.313 E.05339
M73 Q1 S117
G1 X51.049 Y158.872 E.05265
G1 X49.578 Y157.582 E.09819
G1 X49.059 Y156.781 E.0479
G1 X48.675 Y155.877 E.04929
G1 X48.424 Y154.38 E.07618
G1 X48.424 Y77.942 E3.83611
G1 X48.567 Y76.826 E.05647
G1 X48.935 Y75.766 E.05631
G1 X49.518 Y74.804 E.05645
G1 X50.297 Y73.974 E.05713
G1 X50.645 Y73.757 E.02058
M204 S1000
G1 X50.824 Y74.046 F10800
M204 S800
G1 F1200
G1 X51.837 Y73.419 E.05979
G1 X90.931 Y58.999 E2.09118
G1 X129.5 Y58.878 E1.93563
G1 X184.139 Y43.489 E2.84879
G1 X185.054 Y43.343 E.0465
G1 X186.013 Y43.367 E.04814
G1 X187.186 Y43.66 E.06068
G1 X188.227 Y44.203 E.05892
G1 X189.131 Y44.993 E.06025
G1 X189.826 Y45.977 E.06046
G1 X200.719 Y67.356 E1.20417
G1 X201.034 Y68.177 E.04413
G1 X201.203 Y69.027 E.04349
G1 X201.232 Y161.752 E4.65349
G1 X201.088 Y162.831 E.05463
G1 X200.722 Y163.859 E.05476
G1 X199.533 Y165.417 E.09836
G1 X198.738 Y165.984 E.04901
G1 X197.835 Y166.4 E.0499
G1 X196.337 Y166.67 E.07639
G1 X110.838 Y166.67 E4.29085
G1 X53.087 Y159.23 E2.92224
G1 X52.131 Y158.994 E.04942
G1 X51.216 Y158.569 E.05063
G1 X49.854 Y157.375 E.0909
G1 X49.357 Y156.607 E.04591
G1 X49.001 Y155.762 E.04602
G1 X48.768 Y154.366 E.07103
G1 X48.768 Y77.953 E3.83486
G1 X48.906 Y76.889 E.05385
G1 X49.254 Y75.898 E.05271
G1 X49.803 Y75 E.05282
G1 X50.532 Y74.227 E.05332
G1 X50.773 Y74.078 E.01422
M204 S1000
G1 X50.951 Y74.367 F10800
M204 S800
G1 F1200
G1 X51.973 Y73.737 E.06025
G1 X91.022 Y59.333 E2.08878
G1 X129.548 Y59.223 E1.93347
G1 X184.222 Y43.824 E2.85062
G1 X185.092 Y43.686 E.04421
G1 X185.984 Y43.711 E.04478
G1 X187.081 Y43.989 E.05679
G1 X188.047 Y44.498 E.0548
G1 X188.887 Y45.238 E.05618
G1 X189.524 Y46.144 E.05558
G1 X200.408 Y67.504 E1.20311
G1 X200.699 Y68.26 E.04065
M73 P2 R117
G1 X200.859 Y69.059 E.04089
M73 Q2 S117
G1 X200.887 Y161.74 E4.65128
G1 X200.749 Y162.766 E.05195
G1 X200.406 Y163.717 E.05074
G1 X199.312 Y165.151 E.09052
G1 X198.551 Y165.694 E.04692
G1 X197.712 Y166.077 E.04629
G1 X196.322 Y166.325 E.07086
G1 X110.849 Y166.325 E4.28954
G1 X53.141 Y158.89 E2.92007
M73 P2 R116
G1 X52.23 Y158.663 E.04712
G1 X51.385 Y158.267 E.04683
G1 X50.131 Y157.168 E.08368
G1 X49.655 Y156.433 E.04395
G1 X49.327 Y155.647 E.04274
G1 X49.113 Y154.352 E.06587
G1 X49.113 Y77.964 E3.8336
G1 X49.238 Y76.986 E.04948
G1 X49.573 Y76.03 E.05084
G1 X50.087 Y75.196 E.04917
G1 X50.766 Y74.481 E.04949
G1 X50.9 Y74.398 E.00791
M204 S1000
G1 X51.078 Y74.688 F10800
M204 S800
G1 F1200
G1 X52.108 Y74.055 E.06067
G1 X91.113 Y59.667 E2.08643
G1 X129.596 Y59.568 E1.93131
G1 X184.306 Y44.158 E2.85251
M73 Q2 S116
G1 X185.129 Y44.029 E.04181
G1 X185.954 Y44.055 E.04142
G1 X186.939 Y44.304 E.05099
G1 X187.837 Y44.772 E.05082
G1 X188.617 Y45.454 E.052
G1 X189.222 Y46.312 E.05269
G1 X200.096 Y67.653 E1.20204
G1 X200.372 Y68.37 E.03856
G1 X200.516 Y69.09 E.03685
G1 X200.542 Y161.729 E4.64917
G1 X200.418 Y162.667 E.04748
G1 X200.091 Y163.575 E.04843
G1 X199.09 Y164.886 E.08278
G1 X198.392 Y165.387 E.04312
G1 X197.588 Y165.755 E.04438
G1 X196.307 Y165.98 E.06527
G1 X110.86 Y165.98 E4.28824
G1 X53.195 Y158.549 E2.9179
G1 X52.331 Y158.333 E.0447
G1 X51.554 Y157.966 E.04313
G1 X50.407 Y156.96 E.07657
G1 X49.967 Y156.285 E.04044
G1 X49.653 Y155.533 E.0409
G1 X49.458 Y154.338 E.06077
G1 X49.458 Y77.975 E3.83235
G1 X49.57 Y77.081 E.04522
G1 X49.877 Y76.195 E.04706
G1 X50.371 Y75.393 E.04727
G1 X51 Y74.736 E.04565
G1 X51.027 Y74.719 E.0016
M204 S1000
G1 X51.232 Y74.991 F10800
M204 S800
G1 F1200
G1 X52.243 Y74.373 E.05947
G1 X91.204 Y60.002 E2.08407
G1 X129.644 Y59.913 E1.92915
G1 X184.39 Y44.493 E2.85438
G1 X185.134 Y44.374 E.03781
G1 X185.924 Y44.399 E.03967
G1 X186.833 Y44.633 E.04711
G1 X187.657 Y45.067 E.04674
G1 X188.373 Y45.699 E.04793
G1 X188.92 Y46.479 E.04781
G1 X199.785 Y67.802 E1.20103
G1 X200.037 Y68.453 E.03503
G1 X200.172 Y69.122 E.03425
G1 X200.197 Y161.717 E4.64696
G1 X200.079 Y162.602 E.04481
G1 X199.776 Y163.432 E.04434
G1 X198.868 Y164.621 E.07508
G1 X198.205 Y165.097 E.04096
G1 X197.467 Y165.431 E.04065
G1 X196.292 Y165.635 E.05985
G1 X110.871 Y165.635 E4.28693
G1 X53.249 Y158.208 E2.91573
G1 X52.463 Y158.013 E.04064
G1 X51.723 Y157.664 E.04106
G1 X50.683 Y156.752 E.06942
G1 X50.265 Y156.11 E.03845
G1 X49.979 Y155.42 E.03749
G1 X49.803 Y154.325 E.05566
G1 X49.803 Y77.986 E3.83114
G1 X49.909 Y77.143 E.04264
G1 X50.196 Y76.327 E.04341
G1 X50.654 Y75.591 E.0435
G1 X51.191 Y75.034 E.03883
M204 S1000
G1 X51.438 Y75.275 F10800
M204 S800
G1 F1200
G1 X51.464 Y75.248 E.00188
G1 X52.378 Y74.69 E.05374
G1 X91.294 Y60.336 E2.08165
G1 X129.692 Y60.258 E1.92704
M73 P2 R115
G1 X184.474 Y44.828 E2.85626
G1 X185.171 Y44.718 E.03541
M73 P3 R115
M73 Q3 S116
G1 X185.892 Y44.743 E.03621
G1 X186.726 Y44.961 E.04326
G1 X187.476 Y45.362 E.04268
G1 X188.103 Y45.914 E.04192
G1 X188.618 Y46.647 E.04496
G1 X199.474 Y67.951 E1.19997
G1 X199.702 Y68.536 E.03151
G1 X199.828 Y69.155 E.0317
G1 X199.852 Y161.705 E4.64471
G1 X199.74 Y162.536 E.04208
G1 X199.462 Y163.288 E.04024
G1 X198.645 Y164.357 E.06752
G1 X198.047 Y164.79 E.03705
G1 X197.345 Y165.108 E.03868
G1 X196.278 Y165.29 E.05432
G1 X110.883 Y165.29 E4.28563
G1 X53.303 Y157.867 E2.91362
M73 Q3 S115
G1 X52.563 Y157.683 E.03827
G1 X51.893 Y157.364 E.03724
G1 X50.958 Y156.543 E.06245
G1 X50.577 Y155.963 E.03483
G1 X50.306 Y155.307 E.03562
G1 X50.148 Y154.311 E.05061
G1 X50.148 Y77.997 E3.82989
G1 X50.249 Y77.206 E.04002
G1 X50.514 Y76.461 E.03968
G1 X50.936 Y75.79 E.03978
G1 X51.396 Y75.318 E.03308
M204 S1000
G1 X51.643 Y75.558 F10800
M204 S800
G1 F1200
G1 X51.696 Y75.504 E.0038
G1 X52.513 Y75.008 E.04797
G1 X91.385 Y60.67 E2.0793
G1 X129.74 Y60.602 E1.92488
G1 X184.557 Y45.163 E2.85807
G1 X185.207 Y45.061 E.03302
G1 X185.858 Y45.087 E.0327
G1 X186.617 Y45.289 E.03942
G1 X187.294 Y45.655 E.03862
G1 X187.858 Y46.157 E.03789
G1 X188.316 Y46.814 E.04019
G1 X199.163 Y68.1 E1.19896
G1 X199.485 Y69.187 E.0569
G1 X199.507 Y161.694 E4.64255
G1 X199.409 Y162.435 E.03751
G1 X199.147 Y163.144 E.03793
G1 X198.422 Y164.092 E.05989
G1 X197.859 Y164.5 E.03489
G1 X197.225 Y164.784 E.03486
G1 X196.264 Y164.945 E.0489
G1 X110.894 Y164.945 E4.28437
G1 X53.357 Y157.526 E2.91145
G1 X52.695 Y157.364 E.0342
G1 X52.063 Y157.063 E.03513
G1 X51.234 Y156.334 E.0554
G1 X50.875 Y155.788 E.03279
G1 X50.633 Y155.196 E.0321
G1 X50.493 Y154.298 E.04561
G1 X50.493 Y78.007 E3.82873
G1 X50.581 Y77.302 E.03566
G1 X50.818 Y76.627 E.0359
G1 X51.196 Y76.017 E.03601
G1 X51.601 Y75.601 E.02914
M204 S1000
G1 X51.846 Y75.843 F10800
M204 S800
G1 F1200
G1 X51.926 Y75.762 E.00571
G1 X52.647 Y75.326 E.04229
G1 X91.476 Y61.004 E2.077
G1 X129.788 Y60.947 E1.92272
G1 X184.641 Y45.497 E2.85996
G1 X185.211 Y45.406 E.02897
G1 X185.825 Y45.431 E.03084
G1 X186.506 Y45.616 E.03542
G1 X187.11 Y45.947 E.03457
G1 X187.612 Y46.4 E.03393
G1 X188.014 Y46.98 E.03542
G1 X198.852 Y68.249 E1.198
G1 X199.141 Y69.22 E.05084
G1 X199.162 Y161.683 E4.64034
G1 X199.07 Y162.369 E.03474
M73 P3 R114
G1 X198.834 Y162.999 E.03376
G1 X198.199 Y163.828 E.05241
G1 X197.672 Y164.21 E.03267
G1 X197.106 Y164.459 E.03103
G1 X196.25 Y164.6 E.04354
G1 X110.905 Y164.6 E4.28312
G1 X53.411 Y157.186 E2.90928
G1 X52.796 Y157.034 E.03179
G1 X52.235 Y156.762 E.03129
G1 X51.508 Y156.124 E.04854
G1 X51.188 Y155.641 E.02908
G1 X50.96 Y155.084 E.0302
G1 X50.838 Y154.285 E.04056
G1 X50.838 Y78.018 E3.82753
G1 X50.92 Y77.364 E.03308
G1 X51.136 Y76.761 E.03215
G1 X51.477 Y76.217 E.03222
G1 X51.804 Y75.885 E.02339
M204 S1000
G1 X52.048 Y76.128 F10800
M204 S800
G1 F1200
G1 X52.154 Y76.021 E.00756
G1 X52.782 Y75.644 E.03676
G1 X91.567 Y61.338 E2.07465
G1 X129.836 Y61.292 E1.92057
M73 Q3 S114
G1 X184.725 Y45.832 E2.86184
M73 P4 R114
M73 Q4 S114
G1 X185.247 Y45.75 E.02652
G1 X185.788 Y45.774 E.02718
G1 X186.393 Y45.942 E.03151
G1 X186.924 Y46.238 E.03051
G1 X187.364 Y46.64 E.02991
G1 X187.712 Y47.147 E.03086
G1 X198.541 Y68.398 E1.19699
G1 X198.798 Y69.253 E.04481
G1 X198.817 Y161.672 E4.63813
G1 X198.74 Y162.267 E.03011
G1 X198.52 Y162.853 E.03141
G1 X197.975 Y163.565 E.045
G1 X197.515 Y163.902 E.02862
G1 X196.988 Y164.135 E.02892
G1 X196.237 Y164.256 E.03818
G1 X110.916 Y164.255 E4.28191
G1 X53.465 Y156.845 E2.90711
G1 X52.898 Y156.704 E.02932
G1 X52.408 Y156.463 E.0274
G1 X51.783 Y155.914 E.04175
G1 X51.485 Y155.465 E.02704
G1 X51.287 Y154.975 E.02652
G1 X51.183 Y154.273 E.03562
G1 X51.183 Y78.028 E3.82642
G1 X51.252 Y77.462 E.02862
G1 X51.454 Y76.896 E.03016
G1 X51.758 Y76.419 E.02839
G1 X52.005 Y76.171 E.01757
M204 S1000
G1 X52.247 Y76.415 F10800
M204 S800
G1 F1200
G1 X52.381 Y76.281 E.00951
G1 X52.916 Y75.962 E.03126
G1 X91.658 Y61.672 E2.07235
G1 X129.884 Y61.637 E1.91841
G1 X184.808 Y46.167 E2.86366
G1 X185.281 Y46.093 E.02403
G1 X185.751 Y46.118 E.02362
G1 X186.245 Y46.255 E.02573
G1 X186.709 Y46.509 E.02655
G1 X187.092 Y46.853 E.02584
G1 X187.41 Y47.313 E.02806
G1 X198.23 Y68.548 E1.19607
G1 X198.454 Y69.288 E.0388
G1 X198.472 Y161.66 E4.63577
G1 X198.401 Y162.201 E.02738
G1 X198.207 Y162.706 E.02715
G1 X197.751 Y163.301 E.03762
G1 X197.327 Y163.612 E.02639
G1 X196.872 Y163.809 E.02488
G1 X196.224 Y163.911 E.03292
G1 X110.927 Y163.911 E4.28071
G1 X53.518 Y156.504 E2.905
G1 X53.033 Y156.386 E.02505
G1 X52.58 Y156.164 E.02532
G1 X52.056 Y155.703 E.03503
G1 X51.615 Y154.865 E.04752
G1 X51.528 Y154.261 E.03063
G1 X51.528 Y78.038 E3.82532
G1 X51.584 Y77.557 E.0243
M73 P4 R113
G1 X51.756 Y77.064 E.0262
G1 X52.038 Y76.621 E.02635
G1 X52.204 Y76.457 E.01171
M204 S1000
G1 X52.489 Y76.688 F10800
M204 S800
G1 F1200
G1 X52.607 Y76.543 E.00938
G1 X53.049 Y76.281 E.02579
G1 X91.748 Y62.006 E2.07006
G1 X129.931 Y61.982 E1.91625
G1 X184.891 Y46.502 E2.86554
G1 X185.711 Y46.461 E.0412
G1 X186.13 Y46.58 E.02186
G1 X186.522 Y46.799 E.02253
G1 X186.844 Y47.094 E.02192
G1 X187.107 Y47.479 E.0234
G1 X197.919 Y68.697 E1.19512
G1 X198.111 Y69.322 E.03281
G1 X198.128 Y161.649 E4.63351
G1 X198.062 Y162.133 E.02451
M73 Q4 S113
G1 X197.895 Y162.557 E.02287
G1 X197.525 Y163.04 E.03053
G1 X197.171 Y163.304 E.02216
