; generated by PrusaSlicer 2.9.4 on 2025-11-18 at 16:24:52 UTC


;
;
; 

; external perimeters extrusion width = 0.60mm
; perimeters extrusion width = 0.50mm
; infill extrusion width = 0.50mm
; solid infill extrusion width = 0.50mm
; top infill extrusion width = 0.45mm
; support material extrusion width = 0.38mm
; first layer extrusion width = 0.42mm

M73 P0 R119
M73 Q0 S119
M201 X1000 Y1000 Z200 E5000 ; sets maximum accelerations, mm/sec^2
M203 X200 Y200 Z12 E120 ; sets maximum feedrates, mm / sec
M204 S1250 T1250 ; sets acceleration (S) and retract acceleration (R), mm/sec^2
M205 X8.00 Y8.00 Z0.40 E4.50 ; sets the jerk limits, mm/sec
M205 S0 T0 ; sets the minimum extruding and travel feed rate, mm/sec

; printing object rh_sofle_pico_backplate_v3.4.stl id:0 copy 0
; stop printing object rh_sofle_pico_backplate_v3.4.stl id:0 copy 0

;TYPE:Custom
M862.3 P "MK3S" ; printer model check
M862.1 P0.4 ; nozzle diameter check
M115 U3.14.1 ; tell printer latest fw version
G90 ; use absolute coordinates
M83 ; extruder relative mode
M104 S215 ; set extruder temp
M140 S60 ; set bed temp
M190 S60 ; wait for bed temp
M109 S215 ; wait for extruder temp
G28 W ; home all without mesh bed level
G80 X45.0448 Y39.6022 W159.91 H130.791 ; mesh bed levelling

G1 Z0.2 F720
G1 Y-3 F1000 ; go outside print area
G92 E0
G1 X60 E9 F1000 ; intro line
G1 X100 E12.5 F1000 ; intro line

G92 E0
M221 S95

; Don't change E values below. Excessive value can damage the printer.

M907 E538 ; set extruder motor current
G21 ; set units to millimeters
G90 ; use absolute coordinates
M83 ; use relative distances for extrusion

M900 K0.05 ; Filament gcode LA 1.5
M900 K30 ; Filament gcode LA 1.0




M107
;LAYER_CHANGE
;Z:0.35
;HEIGHT:0.35
G1 E-.8 F2100
G1 Z.75 F720
G1 X57.704 Y43.256 F10800
G1 Z.35 F720
G1 E.8 F2100
M204 S800
;TYPE:Skirt/Brim
;WIDTH:0.42
G1 F1200
G1 X58.396 Y42.433 E.05396
G1 X59.222 Y41.671 E.0564
G1 X59.893 Y41.185 E.04158
G1 X60.869 Y40.629 E.05637
G1 X61.633 Y40.307 E.04161
G1 X62.709 Y39.985 E.05637
G1 X63.526 Y39.844 E.04161
G1 X65.228 Y39.797 E.08545
G1 X159.798 Y55.519 E4.81122
G1 X199.44 Y70.106 E2.11988
G1 X200.88 Y70.858 E.08153
G1 X201.761 Y71.514 E.05512
G1 X202.967 Y72.767 E.08728
G1 X203.61 Y73.718 E.05761
G1 X204.003 Y74.468 E.04249
G1 X204.409 Y75.542 E.05762
G1 X204.619 Y76.362 E.04248
G1 X204.783 Y77.912 E.07822
G1 X204.783 Y154.391 E3.83817
G1 X204.652 Y155.749 E.06847
G1 X204.377 Y156.86 E.05744
G1 X203.648 Y158.523 E.09113
G1 X202.815 Y159.724 E.07335
G1 X201.515 Y160.99 E.09107
G1 X200.571 Y161.637 E.05743
G1 X198.92 Y162.394 E.09115
G1 X197.523 Y162.729 E.0721
G1 X139.351 Y170.216 E2.9435
G1 X53.637 Y170.221 E4.30164
G1 X52.174 Y170.069 E.07382
G1 X50.98 Y169.749 E.06204
G1 X49.794 Y169.238 E.06481
G1 X48.979 Y168.746 E.04778
G1 X48.179 Y168.132 E.05061
G1 X47.306 Y167.259 E.06196
G1 X46.535 Y166.223 E.06481
G1 X46.075 Y165.389 E.0478
G1 X45.689 Y164.459 E.05053
G1 X45.425 Y163.544 E.04779
G1 X45.217 Y161.802 E.08804
G1 X45.217 Y69.518 E4.63136
G1 X45.278 Y68.529 E.04973
G1 X45.559 Y67.163 E.06999
G1 X46.108 Y65.76 E.07561
G1 X57.023 Y44.339 E1.20655
G1 X57.672 Y43.307 E.06118
M204 S1000
;WIPE_START
G1 F8640
G1 X57.704 Y43.256 E-.0139
G1 X58.396 Y42.433 E-.24828
G1 X59.222 Y41.671 E-.25949
G1 X59.893 Y41.185 E-.19131
G1 X60.221 Y40.998 E-.08702
;WIPE_END
G1 Z.75 F720
G1 X59.718 Y44.839 F10800
G1 Z.35 F720
G1 E.8 F2100
M204 S800
G1 F1200
G1 X60.226 Y44.16 E.04256
G1 X60.968 Y43.507 E.0496
G1 X61.808 Y42.974 E.04993
G1 X63.455 Y42.406 E.08743
G1 X65.189 Y42.32 E.08713
G1 X66.125 Y42.488 E.04772
G1 X120.644 Y57.844 E2.84255
G1 X159.342 Y57.997 E1.94211
M73 P0 R118
G1 X198.569 Y72.467 E2.09831
G1 X200.175 Y73.468 E.09497
G1 X201.031 Y74.386 E.06299
G1 X201.689 Y75.472 E.06373
G1 X202.105 Y76.668 E.06355
G1 X202.266 Y77.92 E.06335
G1 X202.266 Y154.409 E3.83867
G1 X201.976 Y156.109 E.08655
G1 X201.55 Y157.104 E.05432
G1 X200.976 Y157.997 E.05328
G1 X199.286 Y159.477 E.11274
G1 X198.229 Y159.964 E.05841
G1 X197.074 Y160.253 E.05975
G1 X139.195 Y167.704 E2.92868
G1 X53.617 Y167.704 E4.29481
M73 Q0 S118
G1 X51.789 Y167.366 E.09329
G1 X50.733 Y166.874 E.05847
G1 X49.801 Y166.212 E.05737
G1 X48.33 Y164.28 E.12186
G1 X47.902 Y163.056 E.06507
G1 X47.734 Y161.786 E.06429
G1 X47.766 Y68.934 E4.65986
G1 X47.967 Y67.905 E.05262
G1 X48.347 Y66.91 E.05345
G1 X59.389 Y45.278 E1.21888
G1 X59.682 Y44.887 E.02452
M204 S1000
G1 X59.957 Y45.093 F10800
M204 S800
G1 F1200
G1 X60.468 Y44.407 E.04293
G1 X61.186 Y43.775 E.048
G1 X61.975 Y43.276 E.04685
G1 X63.497 Y42.749 E.08083
G1 X65.148 Y42.663 E.08297
G1 X66.039 Y42.822 E.04542
G1 X120.596 Y58.189 E2.84453
G1 X159.251 Y58.331 E1.93995
G1 X198.434 Y72.784 E2.09594
G1 X199.939 Y73.721 E.08897
G1 X200.746 Y74.581 E.05919
G1 X201.369 Y75.603 E.06007
G1 X201.765 Y76.73 E.05995
G1 X201.921 Y77.931 E.06078
G1 X201.921 Y154.394 E3.83737
G1 X201.65 Y155.993 E.08139
G1 X201.252 Y156.93 E.05109
G1 X200.699 Y157.79 E.05131
G1 X199.119 Y159.174 E.10541
G1 X198.099 Y159.644 E.05636
G1 X197.021 Y159.912 E.05575
G1 X139.184 Y167.359 E2.92656
G1 X53.632 Y167.359 E4.29351
M73 P1 R118
M73 Q1 S118
G1 X51.914 Y167.044 E.08766
G1 X50.919 Y166.583 E.05503
G1 X50.022 Y165.946 E.05521
G1 X48.646 Y164.14 E.11395
G1 X48.241 Y162.992 E.06109
G1 X48.079 Y161.774 E.06166
G1 X48.11 Y68.965 E4.6577
G1 X48.303 Y67.986 E.05008
G1 X48.658 Y67.058 E.04986
G1 X59.674 Y45.472 E1.21623
G1 X59.921 Y45.141 E.02073
M204 S1000
G1 X60.197 Y45.345 F10800
M204 S800
G1 F1200
G1 X60.71 Y44.653 E.04323
G1 X61.382 Y44.059 E.04501
G1 X62.142 Y43.579 E.04511
G1 X63.586 Y43.084 E.07661
G1 X65.107 Y43.006 E.07643
G1 X65.954 Y43.157 E.04318
G1 X120.548 Y58.534 E2.84646
G1 X159.16 Y58.665 E1.93779
G1 X198.298 Y73.102 E2.09355
G1 X199.703 Y73.974 E.08299
G1 X200.482 Y74.804 E.05713
G1 X201.065 Y75.766 E.05645
G1 X201.433 Y76.826 E.05631
G1 X201.576 Y77.942 E.05647
G1 X201.576 Y154.38 E3.83611
G1 X201.325 Y155.877 E.07618
M73 P1 R117
G1 X200.941 Y156.781 E.04929
G1 X200.422 Y157.582 E.0479
G1 X198.951 Y158.872 E.09819
G1 X197.999 Y159.313 E.05265
G1 X196.967 Y159.571 E.05339
G1 X139.173 Y167.015 E2.9244
G1 X53.648 Y167.015 E4.29215
G1 X52.039 Y166.722 E.08208
G1 X51.079 Y166.277 E.0531
G1 X50.243 Y165.68 E.05156
G1 X48.963 Y164 E.106
G1 X48.573 Y162.894 E.05886
G1 X48.424 Y161.763 E.05725
G1 X48.453 Y68.996 E4.6556
G1 X48.63 Y68.095 E.04608
M73 Q1 S117
G1 X48.97 Y67.207 E.04772
G1 X59.96 Y45.666 E1.21362
G1 X60.162 Y45.394 E.017
M204 S1000
G1 X60.439 Y45.597 F10800
M204 S800
G1 F1200
G1 X60.953 Y44.899 E.0435
G1 X61.599 Y44.327 E.0433
G1 X62.309 Y43.881 E.04208
G1 X63.629 Y43.427 E.07005
G1 X65.067 Y43.349 E.07227
G1 X65.869 Y43.491 E.04088
G1 X120.5 Y58.878 E2.84838
G1 X159.069 Y58.999 E1.93563
G1 X198.163 Y73.419 E2.09118
G1 X199.468 Y74.227 E.07703
G1 X200.197 Y75 E.05332
G1 X200.746 Y75.898 E.05282
G1 X201.094 Y76.889 E.05271
G1 X201.232 Y77.953 E.05385
G1 X201.232 Y154.366 E3.83486
G1 X200.999 Y155.762 E.07103
G1 X200.643 Y156.607 E.04602
G1 X200.146 Y157.375 E.04591
G1 X198.784 Y158.569 E.0909
G1 X197.869 Y158.994 E.05063
G1 X196.913 Y159.23 E.04942
G1 X139.162 Y166.67 E2.92224
G1 X53.663 Y166.67 E4.29085
G1 X52.163 Y166.399 E.0765
G1 X51.266 Y165.987 E.04954
G1 X50.465 Y165.415 E.0494
G1 X49.278 Y163.859 E.09822
G1 X48.912 Y162.831 E.05476
G1 X48.768 Y161.752 E.05463
G1 X48.797 Y69.027 E4.65349
G1 X48.966 Y68.177 E.04349
G1 X49.281 Y67.355 E.04418
G1 X60.246 Y45.859 E1.21104
G1 X60.403 Y45.646 E.01328
M204 S1000
G1 X60.681 Y45.849 F10800
M204 S800
G1 F1200
G1 X61.196 Y45.144 E.04382
G1 X61.795 Y44.611 E.04024
G1 X62.475 Y44.184 E.0403
G1 X63.717 Y43.761 E.06585
G1 X65.026 Y43.692 E.06578
G1 X65.784 Y43.825 E.03862
G1 X120.452 Y59.223 E2.85032
G1 X158.978 Y59.333 E1.93347
G1 X198.027 Y73.737 E2.08878
G1 X199.233 Y74.481 E.07111
G1 X199.913 Y75.196 E.04952
G1 X200.427 Y76.03 E.04917
G1 X200.762 Y76.986 E.05084
G1 X200.887 Y77.964 E.04948
G1 X200.887 Y154.352 E3.8336
G1 X200.673 Y155.647 E.06587
M73 P2 R117
M73 Q2 S117
G1 X200.345 Y156.433 E.04274
G1 X199.869 Y157.168 E.04395
G1 X198.615 Y158.267 E.08368
G1 X197.77 Y158.663 E.04683
G1 X196.859 Y158.89 E.04712
G1 X139.151 Y166.325 E2.92007
G1 X53.678 Y166.325 E4.28954
G1 X52.286 Y166.077 E.07096
G1 X51.453 Y165.696 E.04597
G1 X50.686 Y165.149 E.04728
G1 X49.594 Y163.717 E.09038
G1 X49.251 Y162.766 E.05074
G1 X49.113 Y161.74 E.05195
G1 X49.141 Y69.059 E4.65128
G1 X49.301 Y68.26 E.04089
M73 P2 R116
G1 X49.592 Y67.504 E.04065
G1 X60.532 Y46.051 E1.20855
G1 X60.645 Y45.897 E.00959
M204 S1000
G1 X60.924 Y46.1 F10800
M204 S800
G1 F1200
G1 X61.439 Y45.389 E.04406
G1 X62.013 Y44.879 E.03853
G1 X62.64 Y44.487 E.03711
G1 X63.76 Y44.104 E.0594
G1 X64.987 Y44.036 E.06167
G1 X65.699 Y44.16 E.03627
G1 X120.404 Y59.568 E2.85224
G1 X158.887 Y59.667 E1.93131
G1 X197.892 Y74.055 E2.08643
G1 X199 Y74.736 E.06527
G1 X199.629 Y75.393 E.04565
G1 X200.123 Y76.195 E.04727
G1 X200.43 Y77.081 E.04706
G1 X200.542 Y77.975 E.04522
G1 X200.542 Y154.338 E3.83235
G1 X200.347 Y155.533 E.06077
M73 Q2 S116
G1 X200.033 Y156.285 E.0409
G1 X199.593 Y156.96 E.04044
G1 X198.446 Y157.966 E.07657
G1 X197.669 Y158.333 E.04313
G1 X196.805 Y158.549 E.0447
G1 X139.14 Y165.98 E2.9179
G1 X53.693 Y165.98 E4.28824
G1 X52.409 Y165.754 E.06543
G1 X51.611 Y165.39 E.04402
G1 X50.908 Y164.884 E.04347
G1 X49.909 Y163.575 E.08264
G1 X49.582 Y162.667 E.04843
G1 X49.458 Y161.729 E.04748
G1 X49.484 Y69.09 E4.64917
G1 X49.628 Y68.37 E.03685
G1 X49.904 Y67.653 E.03856
G1 X60.82 Y46.243 E1.20608
G1 X60.888 Y46.148 E.00586
M204 S1000
G1 X61.168 Y46.349 F10800
M204 S800
G1 F1200
G1 X61.684 Y45.633 E.04429
G1 X62.209 Y45.163 E.03536
G1 X62.806 Y44.791 E.0353
G1 X63.848 Y44.438 E.05521
G1 X64.947 Y44.379 E.05523
G1 X65.614 Y44.494 E.03397
G1 X120.356 Y59.913 E2.85418
G1 X158.796 Y60.002 E1.92915
G1 X197.757 Y74.373 E2.08407
G1 X198.768 Y74.991 E.05947
G1 X199.346 Y75.591 E.04181
G1 X199.804 Y76.327 E.0435
G1 X200.091 Y77.143 E.04341
G1 X200.197 Y77.986 E.04264
G1 X200.197 Y154.325 E3.83114
G1 X200.021 Y155.42 E.05566
G1 X199.735 Y156.11 E.03749
G1 X199.317 Y156.752 E.03845
G1 X198.277 Y157.664 E.06942
G1 X197.537 Y158.013 E.04106
G1 X196.751 Y158.208 E.04064
G1 X139.129 Y165.635 E2.91573
G1 X53.708 Y165.635 E4.28693
G1 X52.53 Y165.43 E.06001
G1 X51.799 Y165.099 E.04027
G1 X51.13 Y164.619 E.04132
G1 X50.224 Y163.432 E.07494
G1 X49.921 Y162.602 E.04434
G1 X49.803 Y161.717 E.04481
G1 X49.828 Y69.122 E4.64696
G1 X49.963 Y68.453 E.03425
G1 X50.215 Y67.802 E.03503
G1 X61.107 Y46.433 E1.2037
G1 X61.133 Y46.398 E.00219
M204 S1000
G1 X61.413 Y46.598 F10800
M204 S800
G1 F1200
G1 X61.929 Y45.876 E.04454
G1 X62.405 Y45.448 E.03213
G1 X62.971 Y45.094 E.0335
G1 X63.935 Y44.773 E.05099
G1 X64.908 Y44.722 E.0489
G1 X65.529 Y44.829 E.03162
G1 X120.308 Y60.258 E2.8561
G1 X158.706 Y60.336 E1.92704
G1 X197.622 Y74.69 E2.08165
M73 P2 R115
G1 X198.536 Y75.248 E.05374
M73 P3 R115
M73 Q3 S116
G1 X199.064 Y75.79 E.03797
G1 X199.486 Y76.461 E.03978
G1 X199.751 Y77.206 E.03968
G1 X199.852 Y77.997 E.04002
G1 X199.852 Y154.311 E3.82989
G1 X199.694 Y155.307 E.05061
G1 X199.423 Y155.963 E.03562
G1 X199.042 Y156.543 E.03483
G1 X198.107 Y157.364 E.06245
G1 X197.437 Y157.683 E.03724
G1 X196.697 Y157.867 E.03827
G1 X139.117 Y165.29 E2.91362
G1 X53.722 Y165.29 E4.28563
G1 X52.652 Y165.107 E.05448
M73 Q3 S115
G1 X51.957 Y164.792 E.03829
G1 X51.353 Y164.355 E.03741
G1 X50.538 Y163.288 E.06738
G1 X50.26 Y162.536 E.04024
G1 X50.148 Y161.705 E.04208
G1 X50.172 Y69.155 E4.64471
G1 X50.298 Y68.536 E.0317
G1 X50.526 Y67.951 E.03151
G1 X61.382 Y46.65 E1.19984
M204 S1000
G1 X61.684 Y46.812 F10800
M204 S800
G1 F1200
G1 X62.175 Y46.119 E.04262
G1 X62.624 Y45.714 E.03035
G1 X63.135 Y45.398 E.03015
G1 X63.978 Y45.116 E.04461
G1 X64.869 Y45.065 E.04479
G1 X65.445 Y45.163 E.02932
G1 X120.26 Y60.602 E2.85798
G1 X158.615 Y60.67 E1.92488
G1 X197.487 Y75.008 E2.0793
G1 X198.304 Y75.504 E.04797
G1 X198.804 Y76.017 E.03595
G1 X199.182 Y76.627 E.03601
G1 X199.419 Y77.302 E.0359
G1 X199.507 Y78.007 E.03566
G1 X199.507 Y154.298 E3.82873
G1 X199.367 Y155.196 E.04561
G1 X199.125 Y155.788 E.0321
G1 X198.766 Y156.334 E.03279
G1 X197.937 Y157.063 E.0554
G1 X197.305 Y157.364 E.03513
G1 X196.643 Y157.526 E.0342
G1 X139.106 Y164.945 E2.91145
G1 X53.736 Y164.945 E4.28437
G1 X52.772 Y164.783 E.04906
G1 X52.145 Y164.502 E.03448
G1 X51.576 Y164.09 E.03526
G1 X50.853 Y163.144 E.05975
G1 X50.591 Y162.435 E.03793
G1 X50.493 Y161.694 E.03751
G1 X50.515 Y69.187 E4.64255
G1 X50.837 Y68.1 E.0569
G1 X61.657 Y46.865 E1.19607
M204 S1000
G1 X61.964 Y47.022 F10800
M204 S800
G1 F1200
G1 X61.986 Y46.979 E.00242
G1 X62.421 Y46.361 E.03793
G1 X62.819 Y45.999 E.027
G1 X63.299 Y45.702 E.02833
G1 X64.063 Y45.45 E.04037
G1 X64.831 Y45.408 E.0386
G1 X65.36 Y45.498 E.02693
G1 X120.212 Y60.947 E2.8599
G1 X158.524 Y61.004 E1.92272
G1 X197.353 Y75.326 E2.077
G1 X198.074 Y75.762 E.04229
G1 X198.523 Y76.217 E.03208
G1 X198.864 Y76.761 E.03222
G1 X199.08 Y77.364 E.03215
G1 X199.162 Y78.018 E.03308
G1 X199.162 Y154.285 E3.82753
G1 X199.04 Y155.084 E.04056
G1 X198.812 Y155.641 E.0302
G1 X198.492 Y156.124 E.02908
G1 X197.765 Y156.762 E.04854
G1 X197.204 Y157.034 E.03129
G1 X196.589 Y157.186 E.03179
G1 X139.095 Y164.6 E2.90928
G1 X53.75 Y164.6 E4.28312
G1 X52.892 Y164.459 E.04364
M73 P3 R114
G1 X52.302 Y164.195 E.03244
G1 X51.8 Y163.827 E.03124
G1 X51.166 Y162.999 E.05234
G1 X50.93 Y162.369 E.03376
G1 X50.838 Y161.683 E.03474
G1 X50.859 Y69.22 E4.64034
G1 X51.148 Y68.249 E.05084
G1 X61.937 Y47.075 E1.19263
M204 S1000
G1 X62.245 Y47.232 F10800
M204 S800
G1 F1200
G1 X62.288 Y47.146 E.00483
G1 X62.668 Y46.603 E.03326
G1 X63.461 Y46.007 E.04978
G1 X64.107 Y45.793 E.03415
G1 X64.794 Y45.752 E.03454
G1 X65.276 Y45.832 E.02452
G1 X120.164 Y61.292 E2.86179
G1 X158.433 Y61.338 E1.92057
G1 X197.218 Y75.644 E2.07465
M73 P4 R114
M73 Q4 S114
G1 X197.846 Y76.021 E.03676
G1 X198.242 Y76.419 E.02818
G1 X198.546 Y76.896 E.02839
G1 X198.748 Y77.462 E.03016
G1 X198.817 Y78.028 E.02862
G1 X198.817 Y154.273 E3.82642
G1 X198.713 Y154.975 E.03562
G1 X198.515 Y155.465 E.02652
G1 X198.217 Y155.914 E.02704
G1 X197.592 Y156.463 E.04175
G1 X197.102 Y156.704 E.0274
G1 X196.535 Y156.845 E.02932
G1 X139.084 Y164.255 E2.90711
G1 X53.764 Y164.255 E4.28186
G1 X53.01 Y164.134 E.03832
G1 X52.491 Y163.906 E.02845
G1 X52.024 Y163.563 E.02908
G1 X51.48 Y162.853 E.04489
G1 X51.26 Y162.267 E.03141
G1 X51.183 Y161.672 E.03011
G1 X51.202 Y69.253 E4.63813
G1 X51.459 Y68.398 E.04481
G1 X62.217 Y47.285 E1.1892
M204 S1000
G1 X62.525 Y47.442 F10800
M204 S800
G1 F1200
G1 X62.59 Y47.313 E.00725
G1 X62.916 Y46.843 E.02871
G1 X63.623 Y46.312 E.04437
G1 X64.192 Y46.128 E.03001
G1 X64.757 Y46.095 E.0284
G1 X120.116 Y61.637 E2.88566
G1 X158.342 Y61.672 E1.91841
G1 X197.084 Y75.962 E2.07235
G1 X197.619 Y76.281 E.03126
G1 X197.962 Y76.621 E.02424
G1 X198.244 Y77.064 E.02635
G1 X198.416 Y77.557 E.0262
G1 X198.472 Y78.038 E.0243
G1 X198.472 Y154.261 E3.82532
G1 X198.385 Y154.865 E.03063
G1 X197.944 Y155.703 E.04752
G1 X197.42 Y156.164 E.03503
G1 X196.967 Y156.386 E.02532
G1 X196.482 Y156.504 E.02505
G1 X139.073 Y163.911 E2.905
G1 X53.777 Y163.911 E4.28066
G1 X53.128 Y163.809 E.03297
G1 X52.648 Y163.598 E.02631
G1 X52.249 Y163.301 E.02496
G1 X51.793 Y162.706 E.03762
G1 X51.599 Y162.201 E.02715
G1 X51.528 Y161.66 E.02738
G1 X51.546 Y69.288 E4.63577
G1 X51.77 Y68.548 E.0388
G1 X62.497 Y47.495 E1.18581
M204 S1000
G1 X62.805 Y47.652 F10800
M204 S800
G1 F1200
G1 X62.893 Y47.479 E.00974
G1 X63.164 Y47.083 E.02408
G1 X63.784 Y46.618 E.03889
G1 X64.236 Y46.471 E.02385
G1 X65.108 Y46.502 E.04379
G1 X120.069 Y61.982 E2.86559
G1 X158.252 Y62.006 E1.91625
M73 P4 R113
G1 X196.951 Y76.281 E2.07006
G1 X197.393 Y76.543 E.02579
G1 X197.927 Y77.2 E.04249
G1 X198.128 Y78.048 E.04374
G1 X198.128 Y154.249 E3.82422
G1 X198.056 Y154.759 E.02585
G1 X197.67 Y155.492 E.04158
G1 X197.245 Y155.866 E.02841
G1 X196.428 Y156.163 E.04363
G1 X139.062 Y163.566 E2.90284
G1 X53.789 Y163.566 E4.2795
G1 X53.243 Y163.483 E.02772
M73 Q4 S113
G1 X52.837 Y163.309 E.02217
G1 X52.474 Y163.039 E.0227
G1 X52.105 Y162.557 E.03046
