; generated by PrusaSlicer 2.9.4 on 2025-11-18 at 16:26:09 UTC


;
;
; 

; external perimeters extrusion width = 0.60mm
; perimeters extrusion width = 0.50mm
; infill extrusion width = 0.50mm
; solid infill extrusion width = 0.50mm
; top infill extrusion width = 0.45mm
; support material extrusion width = 0.38mm
; first layer extrusion width = 0.42mm

M73 P0 R93
M73 Q0 S94
M201 X1000 Y1000 Z200 E5000 ; sets maximum accelerations, mm/sec^2
M203 X200 Y200 Z12 E120 ; sets maximum feedrates, mm / sec
M204 S1250 T1250 ; sets acceleration (S) and retract acceleration (R), mm/sec^2
M205 X8.00 Y8.00 Z0.40 E4.50 ; sets the jerk limits, mm/sec
M205 S0 T0 ; sets the minimum extruding and travel feed rate, mm/sec

; printing object sofle_pico_keyplate_notched.stl id:0 copy 0
; stop printing object sofle_pico_keyplate_notched.stl id:0 copy 0

;TYPE:Custom
M862.3 P "MK3S" ; printer model check
M862.1 P0.4 ; nozzle diameter check
M115 U3.14.1 ; tell printer latest fw version
G90 ; use absolute coordinates
M83 ; extruder relative mode
M104 S215 ; set extruder temp
M140 S60 ; set bed temp
M190 S60 ; wait for bed temp
M109 S215 ; wait for extruder temp
G28 W ; home all without mesh bed level
G80 X45.0448 Y39.6021 W159.91 H130.827 ; mesh bed levelling

G1 Z0.2 F720
G1 Y-3 F1000 ; go outside print area
G92 E0
G1 X60 E9 F1000 ; intro line
G1 X100 E12.5 F1000 ; intro line

G92 E0
M221 S95

; Don't change E values below. Excessive value can damage the printer.

M907 E538 ; set extruder motor current
G21 ; set units to millimeters
G90 ; use absolute coordinates
M83 ; use relative distances for extrusion

M900 K0.05 ; Filament gcode LA 1.5
M900 K30 ; Filament gcode LA 1.0




M107
;LAYER_CHANGE
;Z:0.35
;HEIGHT:0.35
G1 E-.8 F2100
G1 Z.75 F720
G1 X49.121 Y70.857 F10800
G1 Z.35 F720
G1 E.8 F2100
M204 S800
;TYPE:Skirt/Brim
;WIDTH:0.42
G1 F1200
G1 X50.56 Y70.105 E.08148
G1 X90.202 Y55.519 E2.11987
G1 X183.758 Y39.94 E4.75984
G1 X184.772 Y39.797 E.05139
M73 Q0 S93
G1 X185.6 Y39.779 E.04156
G1 X186.719 Y39.877 E.05637
G1 X187.53 Y40.045 E.04156
G1 X188.599 Y40.393 E.05642
G1 X189.351 Y40.741 E.04158
G1 X190.313 Y41.322 E.0564
G1 X190.968 Y41.831 E.04163
G1 X191.774 Y42.613 E.05636
G1 X192.296 Y43.256 E.04156
G1 X192.977 Y44.339 E.0642
G1 X203.892 Y65.761 E1.20659
G1 X204.441 Y67.163 E.07556
G1 X204.722 Y68.529 E.06999
G1 X204.783 Y69.518 E.04973
G1 X204.756 Y100.304 E1.54502
G1 X204.648 Y101.162 E.0434
G1 X204.42 Y102.088 E.04786
G1 X203.972 Y103.215 E.06086
G1 X176.363 Y165.687 E3.42774
G1 X175.923 Y166.473 E.04521
G1 X175.232 Y167.405 E.05823
G1 X174.358 Y168.279 E.06203
G1 X173.426 Y168.97 E.05823
G1 X172.592 Y169.43 E.0478
G1 X171.782 Y169.766 E.04401
G1 X170.589 Y170.086 E.06199
G1 X169.297 Y170.22 E.06519
G1 X110.322 Y170.195 E2.95971
G1 X52.477 Y162.729 E2.92708
G1 X51.08 Y162.394 E.0721
G1 X49.43 Y161.638 E.09108
G1 X48.485 Y160.99 E.0575
G1 X47.185 Y159.724 E.09107
G1 X46.353 Y158.523 E.07332
G1 X45.622 Y156.86 E.09117
G1 X45.347 Y155.748 E.05749
G1 X45.217 Y154.391 E.06841
G1 X45.217 Y77.913 E3.83812
G1 X45.381 Y76.363 E.07822
G1 X45.59 Y75.542 E.04252
G1 X45.997 Y74.468 E.05764
G1 X46.389 Y73.719 E.04243
G1 X47.032 Y72.768 E.05761
G1 X48.239 Y71.514 E.08735
G1 X49.073 Y70.893 E.05218
M204 S1000
;WIPE_START
G1 F8640
G1 X49.121 Y70.857 E-.01385
G1 X50.56 Y70.105 E-.3749
G1 X52.232 Y69.49 E-.41125
;WIPE_END
G1 Z.75 F720
G1 X50.44 Y73.085 F10800
G1 Z.35 F720
G1 E.8 F2100
M204 S800
G1 F1200
G1 X51.431 Y72.467 E.05861
G1 X90.658 Y57.997 E2.09831
G1 X129.356 Y57.844 E1.94211
G1 X183.888 Y42.484 E2.84323
M73 P0 R92
G1 X184.974 Y42.311 E.05519
G1 X186.1 Y42.335 E.05652
G1 X187.498 Y42.672 E.07217
G1 X188.782 Y43.33 E.07241
G1 X189.844 Y44.239 E.07015
G1 X190.676 Y45.384 E.07103
G1 X201.645 Y66.894 E1.21176
G1 X201.971 Y67.703 E.04377
G1 X202.176 Y68.528 E.04266
G1 X202.266 Y69.501 E.04904
G1 X202.266 Y99.793 E1.52023
G1 X202.175 Y100.702 E.04585
G1 X201.615 Y102.282 E.08413
G1 X200.619 Y103.619 E.08367
G1 X199.573 Y104.435 E.06658
G1 X198.404 Y104.966 E.06444
G1 X197.08 Y105.217 E.06763
G1 X189.565 Y105.228 E.37715
G1 X189.56 Y109.001 E.18935
G1 X189.302 Y110.391 E.07095
G1 X188.794 Y111.52 E.06213
G1 X188.06 Y112.498 E.06137
G1 X187.117 Y113.3 E.06213
G1 X186.007 Y113.882 E.0629
G1 X184.201 Y114.25 E.0925
G1 X172.87 Y114.257 E.56866
G1 X172.87 Y146.14 E1.60008
G1 X173.936 Y147.467 E.08542
G1 X174.404 Y148.553 E.05935
G1 X174.633 Y149.751 E.06121
G1 X174.659 Y158.072 E.4176
G1 X174.76 Y160.223 E.10807
G1 X174.648 Y162.431 E.11095
G1 X174.416 Y163.756 E.06751
G1 X173.838 Y165.041 E.07071
G1 X172.681 Y166.402 E.08965
G1 X171.718 Y167.046 E.05814
G1 X170.62 Y167.491 E.05946
G1 X169.496 Y167.688 E.05727
G1 X167.167 Y167.741 E.11691
G1 X110.489 Y167.684 E2.84444
G1 X52.925 Y160.253 E2.91287
G1 X51.771 Y159.964 E.0597
G1 X50.714 Y159.477 E.05841
G1 X49.022 Y157.995 E.11288
G1 X48.438 Y157.082 E.05439
G1 X48.023 Y156.106 E.05323
G1 X47.734 Y154.408 E.08644
G1 X47.734 Y77.92 E3.83862
G1 X47.895 Y76.668 E.06335
M73 P1 R92
M73 Q1 S93
G1 X48.311 Y75.472 E.06355
G1 X48.969 Y74.386 E.06373
G1 X49.825 Y73.468 E.06299
G1 X50.389 Y73.116 E.03337
M204 S1000
G1 X50.569 Y73.405 F10800
M204 S800
G1 F1200
G1 X51.566 Y72.784 E.05895
G1 X90.749 Y58.331 E2.09594
G1 X129.404 Y58.189 E1.93995
G1 X183.972 Y42.819 E2.8451
G1 X185.013 Y42.654 E.0529
G1 X186.073 Y42.679 E.05321
G1 X187.396 Y43.002 E.06835
G1 X188.606 Y43.626 E.06832
G1 X189.603 Y44.487 E.06611
G1 X190.389 Y45.575 E.06736
G1 X201.334 Y67.044 E1.20938
G1 X201.64 Y67.799 E.04088
G1 X201.834 Y68.573 E.04005
G1 X201.921 Y69.509 E.04718
G1 X201.921 Y99.784 E1.51938
G1 X201.834 Y100.647 E.04353
G1 X201.323 Y102.097 E.07716
G1 X200.356 Y103.393 E.08115
G1 X199.379 Y104.15 E.06203
G1 X198.282 Y104.643 E.06036
G1 X197.064 Y104.873 E.06221
G1 X189.22 Y104.884 E.39366
G1 X189.215 Y108.986 E.20586
G1 X188.979 Y110.269 E.06547
G1 X188.506 Y111.33 E.0583
G1 X187.821 Y112.248 E.05748
G1 X186.909 Y113.024 E.0601
G1 X185.87 Y113.564 E.05877
G1 X184.184 Y113.905 E.08633
G1 X172.525 Y113.904 E.58512
G1 X172.525 Y146.303 E1.62597
M73 Q1 S92
G1 X172.781 Y146.519 E.01681
G1 X173.627 Y147.624 E.06984
G1 X174.08 Y148.672 E.0573
G1 X174.291 Y149.799 E.05754
G1 X174.314 Y158.083 E.41574
G1 X174.415 Y160.222 E.10747
G1 X174.306 Y162.385 E.10869
G1 X174.091 Y163.637 E.06375
G1 X173.559 Y164.838 E.06592
G1 X172.468 Y166.13 E.08487
G1 X171.571 Y166.734 E.05427
G1 X170.541 Y167.155 E.05584
G1 X169.475 Y167.343 E.05432
G1 X167.164 Y167.396 E.11601
G1 X110.522 Y167.341 E2.84263
G1 X52.979 Y159.912 E2.91182
G1 X51.901 Y159.644 E.05575
G1 X50.881 Y159.174 E.05636
G1 X49.299 Y157.788 E.10555
G1 X48.749 Y156.933 E.05102
G1 X48.348 Y155.99 E.05143
G1 X48.079 Y154.394 E.08123
G1 X48.079 Y77.932 E3.83732
G1 X48.235 Y76.731 E.06078
G1 X48.63 Y75.604 E.05993
G1 X49.254 Y74.582 E.06009
G1 X50.061 Y73.721 E.05922
G1 X50.518 Y73.437 E.027
M204 S1000
G1 X50.697 Y73.725 F10800
M204 S800
G1 F1200
G1 X51.702 Y73.102 E.05934
G1 X90.84 Y58.665 E2.09355
G1 X129.452 Y58.534 E1.93779
G1 X184.055 Y43.154 E2.84693
G1 X185.05 Y42.997 E.05055
G1 X186.045 Y43.023 E.04995
G1 X187.293 Y43.331 E.06451
G1 X188.428 Y43.923 E.06424
G1 X189.361 Y44.734 E.06204
G1 X190.101 Y45.765 E.06369
G1 X201.024 Y67.194 E1.20709
G1 X201.308 Y67.895 E.03796
G1 X201.492 Y68.619 E.03749
G1 X201.576 Y69.517 E.04526
G1 X201.576 Y99.775 E1.51853
G1 X201.493 Y100.591 E.04116
G1 X201.007 Y101.956 E.07272
G1 X200.096 Y103.167 E.07605
G1 X199.186 Y103.863 E.0575
G1 X198.16 Y104.32 E.05637
G1 X197.048 Y104.528 E.05677
G1 X188.876 Y104.539 E.41012
G1 X188.87 Y108.97 E.22237
G1 X188.656 Y110.148 E.06009
G1 X188.199 Y111.172 E.05628
G1 X187.558 Y112.025 E.05355
G1 X186.702 Y112.748 E.05623
G1 X185.734 Y113.247 E.05465
G1 X184.167 Y113.56 E.08019
G1 X172.18 Y113.554 E.60158
G1 X172.18 Y146.469 E1.65187
G1 X172.522 Y146.747 E.02212
M73 P1 R91
G1 X173.319 Y147.78 E.06548
G1 X173.755 Y148.791 E.05526
G1 X173.949 Y149.846 E.05383
G1 X173.97 Y158.093 E.41388
G1 X174.07 Y160.222 E.10696
G1 X173.964 Y162.341 E.10648
G1 X173.767 Y163.519 E.05994
G1 X173.278 Y164.636 E.06119
G1 X172.255 Y165.858 E.07998
G1 X171.422 Y166.422 E.05049
G1 X170.462 Y166.819 E.05214
G1 X169.454 Y166.999 E.05139
G1 X167.161 Y167.051 E.11511
G1 X110.555 Y166.997 E2.84083
G1 X53.033 Y159.571 E2.91075
G1 X52.001 Y159.314 E.05337
G1 X51.049 Y158.872 E.05268
G1 X49.576 Y157.581 E.0983
G1 X49.048 Y156.759 E.04903
G1 X48.674 Y155.874 E.04822
G1 X48.423 Y154.38 E.07603
G1 X48.423 Y77.942 E3.83611
G1 X48.566 Y76.827 E.05642
G1 X48.935 Y75.766 E.05638
G1 X49.518 Y74.804 E.05645
G1 X50.297 Y73.973 E.05716
G1 X50.646 Y73.757 E.0206
M204 S1000
G1 X50.825 Y74.046 F10800
M204 S800
G1 F1200
G1 X51.838 Y73.419 E.05979
G1 X90.931 Y58.999 E2.09113
G1 X129.5 Y58.878 E1.93563
G1 X184.139 Y43.489 E2.84879
M73 P2 R91
G1 X185.057 Y43.342 E.04666
M73 Q2 S92
G1 X186.016 Y43.367 E.04814
G1 X187.189 Y43.661 E.06069
G1 X188.249 Y44.218 E.06009
G1 X189.118 Y44.979 E.05797
G1 X189.812 Y45.955 E.0601
G1 X200.713 Y67.344 E1.2048
G1 X200.977 Y67.992 E.03512
G1 X201.15 Y68.666 E.03492
G1 X201.232 Y69.525 E.04331
G1 X201.232 Y99.766 E1.51767
G1 X201.152 Y100.534 E.03875
G1 X200.692 Y101.814 E.06826
G1 X199.836 Y102.938 E.0709
G1 X198.994 Y103.576 E.05302
G1 X198.04 Y103.996 E.05231
G1 X197.032 Y104.183 E.05145
G1 X188.531 Y104.195 E.42663
G1 X188.525 Y108.954 E.23883
G1 X188.332 Y110.028 E.05476
G1 X187.91 Y110.982 E.05235
G1 X187.319 Y111.776 E.04967
G1 X186.526 Y112.451 E.05226
G1 X185.598 Y112.929 E.05239
G1 X184.15 Y113.215 E.07407
G1 X171.835 Y113.203 E.61804
G1 X171.835 Y146.637 E1.67792
G1 X172.263 Y146.976 E.0274
G1 X173.012 Y147.939 E.06123
G1 X173.42 Y148.873 E.05115
G1 X173.607 Y149.893 E.05204
G1 X173.625 Y158.104 E.41208
G1 X173.725 Y160.221 E.10636
G1 X173.619 Y162.321 E.10552
G1 X173.441 Y163.402 E.05498
G1 X172.996 Y164.435 E.05645
G1 X172.04 Y165.587 E.07513
G1 X171.273 Y166.111 E.04662
G1 X170.382 Y166.483 E.04846
G1 X169.432 Y166.654 E.04844
G1 X167.157 Y166.706 E.1142
G1 X110.589 Y166.654 E2.83892
G1 X53.087 Y159.23 E2.90974
G1 X52.131 Y158.994 E.04942
G1 X51.216 Y158.569 E.05063
G1 X49.853 Y157.373 E.091
G1 X49.359 Y156.611 E.04557
G1 X49 Y155.759 E.0464
G1 X48.768 Y154.366 E.07087
G1 X48.768 Y77.954 E3.83481
M73 Q2 S91
G1 X48.906 Y76.889 E.05389
G1 X49.254 Y75.898 E.05271
G1 X49.803 Y75 E.05282
G1 X50.532 Y74.227 E.05332
G1 X50.774 Y74.077 E.01429
M204 S1000
G1 X50.952 Y74.366 F10800
M204 S800
G1 F1200
G1 X51.973 Y73.737 E.06018
G1 X91.022 Y59.333 E2.08878
G1 X129.548 Y59.223 E1.93347
G1 X184.223 Y43.823 E2.85068
G1 X185.095 Y43.686 E.0443
G1 X185.987 Y43.712 E.04478
G1 X187.083 Y43.99 E.05675
G1 X188.069 Y44.513 E.05601
G1 X188.875 Y45.224 E.05394
G1 X189.523 Y46.143 E.05643
G1 X200.403 Y67.495 E1.20266
G1 X200.646 Y68.09 E.03225
G1 X200.808 Y68.713 E.03231
G1 X200.887 Y69.534 E.04139
G1 X200.887 Y99.757 E1.51677
G1 X200.811 Y100.477 E.03633
G1 X200.377 Y101.671 E.06376
G1 X199.577 Y102.709 E.06577
G1 X198.836 Y103.269 E.04661
G1 X197.956 Y103.661 E.04835
G1 X197.015 Y103.838 E.04805
G1 X188.187 Y103.85 E.44304
G1 X188.18 Y108.939 E.2554
G1 X188.008 Y109.907 E.04934
G1 X187.603 Y110.824 E.05031
G1 X187.055 Y111.552 E.04573
G1 X186.319 Y112.174 E.04836
G1 X185.463 Y112.611 E.04823
G1 X184.134 Y112.87 E.06795
G1 X173.789 Y112.889 E.51917
G1 X172.094 Y112.867 E.08507
G1 X171.49 Y112.719 E.03121
G1 X171.49 Y146.807 E1.71074
G1 X172.006 Y147.207 E.03277
G1 X172.705 Y148.097 E.05679
G1 X173.095 Y148.992 E.049
G1 X173.265 Y149.938 E.04824
G1 X173.28 Y158.115 E.41037
G1 X173.38 Y160.22 E.10576
G1 X173.275 Y162.302 E.10462
G1 X173.116 Y163.288 E.05012
G1 X172.714 Y164.236 E.05168
G1 X171.824 Y165.317 E.07027
G1 X171.122 Y165.8 E.04276
G1 X170.301 Y166.147 E.04473
G1 X169.411 Y166.31 E.04541
G1 X167.154 Y166.361 E.1133
G1 X110.622 Y166.31 E2.83711
G1 X53.141 Y158.89 E2.90867
G1 X52.231 Y158.663 E.04707
G1 X51.385 Y158.267 E.04688
G1 X50.129 Y157.166 E.08382
G1 X49.657 Y156.437 E.04358
G1 X49.326 Y155.645 E.04308
G1 X49.113 Y154.352 E.06576
G1 X49.113 Y77.964 E3.8336
G1 X49.237 Y76.986 E.04947
M73 P2 R90
G1 X49.573 Y76.03 E.05085
G1 X50.086 Y75.196 E.04914
G1 X50.766 Y74.481 E.04952
G1 X50.901 Y74.398 E.00795
M204 S1000
G1 X51.079 Y74.687 F10800
M204 S800
G1 F1200
G1 X52.108 Y74.055 E.0606
G1 X91.113 Y59.667 E2.08643
G1 X129.596 Y59.568 E1.93131
G1 X184.306 Y44.158 E2.85251
G1 X185.132 Y44.029 E.04196
G1 X185.957 Y44.056 E.04143
G1 X186.941 Y44.305 E.05094
G1 X187.857 Y44.786 E.05192
G1 X188.605 Y45.44 E.04986
G1 X189.222 Y46.311 E.05357
G1 X200.316 Y68.189 E1.23106
G1 X200.466 Y68.76 E.02963
G1 X200.542 Y69.542 E.03943
G1 X200.542 Y99.748 E1.51592
G1 X200.471 Y100.419 E.03386
M73 P3 R90
G1 X200.063 Y101.525 E.05916
G1 X199.32 Y102.478 E.06065
G1 X198.645 Y102.981 E.04225
G1 X197.871 Y103.326 E.04253
G1 X196.998 Y103.493 E.04461
G1 X187.842 Y103.506 E.4595
G1 X187.835 Y108.924 E.27191
M73 Q3 S91
G1 X187.684 Y109.787 E.04397
G1 X187.296 Y110.666 E.04822
G1 X186.793 Y111.328 E.04173
G1 X186.114 Y111.896 E.04443
G1 X185.33 Y112.292 E.04408
G1 X184.117 Y112.525 E.06199
G1 X173.791 Y112.545 E.51822
G1 X172.12 Y112.522 E.08387
G1 X171.145 Y112.271 E.05053
G1 X171.145 Y146.98 E1.7419
G1 X171.75 Y147.439 E.03811
G1 X172.399 Y148.257 E.0524
G1 X172.76 Y149.073 E.04478
G1 X172.923 Y149.984 E.04645
G1 X172.935 Y158.126 E.40861
G1 X173.035 Y160.22 E.10521
G1 X172.93 Y162.282 E.10362
G1 X172.789 Y163.175 E.04537
G1 X172.43 Y164.038 E.04691
G1 X171.607 Y165.048 E.06538
G1 X170.97 Y165.491 E.03894
G1 X170.219 Y165.811 E.04097
G1 X169.389 Y165.965 E.04237
G1 X167.151 Y166.016 E.11235
G1 X110.655 Y165.967 E2.8353
G1 X53.195 Y158.549 E2.90761
G1 X52.331 Y158.333 E.0447
G1 X51.554 Y157.966 E.04313
G1 X50.405 Y156.958 E.07671
G1 X49.969 Y156.289 E.04008
G1 X49.652 Y155.53 E.04128
G1 X49.458 Y154.338 E.06061
G1 X49.458 Y77.975 E3.83235
G1 X49.569 Y77.082 E.04516
G1 X49.877 Y76.195 E.04712
G1 X50.37 Y75.393 E.04725
G1 X51 Y74.735 E.04572
G1 X51.027 Y74.719 E.00158
M204 S1000
G1 X51.232 Y74.991 F10800
M204 S800
G1 F1200
G1 X52.243 Y74.372 E.05949
G1 X91.204 Y60.002 E2.08405
G1 X129.644 Y59.913 E1.92915
G1 X184.39 Y44.493 E2.85438
G1 X185.137 Y44.374 E.03796
M73 Q3 S90
G1 X185.926 Y44.4 E.03962
G1 X186.835 Y44.633 E.04709
G1 X187.677 Y45.081 E.04787
G1 X188.361 Y45.685 E.0458
G1 X188.92 Y46.478 E.04869
G1 X199.782 Y67.795 E1.20069
G1 X200.128 Y68.833 E.05491
G1 X200.197 Y69.55 E.03615
G1 X200.197 Y99.738 E1.51501
G1 X200.13 Y100.36 E.0314
G1 X199.75 Y101.379 E.05458
G1 X199.064 Y102.246 E.05548
G1 X198.486 Y102.674 E.03609
G1 X197.785 Y102.992 E.03863
G1 X196.981 Y103.148 E.0411
G1 X187.498 Y103.162 E.47591
G1 X187.491 Y108.908 E.28837
G1 X187.348 Y109.705 E.04064
G1 X186.99 Y110.506 E.04403
G1 X186.531 Y111.102 E.03775
G1 X185.941 Y111.597 E.03865
G1 X185.196 Y111.973 E.04188
G1 X184.102 Y112.18 E.05588
G1 X172.147 Y112.178 E.59997
G1 X171.267 Y111.945 E.04569
G1 X170.8 Y111.685 E.02682
G1 X170.8 Y147.153 E1.77999
G1 X171.495 Y147.672 E.04353
G1 X172.093 Y148.418 E.04798
G1 X172.435 Y149.193 E.04251
G1 X172.581 Y150.028 E.04254
G1 X172.59 Y158.128 E.40651
G1 X172.69 Y160.219 E.10506
G1 X172.585 Y162.263 E.10272
G1 X172.462 Y163.065 E.04072
G1 X172.145 Y163.842 E.04211
G1 X171.389 Y164.78 E.06046
G1 X170.816 Y165.181 E.0351
G1 X170.135 Y165.476 E.03725
G1 X169.367 Y165.621 E.03922
G1 X167.147 Y165.671 E.11144
G1 X110.688 Y165.623 E2.83345
G1 X53.249 Y158.208 E2.90655
G1 X52.463 Y158.013 E.04064
G1 X51.723 Y157.664 E.04106
G1 X50.681 Y156.75 E.06956
G1 X50.267 Y156.114 E.03808
G1 X49.978 Y155.417 E.03787
G1 X49.803 Y154.325 E.0555
G1 X49.803 Y77.986 E3.83114
G1 X49.909 Y77.143 E.04264
G1 X50.196 Y76.327 E.04341
G1 X50.653 Y75.591 E.04348
G1 X51.191 Y75.034 E.03886
M204 S1000
G1 X51.438 Y75.275 F10800
M204 S800
G1 F1200
G1 X51.464 Y75.248 E.00188
G1 X52.378 Y74.69 E.05374
G1 X91.294 Y60.336 E2.08165
G1 X129.692 Y60.258 E1.92704
G1 X184.474 Y44.828 E2.85626
G1 X185.174 Y44.717 E.03557
G1 X185.894 Y44.744 E.03616
G1 X186.727 Y44.962 E.04321
G1 X187.495 Y45.374 E.04374
G1 X188.117 Y45.929 E.04184
G1 X188.618 Y46.645 E.04386
G1 X199.661 Y68.407 E1.22471
